%
(1001)
(T1 D=2 CR=0 - ZMIN=-7.5 - flat end mill)
N10 G90 G94
N15 G17
N20 G21
N25 M9
N30 G28

(2D ????13)
N35 T1 M6
(0)
N40 S23873 M3
N45 G54
N50 M8
N55 G0 X-3.901 Y20.827
N60 G43 Z15
N65 Z5
N70 G1 Z-1.8 F400
N75 G18 G2 X-3.701 Z-2 I0.2
N80 G1 X-0.898
N85 X0.354 F600
N90 G17 G3 X0.673 Y21.146 J0.319
N95 G1 Y22.89
N100 G3 X-0.109 I-0.391
N105 X-0.088 Y22.761 I0.391
N110 G1 X0.292 Y21.672
N115 G2 X-0.109 Y21.153 I-0.369 J-0.129
N120 G1 X-0.898 Y21.218
N125 G3 X-1.321 Y20.817 I-0.032 J-0.39
N130 G1 X-1.287 Y19.642
N135 G3 X-0.896 Y19.263 I0.391 J0.011
N140 G1 X1.918
N145 G3 X2.237 Y19.582 J0.319
N150 G1 Y22.892
N155 G3 X1.819 Y23.282 I-0.391
N160 X1.459 Y22.838 I0.027 J-0.39
N165 G1 X1.854 Y20.031
N170 G2 X1.455 Y19.586 I-0.387 J-0.054
N175 G1 X-0.896 Y19.654
N180 G3 X-0.98 Y18.879 I-0.011 J-0.391
N185 G1 X3.337 Y18.056
N190 G3 X3.802 Y18.44 I0.073 J0.384
N195 G1 Y22.894
N200 G3 X3.453 Y23.028 I-0.2
N205 G1 X-1.043 Y18.032
N210 G3 X-0.894 Y17.698 I0.149 J-0.134
N215 G1 X3.482
N220 X3.544 Y17.704
N225 X3.603 Y17.722
N230 X3.657 Y17.75
N235 X3.705 Y17.789
N240 G3 X3.437 Y18.46 I-0.273 J0.28
N245 G1 X1.488 Y18.486
N250 X1.418 Y18.481
N255 X-0.894 Y18.089
N260 G3 X-1.219 Y17.725 I0.065 J-0.386
N265 G1 X-1.282 Y16.546
N270 G3 X-0.892 Y16.134 I0.391 J-0.021
N275 G1 X5.047
N280 G3 X5.366 Y16.453 J0.319
N285 G1 Y22.896
N290 G3 X4.962 Y23.287 I-0.391
N295 X4.585 Y22.871 I0.013 J-0.391
N300 G1 X4.979 Y16.871
N305 G2 X4.584 Y16.455 I-0.39 J-0.026
N310 G1 X-0.892 Y16.525
N315 G3 X-1.288 Y16.132 I-0.005 J-0.391
N320 G1 X-1.281 Y14.958
N325 G3 X-0.89 Y14.569 I0.391 J0.002
N330 G1 X6.611
N335 G3 X6.931 Y14.889 J0.319
N340 G1 Y22.898
N345 G3 X6.529 Y23.289 I-0.391
N350 X6.149 Y22.878 I0.01 J-0.391
N355 G1 X6.543 Y15.304
N360 G2 X6.148 Y14.892 I-0.391 J-0.02
N365 G1 X-0.89 Y14.961
N370 G3 X-1.285 Y14.571 I-0.004 J-0.391
N375 G1 X-1.29 Y13.393
N380 G3 X-0.899 Y13 I0.391 J-0.002
N385 G1 X8.5
N390 Y22
N395 Y22.899
N400 X8.493 Y22.935
N405 X8.473 Y22.967
N410 X8.444 Y22.989
N415 X8.408 Y22.999
N420 X1.943 Y23.517
N425 X1.915 Y23.518
N430 X1.888 Y23.512
N435 X1.864 Y23.498
N440 X-1.367 Y21.006
N445 X-1.391 Y20.98
N450 X-1.404 Y20.947
N455 X-1.405 Y20.912
N460 X-1.393 Y20.879
N465 X-1.371 Y20.851
N470 X-1.341 Y20.833
N475 X-1.306 Y20.827
N480 G18 G3 X-1.106 Z-2.2 K-0.2 F400
N485 G1 Z-3.3
N490 G2 X-0.906 Z-3.5 I0.2
N495 G1 X-0.898
N500 X0.354 F600
N505 G17 G3 X0.673 Y21.146 J0.319
N510 G1 Y22.89
N515 G3 X-0.109 I-0.391
N520 X-0.088 Y22.761 I0.391
N525 G1 X0.292 Y21.672
N530 G2 X-0.109 Y21.153 I-0.369 J-0.129
N535 G1 X-0.898 Y21.218
N540 G3 X-1.321 Y20.817 I-0.032 J-0.39
N545 G1 X-1.287 Y19.642
N550 G3 X-0.896 Y19.263 I0.391 J0.011
N555 G1 X1.918
N560 G3 X2.237 Y19.582 J0.319
N565 G1 Y22.892
N570 G3 X1.819 Y23.282 I-0.391
N575 X1.459 Y22.838 I0.027 J-0.39
N580 G1 X1.854 Y20.031
N585 G2 X1.455 Y19.586 I-0.387 J-0.054
N590 G1 X-0.896 Y19.654
N595 G3 X-0.98 Y18.879 I-0.011 J-0.391
N600 G1 X3.337 Y18.056
N605 G3 X3.802 Y18.44 I0.073 J0.384
N610 G1 Y22.894
N615 G3 X3.453 Y23.028 I-0.2
N620 G1 X-1.043 Y18.032
N625 G3 X-0.894 Y17.698 I0.149 J-0.134
N630 G1 X3.482
N635 X3.544 Y17.704
N640 X3.603 Y17.722
N645 X3.657 Y17.75
N650 X3.705 Y17.789
N655 G3 X3.437 Y18.46 I-0.273 J0.28
N660 G1 X1.488 Y18.486
N665 X1.418 Y18.481
N670 X-0.894 Y18.089
N675 G3 X-1.219 Y17.725 I0.065 J-0.386
N680 G1 X-1.282 Y16.546
N685 G3 X-0.892 Y16.134 I0.391 J-0.021
N690 G1 X5.047
N695 G3 X5.366 Y16.453 J0.319
N700 G1 Y22.896
N705 G3 X4.962 Y23.287 I-0.391
N710 X4.585 Y22.871 I0.013 J-0.391
N715 G1 X4.979 Y16.871
N720 G2 X4.584 Y16.455 I-0.39 J-0.026
N725 G1 X-0.892 Y16.525
N730 G3 X-1.288 Y16.132 I-0.005 J-0.391
N735 G1 X-1.281 Y14.958
N740 G3 X-0.89 Y14.569 I0.391 J0.002
N745 G1 X6.611
N750 G3 X6.931 Y14.889 J0.319
N755 G1 Y22.898
N760 G3 X6.529 Y23.289 I-0.391
N765 X6.149 Y22.878 I0.01 J-0.391
N770 G1 X6.543 Y15.304
N775 G2 X6.148 Y14.892 I-0.391 J-0.02
N780 G1 X-0.89 Y14.961
N785 G3 X-1.285 Y14.571 I-0.004 J-0.391
N790 G1 X-1.29 Y13.393
N795 G3 X-0.899 Y13 I0.391 J-0.002
N800 G1 X8.5
N805 Y22
N810 Y22.899
N815 X8.498 Y22.93
N820 X8.341 Y23.918
N825 X8.333 Y23.969 Z-3.493
N830 X8.325 Y24.017 Z-3.473
N835 X8.319 Y24.058 Z-3.441
N840 X8.314 Y24.089 Z-3.4
N845 X8.311 Y24.109 Z-3.352
N850 X8.31 Y24.116 Z-3.3
N855 G0 Z15
N860 X0.673 Y94.116
N865 Z5
N870 G1 Z-1.8 F400
N875 G19 G3 Y94.316 Z-2 J0.2
N880 G1 Y97.102
N885 Y98.854 F600
N890 G17 G3 X0.354 Y99.173 I-0.319
N895 G1 X-0.9
N900 X-0.907
N905 G18 G3 X-1.107 Z-1.8 K0.2
N910 G1 X2.237 Y94.118
N915 G19 G3 Y94.318 Z-2 J0.2 F400
N920 G1 Y97.104
N925 Y100.418 F600
N930 G17 G3 X1.918 Y100.737 I-0.319
N935 G1 X-0.888
N940 X-0.896
N945 G18 G3 X-1.096 Z-1.8 K0.2
N950 G1 Z3
N955 X3.865 Y102.048
N960 Z-1.8 F400
N965 X3.86 Y102.053 Z-1.852
N970 X3.846 Y102.067 Z-1.9
N975 X3.824 Y102.09 Z-1.941
N980 X3.795 Y102.12 Z-1.973
N985 X3.761 Y102.154 Z-1.993
N990 X3.725 Y102.191 Z-2
N995 X3.711 Y102.205
N1000 X3.662 Y102.246 F600
N1005 X3.606 Y102.277
N1010 X3.546 Y102.295
N1015 X3.482 Y102.302
N1020 X-0.89
N1025 G17 G3 X-1.039 Y101.968 J-0.2
N1030 G1 X3.453 Y96.972
N1035 G3 X3.802 Y97.106 I0.149 J0.134
N1040 G1 Y101.588
N1045 G3 X3.019 Y101.589 I-0.391
N1050 G1 X3.014 Y99.415
N1055 X3.019 Y99.347
N1060 X3.411 Y97.106
N1065 G3 X3.774 Y96.783 I0.385 J0.067
N1070 G1 X4.953 Y96.718
N1075 G3 X5.366 Y97.108 I0.022 J0.391
N1080 G1 Y103.547
N1085 G3 X5.047 Y103.866 I-0.319
N1090 G1 X-0.892
N1095 X-0.9
N1100 G18 G3 X-1.1 Z-1.8 K0.2
N1105 G1 X6.931 Y94.119
N1110 G19 G3 Y94.319 Z-2 J0.2 F400
N1115 G1 Y97.11
N1120 Y105.111 F600
N1125 G17 G3 X6.611 Y105.431 I-0.319
N1130 G1 X-0.894
N1135 X-1.894
N1140 G18 G3 X-2.094 Z-1.8 K0.2
N1145 G1 X8.03 Y94.12
N1150 Z-1.82
N1155 X8.031 Y94.126 Z-1.867 F400
N1160 X8.034 Y94.144 Z-1.91
N1165 X8.039 Y94.172 Z-1.947
N1170 X8.044 Y94.209 Z-1.976
N1175 X8.051 Y94.252 Z-1.994
N1180 X8.058 Y94.298 Z-2
N1185 X8.498 Y97.07
N1190 X8.5 Y97.101
N1195 Y107 F600
N1200 X0
N1205 X-0.899
N1210 X-0.934 Y106.994
N1215 X-0.965 Y106.975
N1220 X-0.987 Y106.947
N1225 X-0.998 Y106.913
N1230 X-1.877 Y100.083
N1235 X-1.881 Y100.054
N1240 X-1.876 Y100.025
N1245 X-1.863 Y99.998
N1250 X0.491 Y96.637
N1255 X0.517 Y96.612
N1260 X0.549 Y96.597
N1265 X0.585 Y96.595
N1270 X0.62 Y96.606
N1275 X0.648 Y96.628
N1280 X0.666 Y96.659
N1285 X0.673 Y96.694
N1290 G19 G2 Y96.894 Z-2.2 K-0.2 F400
N1295 G1 Z-3.3
N1300 G3 Y97.094 Z-3.5 J0.2
N1305 G1 Y97.102
N1310 Y98.854 F600
N1315 G17 G3 X0.354 Y99.173 I-0.319
N1320 G1 X-0.9
N1325 X-0.907
N1330 G18 G3 X-1.107 Z-3.3 K0.2
N1335 G1 X2.237 Y94.118
N1340 G19 G3 Y94.318 Z-3.5 J0.2 F400
N1345 G1 Y97.104
N1350 Y100.418 F600
N1355 G17 G3 X1.918 Y100.737 I-0.319
N1360 G1 X-0.888
N1365 X-0.896
N1370 G18 G3 X-1.096 Z-3.3 K0.2
N1375 G1 Z1
N1380 X3.865 Y102.048
N1385 Z-3.3 F400
N1390 X3.86 Y102.053 Z-3.352
N1395 X3.846 Y102.067 Z-3.4
N1400 X3.824 Y102.09 Z-3.441
N1405 X3.795 Y102.12 Z-3.473
N1410 X3.761 Y102.154 Z-3.493
N1415 X3.725 Y102.191 Z-3.5
N1420 X3.711 Y102.205
N1425 X3.662 Y102.246 F600
N1430 X3.606 Y102.277
N1435 X3.546 Y102.295
N1440 X3.482 Y102.302
N1445 X-0.89
N1450 G17 G3 X-1.039 Y101.968 J-0.2
N1455 G1 X3.453 Y96.972
N1460 G3 X3.802 Y97.106 I0.149 J0.134
N1465 G1 Y101.588
N1470 G3 X3.019 Y101.589 I-0.391
N1475 G1 X3.014 Y99.415
N1480 X3.019 Y99.347
N1485 X3.411 Y97.106
N1490 G3 X3.774 Y96.783 I0.385 J0.067
N1495 G1 X4.953 Y96.718
N1500 G3 X5.366 Y97.108 I0.022 J0.391
N1505 G1 Y103.547
N1510 G3 X5.047 Y103.866 I-0.319
N1515 G1 X-0.892
N1520 X-0.9
N1525 G18 G3 X-1.1 Z-3.3 K0.2
N1530 G1 X6.931 Y94.119
N1535 G19 G3 Y94.319 Z-3.5 J0.2 F400
N1540 G1 Y97.11
N1545 Y105.111 F600
N1550 G17 G3 X6.611 Y105.431 I-0.319
N1555 G1 X-0.894
N1560 X-1.894
N1565 G18 G3 X-2.094 Z-3.3 K0.2
N1570 G1 X8.03 Y94.12
N1575 Z-3.32
N1580 X8.031 Y94.126 Z-3.367 F400
N1585 X8.034 Y94.144 Z-3.41
N1590 X8.039 Y94.172 Z-3.447
N1595 X8.044 Y94.209 Z-3.476
N1600 X8.051 Y94.252 Z-3.494
N1605 X8.058 Y94.298 Z-3.5
N1610 X8.498 Y97.07
N1615 X8.5 Y97.101
N1620 Y107 F600
N1625 X0
N1630 X-0.899
N1635 X-0.93 Y106.998
N1640 X-1.918 Y106.841
N1645 X-1.969 Y106.833 Z-3.493
N1650 X-2.017 Y106.825 Z-3.473
N1655 X-2.058 Y106.819 Z-3.441
N1660 X-2.089 Y106.814 Z-3.4
N1665 X-2.109 Y106.811 Z-3.352
N1670 X-2.116 Y106.81 Z-3.3
N1675 G0 Z15
N1680 G17

(2D ??19)
N1685 G0 X4.65 Y4.8
N1690 Z15
N1695 Z5
N1700 G1 Z3 F600
N1705 Z-1.8
N1710 G18 G2 X4.85 Z-2 I0.2
N1715 G1 X5.05 F400
N1720 G17 G3 X5.25 Y5 J0.2
N1725 X3.75 I-0.75 F600
N1730 X5.25 I0.75
N1735 X5.05 Y5.2 I-0.2
N1740 G1 X4.85
N1745 G18 G3 X4.65 Z-1.8 K0.2
N1750 G0 Z5
N1755 Y4.8
N1760 G1 Z1 F600
N1765 Z-3.8
N1770 G2 X4.85 Z-4 I0.2
N1775 G1 X5.05 F400
N1780 G17 G3 X5.25 Y5 J0.2
N1785 X3.75 I-0.75 F600
N1790 X5.25 I0.75
N1795 X5.05 Y5.2 I-0.2
N1800 G1 X4.85
N1805 G18 G3 X4.65 Z-3.8 K0.2
N1810 G0 Z5
N1815 Y114.8
N1820 G1 Z3 F600
N1825 Z-1.8
N1830 G2 X4.85 Z-2 I0.2
N1835 G1 X5.05 F400
N1840 G17 G3 X5.25 Y115 J0.2
N1845 X3.75 I-0.75 F600
N1850 X5.25 I0.75
N1855 X5.05 Y115.2 I-0.2
N1860 G1 X4.85
N1865 G18 G3 X4.65 Z-1.8 K0.2
N1870 G0 Z5
N1875 Y114.8
N1880 G1 Z1 F600
N1885 Z-3.8
N1890 G2 X4.85 Z-4 I0.2
N1895 G1 X5.05 F400
N1900 G17 G3 X5.25 Y115 J0.2
N1905 X3.75 I-0.75 F600
N1910 X5.25 I0.75
N1915 X5.05 Y115.2 I-0.2
N1920 G1 X4.85
N1925 G18 G3 X4.65 Z-3.8 K0.2
N1930 G0 Z15
N1935 Y17.8
N1940 Z5
N1945 G1 Z3 F600
N1950 Z-1.8
N1955 G2 X4.85 Z-2 I0.2
N1960 G1 X5.05 F400
N1965 G17 G3 X5.25 Y18 J0.2
N1970 X3.75 I-0.75 F600
N1975 X5.25 I0.75
N1980 X5.05 Y18.2 I-0.2
N1985 G1 X4.85
N1990 G18 G3 X4.65 Z-1.8 K0.2
N1995 G0 Z5
N2000 Y17.8
N2005 G1 Z1 F600
N2010 Z-3.8
N2015 G2 X4.85 Z-4 I0.2
N2020 G1 X5.05 F400
N2025 G17 G3 X5.25 Y18 J0.2
N2030 X3.75 I-0.75 F600
N2035 X5.25 I0.75
N2040 X5.05 Y18.2 I-0.2
N2045 G1 X4.85
N2050 G18 G3 X4.65 Z-3.8 K0.2
N2055 G0 Z5
N2060 Y17.8
N2065 G1 Z-1 F600
N2070 Z-5.8
N2075 G2 X4.85 Z-6 I0.2
N2080 G1 X5.05 F400
N2085 G17 G3 X5.25 Y18 J0.2
N2090 X3.75 I-0.75 F600
N2095 X5.25 I0.75
N2100 X5.05 Y18.2 I-0.2
N2105 G1 X4.85
N2110 G18 G3 X4.65 Z-5.8 K0.2
N2115 G0 Z5
N2120 Y17.8
N2125 G1 Z-3 F600
N2130 Z-7.3
N2135 G2 X4.85 Z-7.5 I0.2
N2140 G1 X5.05 F400
N2145 G17 G3 X5.25 Y18 J0.2
N2150 X3.75 I-0.75 F600
N2155 X5.25 I0.75
N2160 X5.05 Y18.2 I-0.2
N2165 G1 X4.85
N2170 G18 G3 X4.65 Z-7.3 K0.2
N2175 G0 Z5
N2180 X4.677 Y101.823
N2185 G1 Z3 F600
N2190 Z-1.8
N2195 X4.684 Y101.824 Z-1.852
N2200 X4.704 Y101.827 Z-1.9
N2205 X4.735 Y101.832 Z-1.941
N2210 X4.776 Y101.838 Z-1.973
N2215 X4.824 Y101.845 Z-1.993
N2220 X4.875 Y101.852 Z-2
N2225 X5.073 Y101.881 F400
N2230 G17 G3 X5.242 Y102.107 I-0.029 J0.198
N2235 X3.758 Y101.893 I-0.742 J-0.107 F600
N2240 X5.242 Y102.107 I0.742 J0.107
N2245 X5.016 Y102.277 I-0.198 J-0.029
N2250 G1 X4.818 Y102.248
N2255 X4.767 Y102.241 Z-1.993
N2260 X4.719 Y102.234 Z-1.973
N2265 X4.678 Y102.228 Z-1.941
N2270 X4.646 Y102.223 Z-1.9
N2275 X4.627 Y102.22 Z-1.852
N2280 X4.62 Y102.219 Z-1.8
N2285 G0 Z5
N2290 X4.677 Y101.823
N2295 G1 Z1 F600
N2300 Z-3.8
N2305 X4.684 Y101.824 Z-3.852
N2310 X4.704 Y101.827 Z-3.9
N2315 X4.735 Y101.832 Z-3.941
N2320 X4.776 Y101.838 Z-3.973
N2325 X4.824 Y101.845 Z-3.993
N2330 X4.875 Y101.852 Z-4
N2335 X5.073 Y101.881 F400
N2340 G3 X5.242 Y102.107 I-0.029 J0.198
N2345 X3.758 Y101.893 I-0.742 J-0.107 F600
N2350 X5.242 Y102.107 I0.742 J0.107
N2355 X5.016 Y102.277 I-0.198 J-0.029
N2360 G1 X4.818 Y102.248
N2365 X4.767 Y102.241 Z-3.993
N2370 X4.719 Y102.234 Z-3.973
N2375 X4.678 Y102.228 Z-3.941
N2380 X4.646 Y102.223 Z-3.9
N2385 X4.627 Y102.22 Z-3.852
N2390 X4.62 Y102.219 Z-3.8
N2395 G0 Z5
N2400 X4.677 Y101.823
N2405 G1 Z-1 F600
N2410 Z-5.8
N2415 X4.684 Y101.824 Z-5.852
N2420 X4.704 Y101.827 Z-5.9
N2425 X4.735 Y101.832 Z-5.941
N2430 X4.776 Y101.838 Z-5.973
N2435 X4.824 Y101.845 Z-5.993
N2440 X4.875 Y101.852 Z-6
N2445 X5.073 Y101.881 F400
N2450 G3 X5.242 Y102.107 I-0.029 J0.198
N2455 X3.758 Y101.893 I-0.742 J-0.107 F600
N2460 X5.242 Y102.107 I0.742 J0.107
N2465 X5.016 Y102.277 I-0.198 J-0.029
N2470 G1 X4.818 Y102.248
N2475 X4.767 Y102.241 Z-5.993
N2480 X4.719 Y102.234 Z-5.973
N2485 X4.678 Y102.228 Z-5.941
N2490 X4.646 Y102.223 Z-5.9
N2495 X4.627 Y102.22 Z-5.852
N2500 X4.62 Y102.219 Z-5.8
N2505 G0 Z5
N2510 X4.677 Y101.823
N2515 G1 Z-3 F600
N2520 Z-7.3
N2525 X4.684 Y101.824 Z-7.352
N2530 X4.704 Y101.827 Z-7.4
N2535 X4.735 Y101.832 Z-7.441
N2540 X4.776 Y101.838 Z-7.473
N2545 X4.824 Y101.845 Z-7.493
N2550 X4.875 Y101.852 Z-7.5
N2555 X5.073 Y101.881 F400
N2560 G3 X5.242 Y102.107 I-0.029 J0.198
N2565 X3.758 Y101.893 I-0.742 J-0.107 F600
N2570 X5.242 Y102.107 I0.742 J0.107
N2575 X5.016 Y102.277 I-0.198 J-0.029
N2580 G1 X4.818 Y102.248
N2585 X4.767 Y102.241 Z-7.493
N2590 X4.719 Y102.234 Z-7.473
N2595 X4.678 Y102.228 Z-7.441
N2600 X4.646 Y102.223 Z-7.4
N2605 X4.627 Y102.22 Z-7.352
N2610 X4.62 Y102.219 Z-7.3
N2615 G0 Z15
N2620 M9
N2625 G28
N2630 M30
%
