%
(1001)
(T1 D=2 CR=0 - ZMIN=-4.1 - flat end mill)
N10 G90 G94
N15 G17
N20 G21
N25 M9
N30 G28

(2D ????3)
N35 T1 M6
(0)
N40 S23873 M3
N45 G54
N50 M8
N55 G0 X4.259 Y31.896
N60 G43 Z5
N65 G1 Z2.7 F400
N70 X4.285 Y31.894 Z2.602 F600
N75 X4.355 Y31.89 Z2.529
N80 X4.452 Y31.894 Z2.5
N85 G3 X4.288 Y33.786 Z2.396 I-0.082 J0.946
N90 X4.452 Y31.894 Z2.292 I0.082 J-0.946
N95 X4.288 Y33.786 Z2.187 I-0.082 J0.946
N100 X4.452 Y31.894 Z2.083 I0.082 J-0.946
N105 X4.288 Y33.786 Z1.979 I-0.082 J0.946
N110 X4.452 Y31.894 Z1.875 I0.082 J-0.946
N115 X4.288 Y33.786 Z1.77 I-0.082 J0.946
N120 X4.452 Y31.894 Z1.666 I0.082 J-0.946
N125 X4.288 Y33.786 Z1.562 I-0.082 J0.946
N130 X4.452 Y31.894 Z1.458 I0.082 J-0.946
N135 X4.288 Y33.786 Z1.354 I-0.082 J0.946
N140 X4.452 Y31.894 Z1.249 I0.082 J-0.946
N145 X4.288 Y33.786 Z1.145 I-0.082 J0.946
N150 X4.452 Y31.894 Z1.041 I0.082 J-0.946
N155 X4.288 Y33.786 Z0.937 I-0.082 J0.946
N160 X4.452 Y31.894 Z0.832 I0.082 J-0.946
N165 X4.288 Y33.786 Z0.728 I-0.082 J0.946
N170 X4.452 Y31.894 Z0.624 I0.082 J-0.946
N175 X4.288 Y33.786 Z0.52 I-0.082 J0.946
N180 X4.452 Y31.894 Z0.416 I0.082 J-0.946
N185 X4.288 Y33.786 Z0.311 I-0.082 J0.946
N190 X4.452 Y31.894 Z0.207 I0.082 J-0.946
N195 X4.288 Y33.786 Z0.103 I-0.082 J0.946
N200 X4.452 Y31.894 Z-0.001 I0.082 J-0.946
N205 X4.288 Y33.786 Z-0.106 I-0.082 J0.946
N210 X4.452 Y31.894 Z-0.21 I0.082 J-0.946
N215 X4.288 Y33.786 Z-0.314 I-0.082 J0.946
N220 X4.452 Y31.894 Z-0.418 I0.082 J-0.946
N225 X4.288 Y33.786 Z-0.522 I-0.082 J0.946
N230 X4.452 Y31.894 Z-0.627 I0.082 J-0.946
N235 X4.288 Y33.786 Z-0.731 I-0.082 J0.946
N240 X4.452 Y31.894 Z-0.835 I0.082 J-0.946
N245 X4.288 Y33.786 Z-0.939 I-0.082 J0.946
N250 X4.452 Y31.894 Z-1.044 I0.082 J-0.946
N255 X4.288 Y33.786 Z-1.148 I-0.082 J0.946
N260 X4.452 Y31.894 Z-1.252 I0.082 J-0.946
N265 X4.288 Y33.786 Z-1.356 I-0.082 J0.946
N270 X4.452 Y31.894 Z-1.46 I0.082 J-0.946
N275 X4.288 Y33.786 Z-1.565 I-0.082 J0.946
N280 X4.452 Y31.894 Z-1.669 I0.082 J-0.946
N285 X4.288 Y33.786 Z-1.773 I-0.082 J0.946
N290 X4.452 Y31.894 Z-1.877 I0.082 J-0.946
N295 X4.288 Y33.786 Z-1.982 I-0.082 J0.946
N300 X3.8 Y33.6 Z-2 I0.082 J-0.946
N305 X6.2 Y30.4 I1.2 J-1.6
N310 X3.8 Y33.6 I-1.2 J1.6
N315 X6.2 Y30.4 Z-2.219 I1.2 J-1.6
N320 X3.8 Y33.6 Z-2.439 I-1.2 J1.6
N325 X3.003 Y32.103 Z-2.5 I1.2 J-1.6
N330 X6.997 Y31.897 I1.997 J-0.103
N335 X3.003 Y32.103 I-1.997 J0.103
N340 G1 X3.006 Y32.053 Z-2.487
N345 X3.022 Y32.006 Z-2.473
N350 X3.041 Y31.974 Z-2.437
N355 X3.065 Y31.947 Z-2.4
N360 X3.086 Y31.93 Z-2.3
N365 G0 Z5

(2D ??1)
N370 X5.15 Y31.8
N375 G1 Z5 F600
N380 Z3
N385 Z-1.8
N390 G18 G2 X5.35 Z-2 I0.2
N395 G1 X5.55 F400
N400 G17 G3 X5.75 Y32 J0.2
N405 X4.25 I-0.75 F600
N410 X5.75 I0.75
N415 X5.55 Y32.2 I-0.2
N420 G1 X5.35
N425 G18 G3 X5.15 Z-1.8 K0.2
N430 G0 Z5
N435 Y31.8
N440 G1 Z1 F600
N445 Z-2.85
N450 G2 X5.35 Z-3.05 I0.2
N455 G1 X5.55 F400
N460 G17 G3 X5.75 Y32 J0.2
N465 X4.25 I-0.75 F600
N470 X5.75 I0.75
N475 X5.55 Y32.2 I-0.2
N480 G1 X5.35
N485 G18 G3 X5.15 Z-2.85 K0.2
N490 G0 Z5
N495 Y31.8
N500 G1 Z-0.05 F600
N505 Z-3.9
N510 G2 X5.35 Z-4.1 I0.2
N515 G1 X5.55 F400
N520 G17 G3 X5.75 Y32 J0.2
N525 X4.25 I-0.75 F600
N530 X5.75 I0.75
N535 X5.55 Y32.2 I-0.2
N540 G1 X5.35
N545 G18 G3 X5.15 Z-3.9 K0.2
N550 G0 Z5
N555 G17

(2D ??2)
N560 G0 X7.369 Y38.189
N565 G1 Z5 F600
N570 Z3
N575 Z-1.8
N580 X7.368 Y38.182 Z-1.852
N585 X7.365 Y38.162 Z-1.9
N590 X7.361 Y38.131 Z-1.941
N595 X7.355 Y38.09 Z-1.973
N600 X7.349 Y38.042 Z-1.993
N605 X7.342 Y37.991 Z-2
N610 X7.315 Y37.793 F400
N615 G3 X7.486 Y37.567 I0.198 J-0.027
N620 G2 X10.6 Y33.997 I-0.486 J-3.567 F600
N625 G1 Y30
N630 G3 X13 Y27.6 I2.4
N635 G1 X22.049
N640 X22.059
N645 G2 X25.6 Y23.997 I-0.059 J-3.6
N650 G1 Y3
N655 G2 X22 Y-0.6 I-3.6
N660 G1 X3
N665 G2 X-0.6 Y3 J3.6
N670 G1 Y34
N675 G2 X2.941 Y37.6 I3.6
N680 G1 X2.951
N685 X7.049
N690 X7.059
N695 G2 X7.486 Y37.567 I-0.059 J-3.6
N700 G3 X7.711 Y37.739 I0.027 J0.198
N705 G1 X7.738 Y37.937
N710 X7.745 Y37.988 Z-1.993
N715 X7.752 Y38.036 Z-1.973
N720 X7.757 Y38.077 Z-1.941
N725 X7.761 Y38.108 Z-1.9
N730 X7.764 Y38.128 Z-1.852
N735 X7.765 Y38.135 Z-1.8
N740 G0 Z5
N745 X7.369 Y38.189
N750 G1 Z1 F600
N755 Z-2.85
N760 X7.368 Y38.182 Z-2.902
N765 X7.365 Y38.162 Z-2.95
N770 X7.361 Y38.131 Z-2.991
N775 X7.355 Y38.09 Z-3.023
N780 X7.349 Y38.042 Z-3.043
N785 X7.342 Y37.991 Z-3.05
N790 X7.315 Y37.793 F400
N795 G3 X7.486 Y37.567 I0.198 J-0.027
N800 G2 X10.6 Y33.997 I-0.486 J-3.567 F600
N805 G1 Y30
N810 G3 X13 Y27.6 I2.4
N815 G1 X22.049
N820 X22.059
N825 G2 X25.6 Y23.997 I-0.059 J-3.6
N830 G1 Y3
N835 G2 X22 Y-0.6 I-3.6
N840 G1 X3
N845 G2 X-0.6 Y3 J3.6
N850 G1 Y34
N855 G2 X2.941 Y37.6 I3.6
N860 G1 X2.951
N865 X7.049
N870 X7.059
N875 G2 X7.486 Y37.567 I-0.059 J-3.6
N880 G3 X7.711 Y37.739 I0.027 J0.198
N885 G1 X7.738 Y37.937
N890 X7.745 Y37.988 Z-3.043
N895 X7.752 Y38.036 Z-3.023
N900 X7.757 Y38.077 Z-2.991
N905 X7.761 Y38.108 Z-2.95
N910 X7.764 Y38.128 Z-2.902
N915 X7.765 Y38.135 Z-2.85
N920 G0 Z5
N925 X7.369 Y38.189
N930 G1 Z-0.05 F600
N935 Z-3.9
N940 X7.368 Y38.182 Z-3.952
N945 X7.365 Y38.162 Z-4
N950 X7.361 Y38.131 Z-4.041
N955 X7.355 Y38.09 Z-4.073
N960 X7.349 Y38.042 Z-4.093
N965 X7.342 Y37.991 Z-4.1
N970 X7.315 Y37.793 F400
N975 G3 X7.486 Y37.567 I0.198 J-0.027
N980 G2 X10.6 Y33.997 I-0.486 J-3.567 F600
N985 G1 Y30
N990 G3 X13 Y27.6 I2.4
N995 G1 X22.049
N1000 X22.059
N1005 G2 X25.6 Y23.997 I-0.059 J-3.6
N1010 G1 Y3
N1015 G2 X22 Y-0.6 I-3.6
N1020 G1 X3
N1025 G2 X-0.6 Y3 J3.6
N1030 G1 Y34
N1035 G2 X2.941 Y37.6 I3.6
N1040 G1 X2.951
N1045 X7.049
N1050 X7.059
N1055 G2 X7.486 Y37.567 I-0.059 J-3.6
N1060 G3 X7.711 Y37.739 I0.027 J0.198
N1065 G1 X7.738 Y37.937
N1070 X7.745 Y37.988 Z-4.093
N1075 X7.752 Y38.036 Z-4.073
N1080 X7.757 Y38.077 Z-4.041
N1085 X7.761 Y38.108 Z-4
N1090 X7.764 Y38.128 Z-3.952
N1095 X7.765 Y38.135 Z-3.9
N1100 G0 Z5
N1105 M9
N1110 G28
N1115 M30
%
