%
(1001)
(T2 D=4 CR=0 - ZMIN=-9.11 - flat end mill)
N10 G90 G94
N15 G17
N20 G21
N25 M9
N30 G28

(2D ??29)
N35 T2 M6
N40 S10000 M3
N45 G54
N50 M8
N55 G0 X8.7 Y41.332
N60 G43 Z15
N65 Z5
N70 G1 Z2 F300
N75 Z-0.6
N80 G18 G3 X8.3 Z-1 I-0.4
N85 G1 X7.9
N90 G17 G3 X7.5 Y40.932 J-0.4
N95 G1 Y35.432
N100 G3 X7.9 Y35.032 I0.4
N105 G1 X8.3
N110 G18 G2 X8.7 Z-0.6 K0.4
N115 G0 Z5
N120 Y41.332
N125 G1 Z1 F300
N130 Z-1.6
N135 G3 X8.3 Z-2 I-0.4
N140 G1 X7.9
N145 G17 G3 X7.5 Y40.932 J-0.4
N150 G1 Y35.432
N155 G3 X7.9 Y35.032 I0.4
N160 G1 X8.3
N165 G18 G2 X8.7 Z-1.6 K0.4
N170 G0 Z5
N175 Y41.332
N180 G1 Z0 F300
N185 Z-2.6
N190 G3 X8.3 Z-3 I-0.4
N195 G1 X7.9
N200 G17 G3 X7.5 Y40.932 J-0.4
N205 G1 Y35.432
N210 G3 X7.9 Y35.032 I0.4
N215 G1 X8.3
N220 G18 G2 X8.7 Z-2.6 K0.4
N225 G0 Z5
N230 Y41.332
N235 G1 Z-1 F300
N240 Z-3.6
N245 G3 X8.3 Z-4 I-0.4
N250 G1 X7.9
N255 G17 G3 X7.5 Y40.932 J-0.4
N260 G1 Y35.432
N265 G3 X7.9 Y35.032 I0.4
N270 G1 X8.3
N275 G18 G2 X8.7 Z-3.6 K0.4
N280 G0 Z5
N285 Y41.332
N290 G1 Z-2 F300
N295 Z-4.6
N300 G3 X8.3 Z-5 I-0.4
N305 G1 X7.9
N310 G17 G3 X7.5 Y40.932 J-0.4
N315 G1 Y35.432
N320 G3 X7.9 Y35.032 I0.4
N325 G1 X8.3
N330 G18 G2 X8.7 Z-4.6 K0.4
N335 G0 Z5
N340 Y41.332
N345 G1 Z-3 F300
N350 Z-5.6
N355 G3 X8.3 Z-6 I-0.4
N360 G1 X7.9
N365 G17 G3 X7.5 Y40.932 J-0.4
N370 G1 Y35.432
N375 G3 X7.9 Y35.032 I0.4
N380 G1 X8.3
N385 G18 G2 X8.7 Z-5.6 K0.4
N390 G0 Z5
N395 Y41.332
N400 G1 Z-4 F300
N405 Z-6.6
N410 G3 X8.3 Z-7 I-0.4
N415 G1 X7.9
N420 G17 G3 X7.5 Y40.932 J-0.4
N425 G1 Y35.432
N430 G3 X7.9 Y35.032 I0.4
N435 G1 X8.3
N440 G18 G2 X8.7 Z-6.6 K0.4
N445 G0 Z5
N450 Y41.332
N455 G1 Z-5 F300
N460 Z-7.6
N465 G3 X8.3 Z-8 I-0.4
N470 G1 X7.9
N475 G17 G3 X7.5 Y40.932 J-0.4
N480 G1 Y35.432
N485 G3 X7.9 Y35.032 I0.4
N490 G1 X8.3
N495 G18 G2 X8.7 Z-7.6 K0.4
N500 G0 Z5
N505 Y41.332
N510 G1 Z-6 F300
N515 Z-8.15
N520 G3 X8.3 Z-8.55 I-0.4
N525 G1 X7.9
N530 G17 G3 X7.5 Y40.932 J-0.4
N535 G1 Y35.432
N540 G3 X7.9 Y35.032 I0.4
N545 G1 X8.3
N550 G18 G2 X8.7 Z-8.15 K0.4
N555 G0 Z5
N560 Y41.332
N565 G1 Z-6.55 F300
N570 Z-8.7
N575 G3 X8.3 Z-9.1 I-0.4
N580 G1 X7.9
N585 G17 G3 X7.5 Y40.932 J-0.4
N590 G1 Y35.432
N595 G3 X7.9 Y35.032 I0.4
N600 G1 X8.3
N605 G18 G2 X8.7 Z-8.7 K0.4
N610 G0 Z5
N615 X-5.2
N620 G1 Z2 F300
N625 Z-0.6
N630 G2 X-4.8 Z-1 I0.4
N635 G1 X-4.4
N640 G17 G3 X-4 Y35.432 J0.4
N645 G1 Y40.932
N650 G3 X-4.4 Y41.332 I-0.4
N655 G1 X-4.8
N660 G18 G3 X-5.2 Z-0.6 K0.4
N665 G0 Z5
N670 Y35.032
N675 G1 Z1 F300
N680 Z-1.6
N685 G2 X-4.8 Z-2 I0.4
N690 G1 X-4.4
N695 G17 G3 X-4 Y35.432 J0.4
N700 G1 Y40.932
N705 G3 X-4.4 Y41.332 I-0.4
N710 G1 X-4.8
N715 G18 G3 X-5.2 Z-1.6 K0.4
N720 G0 Z5
N725 Y35.032
N730 G1 Z0 F300
N735 Z-2.6
N740 G2 X-4.8 Z-3 I0.4
N745 G1 X-4.4
N750 G17 G3 X-4 Y35.432 J0.4
N755 G1 Y40.932
N760 G3 X-4.4 Y41.332 I-0.4
N765 G1 X-4.8
N770 G18 G3 X-5.2 Z-2.6 K0.4
N775 G0 Z5
N780 Y35.032
N785 G1 Z-1 F300
N790 Z-3.6
N795 G2 X-4.8 Z-4 I0.4
N800 G1 X-4.4
N805 G17 G3 X-4 Y35.432 J0.4
N810 G1 Y40.932
N815 G3 X-4.4 Y41.332 I-0.4
N820 G1 X-4.8
N825 G18 G3 X-5.2 Z-3.6 K0.4
N830 G0 Z5
N835 Y35.032
N840 G1 Z-2 F300
N845 Z-4.6
N850 G2 X-4.8 Z-5 I0.4
N855 G1 X-4.4
N860 G17 G3 X-4 Y35.432 J0.4
N865 G1 Y40.932
N870 G3 X-4.4 Y41.332 I-0.4
N875 G1 X-4.8
N880 G18 G3 X-5.2 Z-4.6 K0.4
N885 G0 Z5
N890 Y35.032
N895 G1 Z-3 F300
N900 Z-5.6
N905 G2 X-4.8 Z-6 I0.4
N910 G1 X-4.4
N915 G17 G3 X-4 Y35.432 J0.4
N920 G1 Y40.932
N925 G3 X-4.4 Y41.332 I-0.4
N930 G1 X-4.8
N935 G18 G3 X-5.2 Z-5.6 K0.4
N940 G0 Z5
N945 Y35.032
N950 G1 Z-4 F300
N955 Z-6.6
N960 G2 X-4.8 Z-7 I0.4
N965 G1 X-4.4
N970 G17 G3 X-4 Y35.432 J0.4
N975 G1 Y40.932
N980 G3 X-4.4 Y41.332 I-0.4
N985 G1 X-4.8
N990 G18 G3 X-5.2 Z-6.6 K0.4
N995 G0 Z5
N1000 Y35.032
N1005 G1 Z-5 F300
N1010 Z-7.6
N1015 G2 X-4.8 Z-8 I0.4
N1020 G1 X-4.4
N1025 G17 G3 X-4 Y35.432 J0.4
N1030 G1 Y40.932
N1035 G3 X-4.4 Y41.332 I-0.4
N1040 G1 X-4.8
N1045 G18 G3 X-5.2 Z-7.6 K0.4
N1050 G0 Z5
N1055 Y35.032
N1060 G1 Z-6 F300
N1065 Z-8.15
N1070 G2 X-4.8 Z-8.55 I0.4
N1075 G1 X-4.4
N1080 G17 G3 X-4 Y35.432 J0.4
N1085 G1 Y40.932
N1090 G3 X-4.4 Y41.332 I-0.4
N1095 G1 X-4.8
N1100 G18 G3 X-5.2 Z-8.15 K0.4
N1105 G0 Z5
N1110 Y35.032
N1115 G1 Z-6.55 F300
N1120 Z-8.7
N1125 G2 X-4.8 Z-9.1 I0.4
N1130 G1 X-4.4
N1135 G17 G3 X-4 Y35.432 J0.4
N1140 G1 Y40.932
N1145 G3 X-4.4 Y41.332 I-0.4
N1150 G1 X-4.8
N1155 G18 G3 X-5.2 Z-8.7 K0.4
N1160 G0 Z15
N1165 X29.7 Y116.332
N1170 Z5
N1175 G1 Z2 F300
N1180 Z-0.6
N1185 G3 X29.3 Z-1 I-0.4
N1190 G1 X28.9
N1195 G17 G3 X28.5 Y115.932 J-0.4
N1200 G1 Y107.932
N1205 G3 X28.9 Y107.532 I0.4
N1210 G1 X29.3
N1215 G18 G2 X29.7 Z-0.6 K0.4
N1220 G0 Z5
N1225 Y116.332
N1230 G1 Z1 F300
N1235 Z-1.6
N1240 G3 X29.3 Z-2 I-0.4
N1245 G1 X28.9
N1250 G17 G3 X28.5 Y115.932 J-0.4
N1255 G1 Y107.932
N1260 G3 X28.9 Y107.532 I0.4
N1265 G1 X29.3
N1270 G18 G2 X29.7 Z-1.6 K0.4
N1275 G0 Z5
N1280 Y116.332
N1285 G1 Z0 F300
N1290 Z-2.6
N1295 G3 X29.3 Z-3 I-0.4
N1300 G1 X28.9
N1305 G17 G3 X28.5 Y115.932 J-0.4
N1310 G1 Y107.932
N1315 G3 X28.9 Y107.532 I0.4
N1320 G1 X29.3
N1325 G18 G2 X29.7 Z-2.6 K0.4
N1330 G0 Z5
N1335 Y116.332
N1340 G1 Z-1 F300
N1345 Z-3.6
N1350 G3 X29.3 Z-4 I-0.4
N1355 G1 X28.9
N1360 G17 G3 X28.5 Y115.932 J-0.4
N1365 G1 Y107.932
N1370 G3 X28.9 Y107.532 I0.4
N1375 G1 X29.3
N1380 G18 G2 X29.7 Z-3.6 K0.4
N1385 G0 Z5
N1390 Y116.332
N1395 G1 Z-2 F300
N1400 Z-4.6
N1405 G3 X29.3 Z-5 I-0.4
N1410 G1 X28.9
N1415 G17 G3 X28.5 Y115.932 J-0.4
N1420 G1 Y107.932
N1425 G3 X28.9 Y107.532 I0.4
N1430 G1 X29.3
N1435 G18 G2 X29.7 Z-4.6 K0.4
N1440 G0 Z5
N1445 Y116.332
N1450 G1 Z-3 F300
N1455 Z-5.6
N1460 G3 X29.3 Z-6 I-0.4
N1465 G1 X28.9
N1470 G17 G3 X28.5 Y115.932 J-0.4
N1475 G1 Y107.932
N1480 G3 X28.9 Y107.532 I0.4
N1485 G1 X29.3
N1490 G18 G2 X29.7 Z-5.6 K0.4
N1495 G0 Z5
N1500 Y116.332
N1505 G1 Z-4 F300
N1510 Z-6.6
N1515 G3 X29.3 Z-7 I-0.4
N1520 G1 X28.9
N1525 G17 G3 X28.5 Y115.932 J-0.4
N1530 G1 Y107.932
N1535 G3 X28.9 Y107.532 I0.4
N1540 G1 X29.3
N1545 G18 G2 X29.7 Z-6.6 K0.4
N1550 G0 Z5
N1555 Y116.332
N1560 G1 Z-5 F300
N1565 Z-7.6
N1570 G3 X29.3 Z-8 I-0.4
N1575 G1 X28.9
N1580 G17 G3 X28.5 Y115.932 J-0.4
N1585 G1 Y107.932
N1590 G3 X28.9 Y107.532 I0.4
N1595 G1 X29.3
N1600 G18 G2 X29.7 Z-7.6 K0.4
N1605 G0 Z5
N1610 Y116.332
N1615 G1 Z-6 F300
N1620 Z-8.155
N1625 G3 X29.3 Z-8.555 I-0.4
N1630 G1 X28.9
N1635 G17 G3 X28.5 Y115.932 J-0.4
N1640 G1 Y107.932
N1645 G3 X28.9 Y107.532 I0.4
N1650 G1 X29.3
N1655 G18 G2 X29.7 Z-8.155 K0.4
N1660 G0 Z5
N1665 Y116.332
N1670 G1 Z-6.555 F300
N1675 Z-8.71
N1680 G3 X29.3 Z-9.11 I-0.4
N1685 G1 X28.9
N1690 G17 G3 X28.5 Y115.932 J-0.4
N1695 G1 Y107.932
N1700 G3 X28.9 Y107.532 I0.4
N1705 G1 X29.3
N1710 G18 G2 X29.7 Z-8.71 K0.4
N1715 G0 Z5
N1720 X15.8
N1725 G1 Z2 F300
N1730 Z-0.6
N1735 G2 X16.2 Z-1 I0.4
N1740 G1 X16.6
N1745 G17 G3 X17 Y107.932 J0.4
N1750 G1 Y115.932
N1755 G3 X16.6 Y116.332 I-0.4
N1760 G1 X16.2
N1765 G18 G3 X15.8 Z-0.6 K0.4
N1770 G0 Z5
N1775 Y107.532
N1780 G1 Z1 F300
N1785 Z-1.6
N1790 G2 X16.2 Z-2 I0.4
N1795 G1 X16.6
N1800 G17 G3 X17 Y107.932 J0.4
N1805 G1 Y115.932
N1810 G3 X16.6 Y116.332 I-0.4
N1815 G1 X16.2
N1820 G18 G3 X15.8 Z-1.6 K0.4
N1825 G0 Z5
N1830 Y107.532
N1835 G1 Z0 F300
N1840 Z-2.6
N1845 G2 X16.2 Z-3 I0.4
N1850 G1 X16.6
N1855 G17 G3 X17 Y107.932 J0.4
N1860 G1 Y115.932
N1865 G3 X16.6 Y116.332 I-0.4
N1870 G1 X16.2
N1875 G18 G3 X15.8 Z-2.6 K0.4
N1880 G0 Z5
N1885 Y107.532
N1890 G1 Z-1 F300
N1895 Z-3.6
N1900 G2 X16.2 Z-4 I0.4
N1905 G1 X16.6
N1910 G17 G3 X17 Y107.932 J0.4
N1915 G1 Y115.932
N1920 G3 X16.6 Y116.332 I-0.4
N1925 G1 X16.2
N1930 G18 G3 X15.8 Z-3.6 K0.4
N1935 G0 Z5
N1940 Y107.532
N1945 G1 Z-2 F300
N1950 Z-4.6
N1955 G2 X16.2 Z-5 I0.4
N1960 G1 X16.6
N1965 G17 G3 X17 Y107.932 J0.4
N1970 G1 Y115.932
N1975 G3 X16.6 Y116.332 I-0.4
N1980 G1 X16.2
N1985 G18 G3 X15.8 Z-4.6 K0.4
N1990 G0 Z5
N1995 Y107.532
N2000 G1 Z-3 F300
N2005 Z-5.6
N2010 G2 X16.2 Z-6 I0.4
N2015 G1 X16.6
N2020 G17 G3 X17 Y107.932 J0.4
N2025 G1 Y115.932
N2030 G3 X16.6 Y116.332 I-0.4
N2035 G1 X16.2
N2040 G18 G3 X15.8 Z-5.6 K0.4
N2045 G0 Z5
N2050 Y107.532
N2055 G1 Z-4 F300
N2060 Z-6.6
N2065 G2 X16.2 Z-7 I0.4
N2070 G1 X16.6
N2075 G17 G3 X17 Y107.932 J0.4
N2080 G1 Y115.932
N2085 G3 X16.6 Y116.332 I-0.4
N2090 G1 X16.2
N2095 G18 G3 X15.8 Z-6.6 K0.4
N2100 G0 Z5
N2105 Y107.532
N2110 G1 Z-5 F300
N2115 Z-7.6
N2120 G2 X16.2 Z-8 I0.4
N2125 G1 X16.6
N2130 G17 G3 X17 Y107.932 J0.4
N2135 G1 Y115.932
N2140 G3 X16.6 Y116.332 I-0.4
N2145 G1 X16.2
N2150 G18 G3 X15.8 Z-7.6 K0.4
N2155 G0 Z5
N2160 Y107.532
N2165 G1 Z-6 F300
N2170 Z-8.155
N2175 G2 X16.2 Z-8.555 I0.4
N2180 G1 X16.6
N2185 G17 G3 X17 Y107.932 J0.4
N2190 G1 Y115.932
N2195 G3 X16.6 Y116.332 I-0.4
N2200 G1 X16.2
N2205 G18 G3 X15.8 Z-8.155 K0.4
N2210 G0 Z5
N2215 Y107.532
N2220 G1 Z-6.555 F300
N2225 Z-8.71
N2230 G2 X16.2 Z-9.11 I0.4
N2235 G1 X16.6
N2240 G17 G3 X17 Y107.932 J0.4
N2245 G1 Y115.932
N2250 G3 X16.6 Y116.332 I-0.4
N2255 G1 X16.2
N2260 G18 G3 X15.8 Z-8.71 K0.4
N2265 G0 Z15
N2270 G17

(2D ????19)
N2275 G0 X-3.905 Y37.745
N2280 Z15
N2285 Z5
N2290 G1 Z-0.64 F300
N2295 X-3.898 Y37.744 Z-0.71
N2300 X-3.878 Y37.741 Z-0.778
N2305 X-3.845 Y37.736 Z-0.84
N2310 X-3.801 Y37.729 Z-0.895
N2315 X-3.747 Y37.72 Z-0.939
N2320 X-3.686 Y37.71 Z-0.973
N2325 X-3.619 Y37.7 Z-0.993
N2330 X-3.549 Y37.689 Z-1
N2335 X-1.96 Y37.437
N2340 X-1.897 Y37.432
N2345 X3.5
N2350 X5.393
N2355 G3 X5.593 Y37.631 J0.2
N2360 G1 X5.597 Y38.731
N2365 G3 X5.397 Y38.932 I-0.2 J0.001
N2370 G1 X0
N2375 X-1.893
N2380 X-1.938 Y38.927
N2385 X-1.981 Y38.912
N2390 X-2.019 Y38.887
N2395 X-2.051 Y38.854
N2400 X-2.853 Y37.817
N2405 G3 X-2.71 Y37.495 I0.158 J-0.122
N2410 G1 X-2.633 Y37.489 Z-1.008
N2415 X-2.558 Y37.483 Z-1.03
N2420 X-2.489 Y37.478 Z-1.067
N2425 X-2.428 Y37.473 Z-1.117
N2430 X-2.379 Y37.469 Z-1.178
N2435 X-2.342 Y37.466 Z-1.247
N2440 X-2.319 Y37.465 Z-1.322
N2445 X-2.312 Y37.464 Z-1.4
N2450 Z-1.6
N2455 X-2.304 Y37.463 Z-1.678
N2460 X-2.281 Y37.462 Z-1.753
N2465 X-2.244 Y37.459 Z-1.822
N2470 X-2.195 Y37.455 Z-1.883
N2475 X-2.134 Y37.45 Z-1.933
N2480 X-2.066 Y37.445 Z-1.97
N2485 X-1.991 Y37.439 Z-1.992
N2490 X-1.913 Y37.433 Z-2
N2495 X-1.897 Y37.432
N2500 X3.5
N2505 X5.393
N2510 G3 X5.593 Y37.631 J0.2
N2515 G1 X5.597 Y38.731
N2520 G3 X5.397 Y38.932 I-0.2 J0.001
N2525 G1 X0
N2530 X-1.893
N2535 X-1.938 Y38.927
N2540 X-1.981 Y38.912
N2545 X-2.019 Y38.887
N2550 X-2.051 Y38.854
N2555 X-2.853 Y37.817
N2560 G3 X-2.71 Y37.495 I0.158 J-0.122
N2565 G1 X-2.633 Y37.489 Z-2.008
N2570 X-2.558 Y37.483 Z-2.03
N2575 X-2.489 Y37.478 Z-2.067
N2580 X-2.428 Y37.473 Z-2.117
N2585 X-2.379 Y37.469 Z-2.178
N2590 X-2.342 Y37.466 Z-2.247
N2595 X-2.319 Y37.465 Z-2.322
N2600 X-2.312 Y37.464 Z-2.4
N2605 Z-2.6
N2610 X-2.304 Y37.463 Z-2.678
N2615 X-2.281 Y37.462 Z-2.753
N2620 X-2.244 Y37.459 Z-2.822
N2625 X-2.195 Y37.455 Z-2.883
N2630 X-2.134 Y37.45 Z-2.933
N2635 X-2.066 Y37.445 Z-2.97
N2640 X-1.991 Y37.439 Z-2.992
N2645 X-1.913 Y37.433 Z-3
N2650 X-1.897 Y37.432
N2655 X3.5
N2660 X5.393
N2665 G3 X5.593 Y37.631 J0.2
N2670 G1 X5.597 Y38.731
N2675 G3 X5.397 Y38.932 I-0.2 J0.001
N2680 G1 X0
N2685 X-1.893
N2690 X-1.938 Y38.927
N2695 X-1.981 Y38.912
N2700 X-2.019 Y38.887
N2705 X-2.051 Y38.854
N2710 X-2.853 Y37.817
N2715 G3 X-2.71 Y37.495 I0.158 J-0.122
N2720 G1 X-2.633 Y37.489 Z-3.008
N2725 X-2.558 Y37.483 Z-3.03
N2730 X-2.489 Y37.478 Z-3.067
N2735 X-2.428 Y37.473 Z-3.117
N2740 X-2.379 Y37.469 Z-3.178
N2745 X-2.342 Y37.466 Z-3.247
N2750 X-2.319 Y37.465 Z-3.322
N2755 X-2.312 Y37.464 Z-3.4
N2760 Z-3.6
N2765 X-2.304 Y37.463 Z-3.678
N2770 X-2.281 Y37.462 Z-3.753
N2775 X-2.244 Y37.459 Z-3.822
N2780 X-2.195 Y37.455 Z-3.883
N2785 X-2.134 Y37.45 Z-3.933
N2790 X-2.066 Y37.445 Z-3.97
N2795 X-1.991 Y37.439 Z-3.992
N2800 X-1.913 Y37.433 Z-4
N2805 X-1.897 Y37.432
N2810 X3.5
N2815 X5.393
N2820 G3 X5.593 Y37.631 J0.2
N2825 G1 X5.597 Y38.731
N2830 G3 X5.397 Y38.932 I-0.2 J0.001
N2835 G1 X0
N2840 X-1.893
N2845 X-1.938 Y38.927
N2850 X-1.981 Y38.912
N2855 X-2.019 Y38.887
N2860 X-2.051 Y38.854
N2865 X-2.853 Y37.817
N2870 G3 X-2.71 Y37.495 I0.158 J-0.122
N2875 G1 X-2.633 Y37.489 Z-4.008
N2880 X-2.558 Y37.483 Z-4.03
N2885 X-2.489 Y37.478 Z-4.067
N2890 X-2.428 Y37.473 Z-4.117
N2895 X-2.379 Y37.469 Z-4.178
N2900 X-2.342 Y37.466 Z-4.247
N2905 X-2.319 Y37.465 Z-4.322
N2910 X-2.312 Y37.464 Z-4.4
N2915 Z-4.6
N2920 X-2.304 Y37.463 Z-4.678
N2925 X-2.281 Y37.462 Z-4.753
N2930 X-2.244 Y37.459 Z-4.822
N2935 X-2.195 Y37.455 Z-4.883
N2940 X-2.134 Y37.45 Z-4.933
N2945 X-2.066 Y37.445 Z-4.97
N2950 X-1.991 Y37.439 Z-4.992
N2955 X-1.913 Y37.433 Z-5
N2960 X-1.897 Y37.432
N2965 X3.5
N2970 X5.393
N2975 G3 X5.593 Y37.631 J0.2
N2980 G1 X5.597 Y38.731
N2985 G3 X5.397 Y38.932 I-0.2 J0.001
N2990 G1 X0
N2995 X-1.893
N3000 X-1.938 Y38.927
N3005 X-1.981 Y38.912
N3010 X-2.019 Y38.887
N3015 X-2.051 Y38.854
N3020 X-2.853 Y37.817
N3025 G3 X-2.71 Y37.495 I0.158 J-0.122
N3030 G1 X-2.633 Y37.489 Z-5.008
N3035 X-2.558 Y37.483 Z-5.03
N3040 X-2.489 Y37.478 Z-5.067
N3045 X-2.428 Y37.473 Z-5.117
N3050 X-2.379 Y37.469 Z-5.178
N3055 X-2.342 Y37.466 Z-5.247
N3060 X-2.319 Y37.465 Z-5.322
N3065 X-2.312 Y37.464 Z-5.4
N3070 Z-5.6
N3075 X-2.304 Y37.463 Z-5.678
N3080 X-2.281 Y37.462 Z-5.753
N3085 X-2.244 Y37.459 Z-5.822
N3090 X-2.195 Y37.455 Z-5.883
N3095 X-2.134 Y37.45 Z-5.933
N3100 X-2.066 Y37.445 Z-5.97
N3105 X-1.991 Y37.439 Z-5.992
N3110 X-1.913 Y37.433 Z-6
N3115 X-1.897 Y37.432
N3120 X3.5
N3125 X5.393
N3130 G3 X5.593 Y37.631 J0.2
N3135 G1 X5.597 Y38.731
N3140 G3 X5.397 Y38.932 I-0.2 J0.001
N3145 G1 X0
N3150 X-1.893
N3155 X-1.938 Y38.927
N3160 X-1.981 Y38.912
N3165 X-2.019 Y38.887
N3170 X-2.051 Y38.854
N3175 X-2.853 Y37.817
N3180 G3 X-2.71 Y37.495 I0.158 J-0.122
N3185 G1 X-2.633 Y37.489 Z-6.008
N3190 X-2.558 Y37.483 Z-6.03
N3195 X-2.489 Y37.478 Z-6.067
N3200 X-2.428 Y37.473 Z-6.117
N3205 X-2.379 Y37.469 Z-6.178
N3210 X-2.342 Y37.466 Z-6.247
N3215 X-2.319 Y37.465 Z-6.322
N3220 X-2.312 Y37.464 Z-6.4
N3225 Z-6.6
N3230 X-2.304 Y37.463 Z-6.678
N3235 X-2.281 Y37.462 Z-6.753
N3240 X-2.244 Y37.459 Z-6.822
N3245 X-2.195 Y37.455 Z-6.883
N3250 X-2.134 Y37.45 Z-6.933
N3255 X-2.066 Y37.445 Z-6.97
N3260 X-1.991 Y37.439 Z-6.992
N3265 X-1.913 Y37.433 Z-7
N3270 X-1.897 Y37.432
N3275 X3.5
N3280 X5.393
N3285 G3 X5.593 Y37.631 J0.2
N3290 G1 X5.597 Y38.731
N3295 G3 X5.397 Y38.932 I-0.2 J0.001
N3300 G1 X0
N3305 X-1.893
N3310 X-1.938 Y38.927
N3315 X-1.981 Y38.912
N3320 X-2.019 Y38.887
N3325 X-2.051 Y38.854
N3330 X-2.853 Y37.817
N3335 G3 X-2.71 Y37.495 I0.158 J-0.122
N3340 G1 X-2.633 Y37.489 Z-7.008
N3345 X-2.558 Y37.483 Z-7.03
N3350 X-2.489 Y37.478 Z-7.067
N3355 X-2.428 Y37.473 Z-7.117
N3360 X-2.379 Y37.469 Z-7.178
N3365 X-2.342 Y37.466 Z-7.247
N3370 X-2.319 Y37.465 Z-7.322
N3375 X-2.312 Y37.464 Z-7.4
N3380 Z-7.6
N3385 X-2.304 Y37.463 Z-7.678
N3390 X-2.281 Y37.462 Z-7.753
N3395 X-2.244 Y37.459 Z-7.822
N3400 X-2.195 Y37.455 Z-7.883
N3405 X-2.134 Y37.45 Z-7.933
N3410 X-2.066 Y37.445 Z-7.97
N3415 X-1.991 Y37.439 Z-7.992
N3420 X-1.913 Y37.433 Z-8
N3425 X-1.897 Y37.432
N3430 X3.5
N3435 X5.393
N3440 G3 X5.593 Y37.631 J0.2
N3445 G1 X5.597 Y38.731
N3450 G3 X5.397 Y38.932 I-0.2 J0.001
N3455 G1 X0
N3460 X-1.893
N3465 X-1.94 Y38.927
N3470 X-1.983 Y38.91
N3475 X-2.022 Y38.884
N3480 X-2.054 Y38.85
N3485 X-2.816 Y37.81
N3490 G3 X-2.671 Y37.492 I0.161 J-0.118
N3495 G1 X-2.6 Y37.487 Z-8.006
N3500 X-2.531 Y37.481 Z-8.025
N3505 X-2.467 Y37.476 Z-8.056
N3510 X-2.409 Y37.472 Z-8.098
N3515 X-2.359 Y37.468 Z-8.15
N3520 X-2.32 Y37.465 Z-8.209
N3525 X-2.292 Y37.462 Z-8.275
N3530 X-2.263 Y37.46 Z-8.341
N3535 X-2.224 Y37.457 Z-8.4
N3540 X-2.175 Y37.453 Z-8.452
N3545 X-2.117 Y37.449 Z-8.494
N3550 X-2.053 Y37.444 Z-8.525
N3555 X-1.984 Y37.438 Z-8.544
N3560 X-1.913 Y37.433 Z-8.55
N3565 X-1.897 Y37.432
N3570 X3.5
N3575 X5.393
N3580 G3 X5.593 Y37.631 J0.2
N3585 G1 X5.597 Y38.731
N3590 G3 X5.397 Y38.932 I-0.2 J0.001
N3595 G1 X0
N3600 X-1.893
N3605 X-1.94 Y38.927
N3610 X-1.983 Y38.91
N3615 X-2.022 Y38.884
N3620 X-2.054 Y38.85
N3625 X-2.816 Y37.81
N3630 G3 X-2.671 Y37.492 I0.161 J-0.118
N3635 G1 X-2.6 Y37.487 Z-8.556
N3640 X-2.531 Y37.481 Z-8.575
N3645 X-2.467 Y37.476 Z-8.606
N3650 X-2.409 Y37.472 Z-8.648
N3655 X-2.359 Y37.468 Z-8.7
N3660 X-2.32 Y37.465 Z-8.759
N3665 X-2.292 Y37.462 Z-8.825
N3670 X-2.263 Y37.46 Z-8.891
N3675 X-2.224 Y37.457 Z-8.95
N3680 X-2.175 Y37.453 Z-9.002
N3685 X-2.117 Y37.449 Z-9.044
N3690 X-2.053 Y37.444 Z-9.075
N3695 X-1.984 Y37.438 Z-9.094
N3700 X-1.913 Y37.433 Z-9.1
N3705 X-1.897 Y37.432
N3710 X3.5
N3715 X5.393
N3720 G3 X5.593 Y37.631 J0.2
N3725 G1 X5.597 Y38.731
N3730 G3 X5.397 Y38.932 I-0.2 J0.001
N3735 G1 X0
N3740 X-1.893
N3745 X-1.956 Y38.927
N3750 X-3.483 Y38.685
N3755 X-3.56 Y38.673 Z-9.092
N3760 X-3.635 Y38.661 Z-9.07
N3765 X-3.703 Y38.65 Z-9.033
N3770 X-3.763 Y38.641 Z-8.983
N3775 X-3.812 Y38.633 Z-8.922
N3780 X-3.848 Y38.627 Z-8.853
N3785 X-3.871 Y38.624 Z-8.778
N3790 X-3.878 Y38.623 Z-8.7
N3795 G0 Z15
N3800 X28.376 Y112.569
N3805 Z5
N3810 G1 Z-0.6 F300
N3815 X28.368 Z-0.678
N3820 X28.345 Z-0.753
N3825 X28.308 Y112.568 Z-0.822
N3830 X28.259 Z-0.883
N3835 X28.198 Z-0.933
N3840 X28.129 Z-0.97
N3845 X28.054 Z-0.992
N3850 X27.976 Y112.567 Z-1
N3855 X26.397 Y112.562
N3860 X21 Y112.542
N3865 X19.107 Y112.552
N3870 G3 X18.906 Y112.352 I-0.001 J-0.2
N3875 G1 X18.903 Y111.478
N3880 G3 X19.103 Y111.277 I0.2 J-0.001
N3885 G1 X26.383
N3890 G3 X26.583 Y111.477 J0.2
N3895 G1 Y113.732
N3900 G3 X26.383 Y113.932 I-0.2
N3905 G1 X19.107
N3910 G3 X18.907 Y113.731 J-0.2
N3915 G1 X18.917 Y110.131
N3920 G3 X19.117 Y109.932 I0.2 J0.001
N3925 G1 X26.393
N3930 X26.441 Y109.938
N3935 X26.487 Y109.955
N3940 X26.527 Y109.983
N3945 X26.559 Y110.02
N3950 X26.581 Y110.063
N3955 X27.401 Y112.296
N3960 G3 X27.212 Y112.565 I-0.188 J0.069
N3965 G1 X27.134 Y112.564 Z-1.008
N3970 X27.059 Z-1.03
N3975 X26.99 Z-1.067
N3980 X26.929 Y112.563 Z-1.117
N3985 X26.88 Z-1.178
N3990 X26.843 Z-1.247
N3995 X26.82 Z-1.322
N4000 X26.812 Z-1.4
N4005 Z-1.6
N4010 X26.805 Z-1.678
N4015 X26.782 Z-1.753
N4020 X26.745 Z-1.822
N4025 X26.695 Z-1.883
N4030 X26.635 Y112.562 Z-1.933
N4035 X26.565 Z-1.97
N4040 X26.49 Z-1.992
N4045 X26.412 Z-2
N4050 X26.397
N4055 X21 Y112.542
N4060 X19.107 Y112.552
N4065 G3 X18.906 Y112.352 I-0.001 J-0.2
N4070 G1 X18.903 Y111.478
N4075 G3 X19.103 Y111.277 I0.2 J-0.001
N4080 G1 X26.383
N4085 G3 X26.583 Y111.477 J0.2
N4090 G1 Y113.732
N4095 G3 X26.383 Y113.932 I-0.2
N4100 G1 X19.107
N4105 G3 X18.907 Y113.731 J-0.2
N4110 G1 X18.917 Y110.131
N4115 G3 X19.117 Y109.932 I0.2 J0.001
N4120 G1 X26.393
N4125 X26.441 Y109.938
N4130 X26.487 Y109.955
N4135 X26.527 Y109.983
N4140 X26.559 Y110.02
N4145 X26.581 Y110.063
N4150 X27.401 Y112.296
N4155 G3 X27.212 Y112.565 I-0.188 J0.069
N4160 G1 X27.134 Y112.564 Z-2.008
N4165 X27.059 Z-2.03
N4170 X26.99 Z-2.067
N4175 X26.929 Y112.563 Z-2.117
N4180 X26.88 Z-2.178
N4185 X26.843 Z-2.247
N4190 X26.82 Z-2.322
N4195 X26.812 Z-2.4
N4200 Z-2.6
N4205 X26.805 Z-2.678
N4210 X26.782 Z-2.753
N4215 X26.745 Z-2.822
N4220 X26.695 Z-2.883
N4225 X26.635 Y112.562 Z-2.933
N4230 X26.565 Z-2.97
N4235 X26.49 Z-2.992
N4240 X26.412 Z-3
N4245 X26.397
N4250 X21 Y112.542
N4255 X19.107 Y112.552
N4260 G3 X18.906 Y112.352 I-0.001 J-0.2
N4265 G1 X18.903 Y111.478
N4270 G3 X19.103 Y111.277 I0.2 J-0.001
N4275 G1 X26.383
N4280 G3 X26.583 Y111.477 J0.2
N4285 G1 Y113.732
N4290 G3 X26.383 Y113.932 I-0.2
N4295 G1 X19.107
N4300 G3 X18.907 Y113.731 J-0.2
N4305 G1 X18.917 Y110.131
N4310 G3 X19.117 Y109.932 I0.2 J0.001
N4315 G1 X26.393
N4320 X26.441 Y109.938
N4325 X26.487 Y109.955
N4330 X26.527 Y109.983
N4335 X26.559 Y110.02
N4340 X26.581 Y110.063
N4345 X27.401 Y112.296
N4350 G3 X27.212 Y112.565 I-0.188 J0.069
N4355 G1 X27.134 Y112.564 Z-3.008
N4360 X27.059 Z-3.03
N4365 X26.99 Z-3.067
N4370 X26.929 Y112.563 Z-3.117
N4375 X26.88 Z-3.178
N4380 X26.843 Z-3.247
N4385 X26.82 Z-3.322
N4390 X26.812 Z-3.4
N4395 Z-3.6
N4400 X26.805 Z-3.678
N4405 X26.782 Z-3.753
N4410 X26.745 Z-3.822
N4415 X26.695 Z-3.883
N4420 X26.635 Y112.562 Z-3.933
N4425 X26.565 Z-3.97
N4430 X26.49 Z-3.992
N4435 X26.412 Z-4
N4440 X26.397
N4445 X21 Y112.542
N4450 X19.107 Y112.552
N4455 G3 X18.906 Y112.352 I-0.001 J-0.2
N4460 G1 X18.903 Y111.478
N4465 G3 X19.103 Y111.277 I0.2 J-0.001
N4470 G1 X26.383
N4475 G3 X26.583 Y111.477 J0.2
N4480 G1 Y113.732
N4485 G3 X26.383 Y113.932 I-0.2
N4490 G1 X19.107
N4495 G3 X18.907 Y113.731 J-0.2
N4500 G1 X18.917 Y110.131
N4505 G3 X19.117 Y109.932 I0.2 J0.001
N4510 G1 X26.393
N4515 X26.441 Y109.938
N4520 X26.487 Y109.955
N4525 X26.527 Y109.983
N4530 X26.559 Y110.02
N4535 X26.581 Y110.063
N4540 X27.401 Y112.296
N4545 G3 X27.212 Y112.565 I-0.188 J0.069
N4550 G1 X27.134 Y112.564 Z-4.008
N4555 X27.059 Z-4.03
N4560 X26.99 Z-4.067
N4565 X26.929 Y112.563 Z-4.117
N4570 X26.88 Z-4.178
N4575 X26.843 Z-4.247
N4580 X26.82 Z-4.322
N4585 X26.812 Z-4.4
N4590 Z-4.6
N4595 X26.805 Z-4.678
N4600 X26.782 Z-4.753
N4605 X26.745 Z-4.822
N4610 X26.695 Z-4.883
N4615 X26.635 Y112.562 Z-4.933
N4620 X26.565 Z-4.97
N4625 X26.49 Z-4.992
N4630 X26.412 Z-5
N4635 X26.397
N4640 X21 Y112.542
N4645 X19.107 Y112.552
N4650 G3 X18.906 Y112.352 I-0.001 J-0.2
N4655 G1 X18.903 Y111.478
N4660 G3 X19.103 Y111.277 I0.2 J-0.001
N4665 G1 X26.383
N4670 G3 X26.583 Y111.477 J0.2
N4675 G1 Y113.732
N4680 G3 X26.383 Y113.932 I-0.2
N4685 G1 X19.107
N4690 G3 X18.907 Y113.731 J-0.2
N4695 G1 X18.917 Y110.131
N4700 G3 X19.117 Y109.932 I0.2 J0.001
N4705 G1 X26.393
N4710 X26.441 Y109.938
N4715 X26.487 Y109.955
N4720 X26.527 Y109.983
N4725 X26.559 Y110.02
N4730 X26.581 Y110.063
N4735 X27.401 Y112.296
N4740 G3 X27.212 Y112.565 I-0.188 J0.069
N4745 G1 X27.134 Y112.564 Z-5.008
N4750 X27.059 Z-5.03
N4755 X26.99 Z-5.067
N4760 X26.929 Y112.563 Z-5.117
N4765 X26.88 Z-5.178
N4770 X26.843 Z-5.247
N4775 X26.82 Z-5.322
N4780 X26.812 Z-5.4
N4785 Z-5.6
N4790 X26.805 Z-5.678
N4795 X26.782 Z-5.753
N4800 X26.745 Z-5.822
N4805 X26.695 Z-5.883
N4810 X26.635 Y112.562 Z-5.933
N4815 X26.565 Z-5.97
N4820 X26.49 Z-5.992
N4825 X26.412 Z-6
N4830 X26.397
N4835 X21 Y112.542
N4840 X19.107 Y112.552
N4845 G3 X18.906 Y112.352 I-0.001 J-0.2
N4850 G1 X18.903 Y111.478
N4855 G3 X19.103 Y111.277 I0.2 J-0.001
N4860 G1 X26.383
N4865 G3 X26.583 Y111.477 J0.2
N4870 G1 Y113.732
N4875 G3 X26.383 Y113.932 I-0.2
N4880 G1 X19.107
N4885 G3 X18.907 Y113.731 J-0.2
N4890 G1 X18.917 Y110.131
N4895 G3 X19.117 Y109.932 I0.2 J0.001
N4900 G1 X26.393
N4905 X26.441 Y109.938
N4910 X26.487 Y109.955
N4915 X26.527 Y109.983
N4920 X26.559 Y110.02
N4925 X26.581 Y110.063
N4930 X27.401 Y112.296
N4935 G3 X27.212 Y112.565 I-0.188 J0.069
N4940 G1 X27.134 Y112.564 Z-6.008
N4945 X27.059 Z-6.03
N4950 X26.99 Z-6.067
N4955 X26.929 Y112.563 Z-6.117
N4960 X26.88 Z-6.178
N4965 X26.843 Z-6.247
N4970 X26.82 Z-6.322
N4975 X26.812 Z-6.4
N4980 Z-6.6
N4985 X26.805 Z-6.678
N4990 X26.782 Z-6.753
N4995 X26.745 Z-6.822
N5000 X26.695 Z-6.883
N5005 X26.635 Y112.562 Z-6.933
N5010 X26.565 Z-6.97
N5015 X26.49 Z-6.992
N5020 X26.412 Z-7
N5025 X26.397
N5030 X21 Y112.542
N5035 X19.107 Y112.552
N5040 G3 X18.906 Y112.352 I-0.001 J-0.2
N5045 G1 X18.903 Y111.478
N5050 G3 X19.103 Y111.277 I0.2 J-0.001
N5055 G1 X26.383
N5060 G3 X26.583 Y111.477 J0.2
N5065 G1 Y113.732
N5070 G3 X26.383 Y113.932 I-0.2
N5075 G1 X19.107
N5080 G3 X18.907 Y113.731 J-0.2
N5085 G1 X18.917 Y110.131
N5090 G3 X19.117 Y109.932 I0.2 J0.001
N5095 G1 X26.393
N5100 X26.441 Y109.938
N5105 X26.487 Y109.955
N5110 X26.527 Y109.983
N5115 X26.559 Y110.02
N5120 X26.581 Y110.063
N5125 X27.401 Y112.296
N5130 G3 X27.212 Y112.565 I-0.188 J0.069
N5135 G1 X27.134 Y112.564 Z-7.008
N5140 X27.059 Z-7.03
N5145 X26.99 Z-7.067
N5150 X26.929 Y112.563 Z-7.117
N5155 X26.88 Z-7.178
N5160 X26.843 Z-7.247
N5165 X26.82 Z-7.322
N5170 X26.812 Z-7.4
N5175 Z-7.6
N5180 X26.805 Z-7.678
N5185 X26.782 Z-7.753
N5190 X26.745 Z-7.822
N5195 X26.695 Z-7.883
N5200 X26.635 Y112.562 Z-7.933
N5205 X26.565 Z-7.97
N5210 X26.49 Z-7.992
N5215 X26.412 Z-8
N5220 X26.397
N5225 X21 Y112.542
N5230 X19.107 Y112.552
N5235 G3 X18.906 Y112.352 I-0.001 J-0.2
N5240 G1 X18.903 Y111.478
N5245 G3 X19.103 Y111.277 I0.2 J-0.001
N5250 G1 X26.383
N5255 G3 X26.583 Y111.477 J0.2
N5260 G1 Y113.732
N5265 G3 X26.383 Y113.932 I-0.2
N5270 G1 X19.107
N5275 G3 X18.907 Y113.731 J-0.2
N5280 G1 X18.917 Y110.131
N5285 G3 X19.117 Y109.932 I0.2 J0.001
N5290 G1 X26.393
N5295 X26.442 Y109.938
N5300 X26.488 Y109.956
N5305 X26.528 Y109.984
N5310 X26.56 Y110.022
N5315 X26.582 Y110.066
N5320 X27.363 Y112.298
N5325 G3 X27.174 Y112.564 I-0.189 J0.066
N5330 G1 X27.102 Z-8.006
N5335 X27.033 Z-8.026
N5340 X26.968 Z-8.057
N5345 X26.91 Y112.563 Z-8.099
N5350 X26.861 Z-8.151
N5355 X26.821 Z-8.211
N5360 X26.793 Z-8.278
N5365 X26.765 Z-8.344
N5370 X26.726 Z-8.404
N5375 X26.676 Z-8.456
N5380 X26.618 Y112.562 Z-8.498
N5385 X26.553 Z-8.529
N5390 X26.484 Z-8.549
N5395 X26.412 Z-8.555
N5400 X26.397
N5405 X21 Y112.542
N5410 X19.107 Y112.552
N5415 G3 X18.906 Y112.352 I-0.001 J-0.2
N5420 G1 X18.903 Y111.478
N5425 G3 X19.103 Y111.277 I0.2 J-0.001
N5430 G1 X26.383
N5435 G3 X26.583 Y111.477 J0.2
N5440 G1 Y113.732
N5445 G3 X26.383 Y113.932 I-0.2
N5450 G1 X19.107
N5455 G3 X18.907 Y113.731 J-0.2
N5460 G1 X18.917 Y110.131
N5465 G3 X19.117 Y109.932 I0.2 J0.001
N5470 G1 X26.393
N5475 X26.442 Y109.938
N5480 X26.488 Y109.956
N5485 X26.528 Y109.984
N5490 X26.56 Y110.022
N5495 X26.582 Y110.066
N5500 X27.363 Y112.298
N5505 G3 X27.174 Y112.564 I-0.189 J0.066
N5510 G1 X27.102 Z-8.561
N5515 X27.033 Z-8.581
N5520 X26.968 Z-8.612
N5525 X26.91 Y112.563 Z-8.654
N5530 X26.861 Z-8.706
N5535 X26.821 Z-8.766
N5540 X26.793 Z-8.833
N5545 X26.765 Z-8.899
N5550 X26.726 Z-8.959
N5555 X26.676 Z-9.011
N5560 X26.618 Y112.562 Z-9.053
N5565 X26.553 Z-9.084
N5570 X26.484 Z-9.104
N5575 X26.412 Z-9.11
N5580 X26.397
N5585 X21 Y112.542
N5590 X19.107 Y112.552
N5595 G3 X18.906 Y112.352 I-0.001 J-0.2
N5600 G1 X18.903 Y111.478
N5605 G3 X19.103 Y111.277 I0.2 J-0.001
N5610 G1 X26.383
N5615 G3 X26.583 Y111.477 J0.2
N5620 G1 Y113.732
N5625 G3 X26.383 Y113.932 I-0.2
N5630 G1 X19.107
N5635 G3 X18.907 Y113.731 J-0.2
N5640 G1 X18.917 Y110.131
N5645 G3 X19.117 Y109.932 I0.2 J0.001
N5650 G1 X26.393
N5655 X26.456 Y109.937
N5660 X27.983 Y110.179
N5665 X28.06 Y110.191 Z-9.102
N5670 X28.135 Y110.203 Z-9.08
N5675 X28.203 Y110.214 Z-9.043
N5680 X28.263 Y110.223 Z-8.993
N5685 X28.312 Y110.231 Z-8.932
N5690 X28.348 Y110.237 Z-8.863
N5695 X28.371 Y110.24 Z-8.788
N5700 X28.378 Y110.241 Z-8.71
N5705 G0 Z15

(2D ??27)
N5710 X38.2 Y107.332
N5715 Z15
N5720 Z5
N5725 G1 Z2 F300
N5730 Z-0.6
N5735 G18 G3 X37.8 Z-1 I-0.4
N5740 G1 X37.4
N5745 G17 G3 X37 Y106.932 J-0.4
N5750 G1 Y57.932
N5755 X44.5
N5760 G2 X46.5 Y55.932 J-2
N5765 G1 Y33.932
N5770 G2 X44.5 Y31.932 I-2
N5775 G1 X32
N5780 G2 X30.068 Y33.414 J2
N5785 G1 X29.568 Y35.28
N5790 G2 X29.5 Y35.798 I1.932 J0.518
N5795 G1 Y123.864
N5800 Y152.066
N5805 G2 X29.568 Y152.584 I2
N5810 G1 X30.068 Y154.45
N5815 G2 X32 Y155.932 I1.932 J-0.518
N5820 G1 X44.5
N5825 G2 X46.5 Y153.932 J-2
N5830 G1 Y131.932
N5835 G2 X44.5 Y129.932 I-2
N5840 G1 X37
N5845 Y106.932
N5850 G3 X37.4 Y106.532 I0.4
N5855 G1 X37.8
N5860 G18 G2 X38.2 Z-0.6 K0.4
N5865 G0 Z5
N5870 X40.05 Y115.532
N5875 G1 Z2 F300
N5880 Z-0.6
N5885 G2 X40.45 Z-1 I0.4
N5890 G1 X40.85
N5895 G17 G3 X41.25 Y115.932 J0.4
N5900 G1 Y118.864
N5905 X40.25
N5910 G2 X38.25 Y120.864 J2
N5915 G1 Y123.864
N5920 G2 X40.25 Y125.864 I2
N5925 G1 X51
N5930 Y127.864
N5935 G2 X53 Y129.864 I2
N5940 G1 X56.5
N5945 G2 X58.5 Y127.864 J-2
N5950 G1 Y0
N5955 G2 X56.5 Y-2 I-2
N5960 G1 X53
N5965 G2 X51 Y0 J2
N5970 G1 Y2
N5975 X40.25
N5980 G2 X38.25 Y4 J2
N5985 G1 Y7
N5990 G2 X40.25 Y9 I2
N5995 G1 X41.25
N6000 Y11.932
N6005 G2 X43.25 Y13.932 I2
N6010 G1 X51
N6015 Y113.932
N6020 X43.25
N6025 G2 X41.25 Y115.932 J2
N6030 G3 X40.85 Y116.332 I-0.4
N6035 G1 X40.45
N6040 G18 G3 X40.05 Z-0.6 K0.4
N6045 G0 Z5
N6050 Y115.532
N6055 G1 Z1 F300
N6060 Z-1.6
N6065 G2 X40.45 Z-2 I0.4
N6070 G1 X40.85
N6075 G17 G3 X41.25 Y115.932 J0.4
N6080 G1 Y118.864
N6085 X40.25
N6090 G2 X38.25 Y120.864 J2
N6095 G1 Y123.864
N6100 G2 X40.25 Y125.864 I2
N6105 G1 X51
N6110 Y127.864
N6115 G2 X53 Y129.864 I2
N6120 G1 X56.5
N6125 G2 X58.5 Y127.864 J-2
N6130 G1 Y0
N6135 G2 X56.5 Y-2 I-2
N6140 G1 X53
N6145 G2 X51 Y0 J2
N6150 G1 Y2
N6155 X40.25
N6160 G2 X38.25 Y4 J2
N6165 G1 Y7
N6170 G2 X40.25 Y9 I2
N6175 G1 X41.25
N6180 Y11.932
N6185 G2 X43.25 Y13.932 I2
N6190 G1 X51
N6195 Y113.932
N6200 X43.25
N6205 G2 X41.25 Y115.932 J2
N6210 G3 X40.85 Y116.332 I-0.4
N6215 G1 X40.45
N6220 G18 G3 X40.05 Z-1.6 K0.4
N6225 G0 Z5
N6230 X38.2 Y117.295
N6235 G1 Z1 F300
N6240 Z-1.6
N6245 G3 X37.8 Z-2 I-0.4
N6250 G1 X37.4
N6255 G17 G3 X37 Y116.895 J-0.4
N6260 G1 Y57.932
N6265 X44.5
N6270 G2 X46.5 Y55.932 J-2
N6275 G1 Y33.932
N6280 G2 X44.5 Y31.932 I-2
N6285 G1 X32
N6290 G2 X30.068 Y33.414 J2
N6295 G1 X29.568 Y35.28
N6300 G2 X29.5 Y35.798 I1.932 J0.518
N6305 G1 Y123.864
N6310 Y152.066
N6315 G2 X29.568 Y152.584 I2
N6320 G1 X30.068 Y154.45
N6325 G2 X32 Y155.932 I1.932 J-0.518
N6330 G1 X44.5
N6335 G2 X46.5 Y153.932 J-2
N6340 G1 Y131.932
N6345 G2 X44.5 Y129.932 I-2
N6350 G1 X37
N6355 Y116.895
N6360 G3 X37.4 Y116.495 I0.4
N6365 G1 X37.8
N6370 G18 G2 X38.2 Z-1.6 K0.4
N6375 G0 Z5
N6380 Y117.295
N6385 G1 Z0 F300
N6390 Z-2.6
N6395 G3 X37.8 Z-3 I-0.4
N6400 G1 X37.4
N6405 G17 G3 X37 Y116.895 J-0.4
N6410 G1 Y57.932
N6415 X44.5
N6420 G2 X46.5 Y55.932 J-2
N6425 G1 Y33.932
N6430 G2 X44.5 Y31.932 I-2
N6435 G1 X32
N6440 G2 X30.068 Y33.414 J2
N6445 G1 X29.568 Y35.28
N6450 G2 X29.5 Y35.798 I1.932 J0.518
N6455 G1 Y123.864
N6460 Y152.066
N6465 G2 X29.568 Y152.584 I2
N6470 G1 X30.068 Y154.45
N6475 G2 X32 Y155.932 I1.932 J-0.518
N6480 G1 X44.5
N6485 G2 X46.5 Y153.932 J-2
N6490 G1 Y131.932
N6495 G2 X44.5 Y129.932 I-2
N6500 G1 X37
N6505 Y116.895
N6510 G3 X37.4 Y116.495 I0.4
N6515 G1 X37.8
N6520 G18 G2 X38.2 Z-2.6 K0.4
N6525 G0 Z5
N6530 X40.05 Y115.532
N6535 G1 Z0 F300
N6540 Z-2.6
N6545 G2 X40.45 Z-3 I0.4
N6550 G1 X40.85
N6555 G17 G3 X41.25 Y115.932 J0.4
N6560 G1 Y118.864
N6565 X40.25
N6570 G2 X38.25 Y120.864 J2
N6575 G1 Y123.864
N6580 G2 X40.25 Y125.864 I2
N6585 G1 X51
N6590 Y127.864
N6595 G2 X53 Y129.864 I2
N6600 G1 X56.5
N6605 G2 X58.5 Y127.864 J-2
N6610 G1 Y0
N6615 G2 X56.5 Y-2 I-2
N6620 G1 X53
N6625 G2 X51 Y0 J2
N6630 G1 Y2
N6635 X40.25
N6640 G2 X38.25 Y4 J2
N6645 G1 Y7
N6650 G2 X40.25 Y9 I2
N6655 G1 X41.25
N6660 Y11.932
N6665 G2 X43.25 Y13.932 I2
N6670 G1 X51
N6675 Y113.932
N6680 X43.25
N6685 G2 X41.25 Y115.932 J2
N6690 G3 X40.85 Y116.332 I-0.4
N6695 G1 X40.45
N6700 G18 G3 X40.05 Z-2.6 K0.4
N6705 G0 Z5
N6710 Y115.532
N6715 G1 Z-1 F300
N6720 Z-3.6
N6725 G2 X40.45 Z-4 I0.4
N6730 G1 X40.85
N6735 G17 G3 X41.25 Y115.932 J0.4
N6740 G1 Y118.864
N6745 X40.25
N6750 G2 X38.25 Y120.864 J2
N6755 G1 Y123.864
N6760 G2 X40.25 Y125.864 I2
N6765 G1 X51
N6770 Y127.864
N6775 G2 X53 Y129.864 I2
N6780 G1 X56.5
N6785 G2 X58.5 Y127.864 J-2
N6790 G1 Y0
N6795 G2 X56.5 Y-2 I-2
N6800 G1 X53
N6805 G2 X51 Y0 J2
N6810 G1 Y2
N6815 X40.25
N6820 G2 X38.25 Y4 J2
N6825 G1 Y7
N6830 G2 X40.25 Y9 I2
N6835 G1 X41.25
N6840 Y11.932
N6845 G2 X43.25 Y13.932 I2
N6850 G1 X51
N6855 Y113.932
N6860 X43.25
N6865 G2 X41.25 Y115.932 J2
N6870 G3 X40.85 Y116.332 I-0.4
N6875 G1 X40.45
N6880 G18 G3 X40.05 Z-3.6 K0.4
N6885 G0 Z5
N6890 X38.2 Y117.295
N6895 G1 Z-1 F300
N6900 Z-3.6
N6905 G3 X37.8 Z-4 I-0.4
N6910 G1 X37.4
N6915 G17 G3 X37 Y116.895 J-0.4
N6920 G1 Y57.932
N6925 X44.5
N6930 G2 X46.5 Y55.932 J-2
N6935 G1 Y33.932
N6940 G2 X44.5 Y31.932 I-2
N6945 G1 X32
N6950 G2 X30.068 Y33.414 J2
N6955 G1 X29.568 Y35.28
N6960 G2 X29.5 Y35.798 I1.932 J0.518
N6965 G1 Y123.864
N6970 Y152.066
N6975 G2 X29.568 Y152.584 I2
N6980 G1 X30.068 Y154.45
N6985 G2 X32 Y155.932 I1.932 J-0.518
N6990 G1 X44.5
N6995 G2 X46.5 Y153.932 J-2
N7000 G1 Y131.932
N7005 G2 X44.5 Y129.932 I-2
N7010 G1 X37
N7015 Y116.895
N7020 G3 X37.4 Y116.495 I0.4
N7025 G1 X37.8
N7030 G18 G2 X38.2 Z-3.6 K0.4
N7035 G0 Z5
N7040 Y117.295
N7045 G1 Z-2 F300
N7050 Z-4.6
N7055 G3 X37.8 Z-5 I-0.4
N7060 G1 X37.4
N7065 G17 G3 X37 Y116.895 J-0.4
N7070 G1 Y57.932
N7075 X44.5
N7080 G2 X46.5 Y55.932 J-2
N7085 G1 Y33.932
N7090 G2 X44.5 Y31.932 I-2
N7095 G1 X32
N7100 G2 X30.068 Y33.414 J2
N7105 G1 X29.568 Y35.28
N7110 G2 X29.5 Y35.798 I1.932 J0.518
N7115 G1 Y123.864
N7120 Y152.066
N7125 G2 X29.568 Y152.584 I2
N7130 G1 X30.068 Y154.45
N7135 G2 X32 Y155.932 I1.932 J-0.518
N7140 G1 X44.5
N7145 G2 X46.5 Y153.932 J-2
N7150 G1 Y131.932
N7155 G2 X44.5 Y129.932 I-2
N7160 G1 X37
N7165 Y116.895
N7170 G3 X37.4 Y116.495 I0.4
N7175 G1 X37.8
N7180 G18 G2 X38.2 Z-4.6 K0.4
N7185 G0 Z5
N7190 X40.05 Y115.532
N7195 G1 Z-2 F300
N7200 Z-4.6
N7205 G2 X40.45 Z-5 I0.4
N7210 G1 X40.85
N7215 G17 G3 X41.25 Y115.932 J0.4
N7220 G1 Y118.864
N7225 X40.25
N7230 G2 X38.25 Y120.864 J2
N7235 G1 Y123.864
N7240 G2 X40.25 Y125.864 I2
N7245 G1 X51
N7250 Y127.864
N7255 G2 X53 Y129.864 I2
N7260 G1 X56.5
N7265 G2 X58.5 Y127.864 J-2
N7270 G1 Y0
N7275 G2 X56.5 Y-2 I-2
N7280 G1 X53
N7285 G2 X51 Y0 J2
N7290 G1 Y2
N7295 X40.25
N7300 G2 X38.25 Y4 J2
N7305 G1 Y7
N7310 G2 X40.25 Y9 I2
N7315 G1 X41.25
N7320 Y11.932
N7325 G2 X43.25 Y13.932 I2
N7330 G1 X51
N7335 Y113.932
N7340 X43.25
N7345 G2 X41.25 Y115.932 J2
N7350 G3 X40.85 Y116.332 I-0.4
N7355 G1 X40.45
N7360 G18 G3 X40.05 Z-4.6 K0.4
N7365 G0 Z5
N7370 Y115.532
N7375 G1 Z-3 F300
N7380 Z-5.6
N7385 G2 X40.45 Z-6 I0.4
N7390 G1 X40.85
N7395 G17 G3 X41.25 Y115.932 J0.4
N7400 G1 Y118.864
N7405 X40.25
N7410 G2 X38.25 Y120.864 J2
N7415 G1 Y123.864
N7420 G2 X40.25 Y125.864 I2
N7425 G1 X51
N7430 Y127.864
N7435 G2 X53 Y129.864 I2
N7440 G1 X56.5
N7445 G2 X58.5 Y127.864 J-2
N7450 G1 Y0
N7455 G2 X56.5 Y-2 I-2
N7460 G1 X53
N7465 G2 X51 Y0 J2
N7470 G1 Y2
N7475 X40.25
N7480 G2 X38.25 Y4 J2
N7485 G1 Y7
N7490 G2 X40.25 Y9 I2
N7495 G1 X41.25
N7500 Y11.932
N7505 G2 X43.25 Y13.932 I2
N7510 G1 X51
N7515 Y113.932
N7520 X43.25
N7525 G2 X41.25 Y115.932 J2
N7530 G3 X40.85 Y116.332 I-0.4
N7535 G1 X40.45
N7540 G18 G3 X40.05 Z-5.6 K0.4
N7545 G0 Z5
N7550 X38.2 Y117.295
N7555 G1 Z-3 F300
N7560 Z-5.6
N7565 G3 X37.8 Z-6 I-0.4
N7570 G1 X37.4
N7575 G17 G3 X37 Y116.895 J-0.4
N7580 G1 Y57.932
N7585 X44.5
N7590 G2 X46.5 Y55.932 J-2
N7595 G1 Y33.932
N7600 G2 X44.5 Y31.932 I-2
N7605 G1 X32
N7610 G2 X30.068 Y33.414 J2
N7615 G1 X29.568 Y35.28
N7620 G2 X29.5 Y35.798 I1.932 J0.518
N7625 G1 Y123.864
N7630 Y152.066
N7635 G2 X29.568 Y152.584 I2
N7640 G1 X30.068 Y154.45
N7645 G2 X32 Y155.932 I1.932 J-0.518
N7650 G1 X44.5
N7655 G2 X46.5 Y153.932 J-2
N7660 G1 Y131.932
N7665 G2 X44.5 Y129.932 I-2
N7670 G1 X37
N7675 Y116.895
N7680 G3 X37.4 Y116.495 I0.4
N7685 G1 X37.8
N7690 G18 G2 X38.2 Z-5.6 K0.4
N7695 G0 Z5
N7700 Y117.295
N7705 G1 Z-4 F300
N7710 Z-6.6
N7715 G3 X37.8 Z-7 I-0.4
N7720 G1 X37.4
N7725 G17 G3 X37 Y116.895 J-0.4
N7730 G1 Y57.932
N7735 X44.5
N7740 G2 X46.5 Y55.932 J-2
N7745 G1 Y33.932
N7750 G2 X44.5 Y31.932 I-2
N7755 G1 X32
N7760 G2 X30.068 Y33.414 J2
N7765 G1 X29.568 Y35.28
N7770 G2 X29.5 Y35.798 I1.932 J0.518
N7775 G1 Y123.864
N7780 Y152.066
N7785 G2 X29.568 Y152.584 I2
N7790 G1 X30.068 Y154.45
N7795 G2 X32 Y155.932 I1.932 J-0.518
N7800 G1 X44.5
N7805 G2 X46.5 Y153.932 J-2
N7810 G1 Y131.932
N7815 G2 X44.5 Y129.932 I-2
N7820 G1 X37
N7825 Y116.895
N7830 G3 X37.4 Y116.495 I0.4
N7835 G1 X37.8
N7840 G18 G2 X38.2 Z-6.6 K0.4
N7845 G0 Z5
N7850 X40.05 Y115.532
N7855 G1 Z-4 F300
N7860 Z-6.6
N7865 G2 X40.45 Z-7 I0.4
N7870 G1 X40.85
N7875 G17 G3 X41.25 Y115.932 J0.4
N7880 G1 Y118.864
N7885 X40.25
N7890 G2 X38.25 Y120.864 J2
N7895 G1 Y123.864
N7900 G2 X40.25 Y125.864 I2
N7905 G1 X51
N7910 Y127.864
N7915 G2 X53 Y129.864 I2
N7920 G1 X56.5
N7925 G2 X58.5 Y127.864 J-2
N7930 G1 Y0
N7935 G2 X56.5 Y-2 I-2
N7940 G1 X53
N7945 G2 X51 Y0 J2
N7950 G1 Y2
N7955 X40.25
N7960 G2 X38.25 Y4 J2
N7965 G1 Y7
N7970 G2 X40.25 Y9 I2
N7975 G1 X41.25
N7980 Y11.932
N7985 G2 X43.25 Y13.932 I2
N7990 G1 X51
N7995 Y113.932
N8000 X43.25
N8005 G2 X41.25 Y115.932 J2
N8010 G3 X40.85 Y116.332 I-0.4
N8015 G1 X40.45
N8020 G18 G3 X40.05 Z-6.6 K0.4
N8025 G0 Z5
N8030 Y115.532
N8035 G1 Z-5 F300
N8040 Z-7.6
N8045 G2 X40.45 Z-8 I0.4
N8050 G1 X40.85
N8055 G17 G3 X41.25 Y115.932 J0.4
N8060 G1 Y118.864
N8065 X40.25
N8070 G2 X38.25 Y120.864 J2
N8075 G1 Y123.864
N8080 G2 X40.25 Y125.864 I2
N8085 G1 X51
N8090 Y127.864
N8095 G2 X53 Y129.864 I2
N8100 G1 X56.5
N8105 G2 X58.5 Y127.864 J-2
N8110 G1 Y0
N8115 G2 X56.5 Y-2 I-2
N8120 G1 X53
N8125 G2 X51 Y0 J2
N8130 G1 Y2
N8135 X40.25
N8140 G2 X38.25 Y4 J2
N8145 G1 Y7
N8150 G2 X40.25 Y9 I2
N8155 G1 X41.25
N8160 Y11.932
N8165 G2 X43.25 Y13.932 I2
N8170 G1 X51
N8175 Y113.932
N8180 X43.25
N8185 G2 X41.25 Y115.932 J2
N8190 G3 X40.85 Y116.332 I-0.4
N8195 G1 X40.45
N8200 G18 G3 X40.05 Z-7.6 K0.4
N8205 G0 Z5
N8210 X38.2 Y117.295
N8215 G1 Z-5 F300
N8220 Z-7.6
N8225 G3 X37.8 Z-8 I-0.4
N8230 G1 X37.4
N8235 G17 G3 X37 Y116.895 J-0.4
N8240 G1 Y57.932
N8245 X44.5
N8250 G2 X46.5 Y55.932 J-2
N8255 G1 Y33.932
N8260 G2 X44.5 Y31.932 I-2
N8265 G1 X32
N8270 G2 X30.068 Y33.414 J2
N8275 G1 X29.568 Y35.28
N8280 G2 X29.5 Y35.798 I1.932 J0.518
N8285 G1 Y123.864
N8290 Y152.066
N8295 G2 X29.568 Y152.584 I2
N8300 G1 X30.068 Y154.45
N8305 G2 X32 Y155.932 I1.932 J-0.518
N8310 G1 X44.5
N8315 G2 X46.5 Y153.932 J-2
N8320 G1 Y131.932
N8325 G2 X44.5 Y129.932 I-2
N8330 G1 X37
N8335 Y116.895
N8340 G3 X37.4 Y116.495 I0.4
N8345 G1 X37.8
N8350 G18 G2 X38.2 Z-7.6 K0.4
N8355 G0 Z5
N8360 Y117.295
N8365 G1 Z-6 F300
N8370 Z-8.15
N8375 G3 X37.8 Z-8.55 I-0.4
N8380 G1 X37.4
N8385 G17 G3 X37 Y116.895 J-0.4
N8390 G1 Y57.932
N8395 X44.5
N8400 G2 X46.5 Y55.932 J-2
N8405 G1 Y33.932
N8410 G2 X44.5 Y31.932 I-2
N8415 G1 X32
N8420 G2 X30.068 Y33.414 J2
N8425 G1 X29.568 Y35.28
N8430 G2 X29.5 Y35.798 I1.932 J0.518
N8435 G1 Y123.864
N8440 Y152.066
N8445 G2 X29.568 Y152.584 I2
N8450 G1 X30.068 Y154.45
N8455 G2 X32 Y155.932 I1.932 J-0.518
N8460 G1 X44.5
N8465 G2 X46.5 Y153.932 J-2
N8470 G1 Y131.932
N8475 G2 X44.5 Y129.932 I-2
N8480 G1 X37
N8485 Y116.895
N8490 G3 X37.4 Y116.495 I0.4
N8495 G1 X37.8
N8500 G18 G2 X38.2 Z-8.15 K0.4
N8505 G0 Z5
N8510 X40.05 Y115.532
N8515 G1 Z-6 F300
N8520 Z-8.15
N8525 G2 X40.45 Z-8.55 I0.4
N8530 G1 X40.85
N8535 G17 G3 X41.25 Y115.932 J0.4
N8540 G1 Y118.864
N8545 X40.25
N8550 G2 X38.25 Y120.864 J2
N8555 G1 Y123.864
N8560 G2 X40.25 Y125.864 I2
N8565 G1 X51
N8570 Y127.864
N8575 G2 X53 Y129.864 I2
N8580 G1 X56.5
N8585 G2 X58.5 Y127.864 J-2
N8590 G1 Y0
N8595 G2 X56.5 Y-2 I-2
N8600 G1 X53
N8605 G2 X51 Y0 J2
N8610 G1 Y2
N8615 X40.25
N8620 G2 X38.25 Y4 J2
N8625 G1 Y7
N8630 G2 X40.25 Y9 I2
N8635 G1 X41.25
N8640 Y11.932
N8645 G2 X43.25 Y13.932 I2
N8650 G1 X51
N8655 Y113.932
N8660 X43.25
N8665 G2 X41.25 Y115.932 J2
N8670 G3 X40.85 Y116.332 I-0.4
N8675 G1 X40.45
N8680 G18 G3 X40.05 Z-8.15 K0.4
N8685 G0 Z5
N8690 Y115.532
N8695 G1 Z-6.55 F300
N8700 Z-8.7
N8705 G2 X40.45 Z-9.1 I0.4
N8710 G1 X40.85
N8715 G17 G3 X41.25 Y115.932 J0.4
N8720 G1 Y118.864
N8725 X40.25
N8730 G2 X38.25 Y120.864 J2
N8735 G1 Y123.864
N8740 G2 X40.25 Y125.864 I2
N8745 G1 X51
N8750 Y127.864
N8755 G2 X53 Y129.864 I2
N8760 G1 X56.5
N8765 G2 X58.5 Y127.864 J-2
N8770 G1 Y0
N8775 G2 X56.5 Y-2 I-2
N8780 G1 X53
N8785 G2 X51 Y0 J2
N8790 G1 Y2
N8795 X40.25
N8800 G2 X38.25 Y4 J2
N8805 G1 Y7
N8810 G2 X40.25 Y9 I2
N8815 G1 X41.25
N8820 Y11.932
N8825 G2 X43.25 Y13.932 I2
N8830 G1 X51
N8835 Y113.932
N8840 X43.25
N8845 G2 X41.25 Y115.932 J2
N8850 G3 X40.85 Y116.332 I-0.4
N8855 G1 X40.45
N8860 G18 G3 X40.05 Z-8.7 K0.4
N8865 G0 Z5
N8870 X38.2 Y117.295
N8875 G1 Z-6.55 F300
N8880 Z-8.7
N8885 G3 X37.8 Z-9.1 I-0.4
N8890 G1 X37.4
N8895 G17 G3 X37 Y116.895 J-0.4
N8900 G1 Y57.932
N8905 X44.5
N8910 G2 X46.5 Y55.932 J-2
N8915 G1 Y33.932
N8920 G2 X44.5 Y31.932 I-2
N8925 G1 X32
N8930 G2 X30.068 Y33.414 J2
N8935 G1 X29.568 Y35.28
N8940 G2 X29.5 Y35.798 I1.932 J0.518
N8945 G1 Y123.864
N8950 Y152.066
N8955 G2 X29.568 Y152.584 I2
N8960 G1 X30.068 Y154.45
N8965 G2 X32 Y155.932 I1.932 J-0.518
N8970 G1 X44.5
N8975 G2 X46.5 Y153.932 J-2
N8980 G1 Y131.932
N8985 G2 X44.5 Y129.932 I-2
N8990 G1 X37
N8995 Y116.895
N9000 G3 X37.4 Y116.495 I0.4
N9005 G1 X37.8
N9010 G18 G2 X38.2 Z-8.7 K0.4
N9015 G0 Z5
N9020 X14.038 Y15.059
N9025 G1 Z2 F300
N9030 Z-0.6
N9035 X14.035 Y15.052 Z-0.678
N9040 X14.027 Y15.031 Z-0.753
N9045 X14.014 Y14.996 Z-0.822
N9050 X13.996 Y14.95 Z-0.883
N9055 X13.974 Y14.893 Z-0.933
N9060 X13.949 Y14.829 Z-0.97
N9065 X13.921 Y14.759 Z-0.992
N9070 X13.893 Y14.686 Z-1
N9075 X13.748 Y14.314
N9080 G17 G3 X13.976 Y13.796 I0.373 J-0.145
N9085 G2 X15.25 Y11.932 I-0.726 J-1.864
N9090 G1 Y9
N9095 X16.25
N9100 G2 X18.25 Y7 J-2
N9105 G1 Y4
N9110 G2 X16.25 Y2 I-2
N9115 G1 X5.5
N9120 Y0
N9125 G2 X3.5 Y-2 I-2
N9130 G1 X0
N9135 G2 X-2 Y0 J2
N9140 G1 Y127.864
N9145 G2 X0 Y129.864 I2
N9150 G1 X3.5
N9155 G2 X5.5 Y127.864 J-2
N9160 G1 Y125.864
N9165 X16.25
N9170 G2 X18.25 Y123.864 J-2
N9175 G1 Y120.864
N9180 G2 X16.25 Y118.864 I-2
N9185 G1 X15.25
N9190 Y115.932
N9195 G2 X13.25 Y113.932 I-2
N9200 G1 X5.5
N9205 Y13.932
N9210 X13.25
N9215 G2 X13.976 Y13.796 J-2
N9220 G3 X14.493 Y14.023 I0.145 J0.373
N9225 G1 X14.639 Y14.396
N9230 X14.667 Y14.469 Z-0.992
N9235 X14.694 Y14.539 Z-0.97
N9240 X14.719 Y14.603 Z-0.933
N9245 X14.741 Y14.66 Z-0.883
N9250 X14.759 Y14.706 Z-0.822
N9255 X14.773 Y14.74 Z-0.753
N9260 X14.781 Y14.762 Z-0.678
N9265 X14.784 Y14.769 Z-0.6
N9270 G0 Z5
N9275 X14.038 Y15.059
N9280 G1 Z1 F300
N9285 Z-1.6
N9290 X14.035 Y15.052 Z-1.678
N9295 X14.027 Y15.031 Z-1.753
N9300 X14.014 Y14.996 Z-1.822
N9305 X13.996 Y14.95 Z-1.883
N9310 X13.974 Y14.893 Z-1.933
N9315 X13.949 Y14.829 Z-1.97
N9320 X13.921 Y14.759 Z-1.992
N9325 X13.893 Y14.686 Z-2
N9330 X13.748 Y14.314
N9335 G3 X13.976 Y13.796 I0.373 J-0.145
N9340 G2 X15.25 Y11.932 I-0.726 J-1.864
N9345 G1 Y9
N9350 X16.25
N9355 G2 X18.25 Y7 J-2
N9360 G1 Y4
N9365 G2 X16.25 Y2 I-2
N9370 G1 X5.5
N9375 Y0
N9380 G2 X3.5 Y-2 I-2
N9385 G1 X0
N9390 G2 X-2 Y0 J2
N9395 G1 Y127.864
N9400 G2 X0 Y129.864 I2
N9405 G1 X3.5
N9410 G2 X5.5 Y127.864 J-2
N9415 G1 Y125.864
N9420 X16.25
N9425 G2 X18.25 Y123.864 J-2
N9430 G1 Y120.864
N9435 G2 X16.25 Y118.864 I-2
N9440 G1 X15.25
N9445 Y115.932
N9450 G2 X13.25 Y113.932 I-2
N9455 G1 X5.5
N9460 Y13.932
N9465 X13.25
N9470 G2 X13.976 Y13.796 J-2
N9475 G3 X14.493 Y14.023 I0.145 J0.373
N9480 G1 X14.639 Y14.396
N9485 X14.667 Y14.469 Z-1.992
N9490 X14.694 Y14.539 Z-1.97
N9495 X14.719 Y14.603 Z-1.933
N9500 X14.741 Y14.66 Z-1.883
N9505 X14.759 Y14.706 Z-1.822
N9510 X14.773 Y14.74 Z-1.753
N9515 X14.781 Y14.762 Z-1.678
N9520 X14.784 Y14.769 Z-1.6
N9525 G0 Z5
N9530 X14.038 Y15.059
N9535 G1 Z0 F300
N9540 Z-2.6
N9545 X14.035 Y15.052 Z-2.678
N9550 X14.027 Y15.031 Z-2.753
N9555 X14.014 Y14.996 Z-2.822
N9560 X13.996 Y14.95 Z-2.883
N9565 X13.974 Y14.893 Z-2.933
N9570 X13.949 Y14.829 Z-2.97
N9575 X13.921 Y14.759 Z-2.992
N9580 X13.893 Y14.686 Z-3
N9585 X13.748 Y14.314
N9590 G3 X13.976 Y13.796 I0.373 J-0.145
N9595 G2 X15.25 Y11.932 I-0.726 J-1.864
N9600 G1 Y9
N9605 X16.25
N9610 G2 X18.25 Y7 J-2
N9615 G1 Y4
N9620 G2 X16.25 Y2 I-2
N9625 G1 X5.5
N9630 Y0
N9635 G2 X3.5 Y-2 I-2
N9640 G1 X0
N9645 G2 X-2 Y0 J2
N9650 G1 Y127.864
N9655 G2 X0 Y129.864 I2
N9660 G1 X3.5
N9665 G2 X5.5 Y127.864 J-2
N9670 G1 Y125.864
N9675 X16.25
N9680 G2 X18.25 Y123.864 J-2
N9685 G1 Y120.864
N9690 G2 X16.25 Y118.864 I-2
N9695 G1 X15.25
N9700 Y115.932
N9705 G2 X13.25 Y113.932 I-2
N9710 G1 X5.5
N9715 Y13.932
N9720 X13.25
N9725 G2 X13.976 Y13.796 J-2
N9730 G3 X14.493 Y14.023 I0.145 J0.373
N9735 G1 X14.639 Y14.396
N9740 X14.667 Y14.469 Z-2.992
N9745 X14.694 Y14.539 Z-2.97
N9750 X14.719 Y14.603 Z-2.933
N9755 X14.741 Y14.66 Z-2.883
N9760 X14.759 Y14.706 Z-2.822
N9765 X14.773 Y14.74 Z-2.753
N9770 X14.781 Y14.762 Z-2.678
N9775 X14.784 Y14.769 Z-2.6
N9780 G0 Z5
N9785 X14.038 Y15.059
N9790 G1 Z-1 F300
N9795 Z-3.6
N9800 X14.035 Y15.052 Z-3.678
N9805 X14.027 Y15.031 Z-3.753
N9810 X14.014 Y14.996 Z-3.822
N9815 X13.996 Y14.95 Z-3.883
N9820 X13.974 Y14.893 Z-3.933
N9825 X13.949 Y14.829 Z-3.97
N9830 X13.921 Y14.759 Z-3.992
N9835 X13.893 Y14.686 Z-4
N9840 X13.748 Y14.314
N9845 G3 X13.976 Y13.796 I0.373 J-0.145
N9850 G2 X15.25 Y11.932 I-0.726 J-1.864
N9855 G1 Y9
N9860 X16.25
N9865 G2 X18.25 Y7 J-2
N9870 G1 Y4
N9875 G2 X16.25 Y2 I-2
N9880 G1 X5.5
N9885 Y0
N9890 G2 X3.5 Y-2 I-2
N9895 G1 X0
N9900 G2 X-2 Y0 J2
N9905 G1 Y127.864
N9910 G2 X0 Y129.864 I2
N9915 G1 X3.5
N9920 G2 X5.5 Y127.864 J-2
N9925 G1 Y125.864
N9930 X16.25
N9935 G2 X18.25 Y123.864 J-2
N9940 G1 Y120.864
N9945 G2 X16.25 Y118.864 I-2
N9950 G1 X15.25
N9955 Y115.932
N9960 G2 X13.25 Y113.932 I-2
N9965 G1 X5.5
N9970 Y13.932
N9975 X13.25
N9980 G2 X13.976 Y13.796 J-2
N9985 G3 X14.493 Y14.023 I0.145 J0.373
N9990 G1 X14.639 Y14.396
N9995 X14.667 Y14.469 Z-3.992
N10000 X14.694 Y14.539 Z-3.97
N10005 X14.719 Y14.603 Z-3.933
N10010 X14.741 Y14.66 Z-3.883
N10015 X14.759 Y14.706 Z-3.822
N10020 X14.773 Y14.74 Z-3.753
N10025 X14.781 Y14.762 Z-3.678
N10030 X14.784 Y14.769 Z-3.6
N10035 G0 Z5
N10040 X14.038 Y15.059
N10045 G1 Z-2 F300
N10050 Z-4.6
N10055 X14.035 Y15.052 Z-4.678
N10060 X14.027 Y15.031 Z-4.753
N10065 X14.014 Y14.996 Z-4.822
N10070 X13.996 Y14.95 Z-4.883
N10075 X13.974 Y14.893 Z-4.933
N10080 X13.949 Y14.829 Z-4.97
N10085 X13.921 Y14.759 Z-4.992
N10090 X13.893 Y14.686 Z-5
N10095 X13.748 Y14.314
N10100 G3 X13.976 Y13.796 I0.373 J-0.145
N10105 G2 X15.25 Y11.932 I-0.726 J-1.864
N10110 G1 Y9
N10115 X16.25
N10120 G2 X18.25 Y7 J-2
N10125 G1 Y4
N10130 G2 X16.25 Y2 I-2
N10135 G1 X5.5
N10140 Y0
N10145 G2 X3.5 Y-2 I-2
N10150 G1 X0
N10155 G2 X-2 Y0 J2
N10160 G1 Y127.864
N10165 G2 X0 Y129.864 I2
N10170 G1 X3.5
N10175 G2 X5.5 Y127.864 J-2
N10180 G1 Y125.864
N10185 X16.25
N10190 G2 X18.25 Y123.864 J-2
N10195 G1 Y120.864
N10200 G2 X16.25 Y118.864 I-2
N10205 G1 X15.25
N10210 Y115.932
N10215 G2 X13.25 Y113.932 I-2
N10220 G1 X5.5
N10225 Y13.932
N10230 X13.25
N10235 G2 X13.976 Y13.796 J-2
N10240 G3 X14.493 Y14.023 I0.145 J0.373
N10245 G1 X14.639 Y14.396
N10250 X14.667 Y14.469 Z-4.992
N10255 X14.694 Y14.539 Z-4.97
N10260 X14.719 Y14.603 Z-4.933
N10265 X14.741 Y14.66 Z-4.883
N10270 X14.759 Y14.706 Z-4.822
N10275 X14.773 Y14.74 Z-4.753
N10280 X14.781 Y14.762 Z-4.678
N10285 X14.784 Y14.769 Z-4.6
N10290 G0 Z5
N10295 X14.038 Y15.059
N10300 G1 Z-3 F300
N10305 Z-5.6
N10310 X14.035 Y15.052 Z-5.678
N10315 X14.027 Y15.031 Z-5.753
N10320 X14.014 Y14.996 Z-5.822
N10325 X13.996 Y14.95 Z-5.883
N10330 X13.974 Y14.893 Z-5.933
N10335 X13.949 Y14.829 Z-5.97
N10340 X13.921 Y14.759 Z-5.992
N10345 X13.893 Y14.686 Z-6
N10350 X13.748 Y14.314
N10355 G3 X13.976 Y13.796 I0.373 J-0.145
N10360 G2 X15.25 Y11.932 I-0.726 J-1.864
N10365 G1 Y9
N10370 X16.25
N10375 G2 X18.25 Y7 J-2
N10380 G1 Y4
N10385 G2 X16.25 Y2 I-2
N10390 G1 X5.5
N10395 Y0
N10400 G2 X3.5 Y-2 I-2
N10405 G1 X0
N10410 G2 X-2 Y0 J2
N10415 G1 Y127.864
N10420 G2 X0 Y129.864 I2
N10425 G1 X3.5
N10430 G2 X5.5 Y127.864 J-2
N10435 G1 Y125.864
N10440 X16.25
N10445 G2 X18.25 Y123.864 J-2
N10450 G1 Y120.864
N10455 G2 X16.25 Y118.864 I-2
N10460 G1 X15.25
N10465 Y115.932
N10470 G2 X13.25 Y113.932 I-2
N10475 G1 X5.5
N10480 Y13.932
N10485 X13.25
N10490 G2 X13.976 Y13.796 J-2
N10495 G3 X14.493 Y14.023 I0.145 J0.373
N10500 G1 X14.639 Y14.396
N10505 X14.667 Y14.469 Z-5.992
N10510 X14.694 Y14.539 Z-5.97
N10515 X14.719 Y14.603 Z-5.933
N10520 X14.741 Y14.66 Z-5.883
N10525 X14.759 Y14.706 Z-5.822
N10530 X14.773 Y14.74 Z-5.753
N10535 X14.781 Y14.762 Z-5.678
N10540 X14.784 Y14.769 Z-5.6
N10545 G0 Z5
N10550 X14.038 Y15.059
N10555 G1 Z-4 F300
N10560 Z-6.6
N10565 X14.035 Y15.052 Z-6.678
N10570 X14.027 Y15.031 Z-6.753
N10575 X14.014 Y14.996 Z-6.822
N10580 X13.996 Y14.95 Z-6.883
N10585 X13.974 Y14.893 Z-6.933
N10590 X13.949 Y14.829 Z-6.97
N10595 X13.921 Y14.759 Z-6.992
N10600 X13.893 Y14.686 Z-7
N10605 X13.748 Y14.314
N10610 G3 X13.976 Y13.796 I0.373 J-0.145
N10615 G2 X15.25 Y11.932 I-0.726 J-1.864
N10620 G1 Y9
N10625 X16.25
N10630 G2 X18.25 Y7 J-2
N10635 G1 Y4
N10640 G2 X16.25 Y2 I-2
N10645 G1 X5.5
N10650 Y0
N10655 G2 X3.5 Y-2 I-2
N10660 G1 X0
N10665 G2 X-2 Y0 J2
N10670 G1 Y127.864
N10675 G2 X0 Y129.864 I2
N10680 G1 X3.5
N10685 G2 X5.5 Y127.864 J-2
N10690 G1 Y125.864
N10695 X16.25
N10700 G2 X18.25 Y123.864 J-2
N10705 G1 Y120.864
N10710 G2 X16.25 Y118.864 I-2
N10715 G1 X15.25
N10720 Y115.932
N10725 G2 X13.25 Y113.932 I-2
N10730 G1 X5.5
N10735 Y13.932
N10740 X13.25
N10745 G2 X13.976 Y13.796 J-2
N10750 G3 X14.493 Y14.023 I0.145 J0.373
N10755 G1 X14.639 Y14.396
N10760 X14.667 Y14.469 Z-6.992
N10765 X14.694 Y14.539 Z-6.97
N10770 X14.719 Y14.603 Z-6.933
N10775 X14.741 Y14.66 Z-6.883
N10780 X14.759 Y14.706 Z-6.822
N10785 X14.773 Y14.74 Z-6.753
N10790 X14.781 Y14.762 Z-6.678
N10795 X14.784 Y14.769 Z-6.6
N10800 G0 Z5
N10805 X14.038 Y15.059
N10810 G1 Z-5 F300
N10815 Z-7.6
N10820 X14.035 Y15.052 Z-7.678
N10825 X14.027 Y15.031 Z-7.753
N10830 X14.014 Y14.996 Z-7.822
N10835 X13.996 Y14.95 Z-7.883
N10840 X13.974 Y14.893 Z-7.933
N10845 X13.949 Y14.829 Z-7.97
N10850 X13.921 Y14.759 Z-7.992
N10855 X13.893 Y14.686 Z-8
N10860 X13.748 Y14.314
N10865 G3 X13.976 Y13.796 I0.373 J-0.145
N10870 G2 X15.25 Y11.932 I-0.726 J-1.864
N10875 G1 Y9
N10880 X16.25
N10885 G2 X18.25 Y7 J-2
N10890 G1 Y4
N10895 G2 X16.25 Y2 I-2
N10900 G1 X5.5
N10905 Y0
N10910 G2 X3.5 Y-2 I-2
N10915 G1 X0
N10920 G2 X-2 Y0 J2
N10925 G1 Y127.864
N10930 G2 X0 Y129.864 I2
N10935 G1 X3.5
N10940 G2 X5.5 Y127.864 J-2
N10945 G1 Y125.864
N10950 X16.25
N10955 G2 X18.25 Y123.864 J-2
N10960 G1 Y120.864
N10965 G2 X16.25 Y118.864 I-2
N10970 G1 X15.25
N10975 Y115.932
N10980 G2 X13.25 Y113.932 I-2
N10985 G1 X5.5
N10990 Y13.932
N10995 X13.25
N11000 G2 X13.976 Y13.796 J-2
N11005 G3 X14.493 Y14.023 I0.145 J0.373
N11010 G1 X14.639 Y14.396
N11015 X14.667 Y14.469 Z-7.992
N11020 X14.694 Y14.539 Z-7.97
N11025 X14.719 Y14.603 Z-7.933
N11030 X14.741 Y14.66 Z-7.883
N11035 X14.759 Y14.706 Z-7.822
N11040 X14.773 Y14.74 Z-7.753
N11045 X14.781 Y14.762 Z-7.678
N11050 X14.784 Y14.769 Z-7.6
N11055 G0 Z5
N11060 X14.038 Y15.059
N11065 G1 Z-6 F300
N11070 Z-8.15
N11075 X14.035 Y15.052 Z-8.228
N11080 X14.027 Y15.031 Z-8.303
N11085 X14.014 Y14.996 Z-8.372
N11090 X13.996 Y14.95 Z-8.433
N11095 X13.974 Y14.893 Z-8.483
N11100 X13.949 Y14.829 Z-8.52
N11105 X13.921 Y14.759 Z-8.542
N11110 X13.893 Y14.686 Z-8.55
N11115 X13.748 Y14.314
N11120 G3 X13.976 Y13.796 I0.373 J-0.145
N11125 G2 X15.25 Y11.932 I-0.726 J-1.864
N11130 G1 Y9
N11135 X16.25
N11140 G2 X18.25 Y7 J-2
N11145 G1 Y4
N11150 G2 X16.25 Y2 I-2
N11155 G1 X5.5
N11160 Y0
N11165 G2 X3.5 Y-2 I-2
N11170 G1 X0
N11175 G2 X-2 Y0 J2
N11180 G1 Y127.864
N11185 G2 X0 Y129.864 I2
N11190 G1 X3.5
N11195 G2 X5.5 Y127.864 J-2
N11200 G1 Y125.864
N11205 X16.25
N11210 G2 X18.25 Y123.864 J-2
N11215 G1 Y120.864
N11220 G2 X16.25 Y118.864 I-2
N11225 G1 X15.25
N11230 Y115.932
N11235 G2 X13.25 Y113.932 I-2
N11240 G1 X5.5
N11245 Y13.932
N11250 X13.25
N11255 G2 X13.976 Y13.796 J-2
N11260 G3 X14.493 Y14.023 I0.145 J0.373
N11265 G1 X14.639 Y14.396
N11270 X14.667 Y14.469 Z-8.542
N11275 X14.694 Y14.539 Z-8.52
N11280 X14.719 Y14.603 Z-8.483
N11285 X14.741 Y14.66 Z-8.433
N11290 X14.759 Y14.706 Z-8.372
N11295 X14.773 Y14.74 Z-8.303
N11300 X14.781 Y14.762 Z-8.228
N11305 X14.784 Y14.769 Z-8.15
N11310 G0 Z5
N11315 X14.038 Y15.059
N11320 G1 Z-6.55 F300
N11325 Z-8.7
N11330 X14.035 Y15.052 Z-8.778
N11335 X14.027 Y15.031 Z-8.853
N11340 X14.014 Y14.996 Z-8.922
N11345 X13.996 Y14.95 Z-8.983
N11350 X13.974 Y14.893 Z-9.033
N11355 X13.949 Y14.829 Z-9.07
N11360 X13.921 Y14.759 Z-9.092
N11365 X13.893 Y14.686 Z-9.1
N11370 X13.748 Y14.314
N11375 G3 X13.976 Y13.796 I0.373 J-0.145
N11380 G2 X15.25 Y11.932 I-0.726 J-1.864
N11385 G1 Y9
N11390 X16.25
N11395 G2 X18.25 Y7 J-2
N11400 G1 Y4
N11405 G2 X16.25 Y2 I-2
N11410 G1 X5.5
N11415 Y0
N11420 G2 X3.5 Y-2 I-2
N11425 G1 X0
N11430 G2 X-2 Y0 J2
N11435 G1 Y127.864
N11440 G2 X0 Y129.864 I2
N11445 G1 X3.5
N11450 G2 X5.5 Y127.864 J-2
N11455 G1 Y125.864
N11460 X16.25
N11465 G2 X18.25 Y123.864 J-2
N11470 G1 Y120.864
N11475 G2 X16.25 Y118.864 I-2
N11480 G1 X15.25
N11485 Y115.932
N11490 G2 X13.25 Y113.932 I-2
N11495 G1 X5.5
N11500 Y13.932
N11505 X13.25
N11510 G2 X13.976 Y13.796 J-2
N11515 G3 X14.493 Y14.023 I0.145 J0.373
N11520 G1 X14.639 Y14.396
N11525 X14.667 Y14.469 Z-9.092
N11530 X14.694 Y14.539 Z-9.07
N11535 X14.719 Y14.603 Z-9.033
N11540 X14.741 Y14.66 Z-8.983
N11545 X14.759 Y14.706 Z-8.922
N11550 X14.773 Y14.74 Z-8.853
N11555 X14.781 Y14.762 Z-8.778
N11560 X14.784 Y14.769 Z-8.7
N11565 G0 Z15
N11570 X26.987 Y155.147
N11575 Z5
N11580 G1 Z2 F300
N11585 Z-0.6
N11590 X26.98 Y155.145 Z-0.678
N11595 X26.958 Y155.139 Z-0.753
N11600 X26.922 Y155.129 Z-0.822
N11605 X26.874 Y155.116 Z-0.883
N11610 X26.816 Y155.101 Z-0.933
N11615 X26.749 Y155.083 Z-0.97
N11620 X26.676 Y155.063 Z-0.992
N11625 X26.601 Y155.043 Z-1
N11630 X26.215 Y154.94
N11635 G3 X25.932 Y154.45 I0.104 J-0.386
N11640 G1 X26.432 Y152.584
N11645 G2 X26.5 Y152.066 I-1.932 J-0.518
N11650 G1 Y35.798
N11655 G2 X26.432 Y35.28 I-2
N11660 G1 X25.932 Y33.414
N11665 G2 X24 Y31.932 I-1.932 J0.518
N11670 G1 X11.5
N11675 G2 X9.5 Y33.932 J2
N11680 G1 Y55.932
N11685 G2 X11.5 Y57.932 I2
N11690 G1 X19
N11695 Y129.932
N11700 X11.5
N11705 G2 X9.5 Y131.932 J2
N11710 G1 Y153.932
N11715 G2 X11.5 Y155.932 I2
N11720 G1 X24
N11725 G2 X25.932 Y154.45 J-2
N11730 G3 X26.422 Y154.167 I0.386 J0.104
N11735 G1 X26.808 Y154.27
N11740 X26.883 Y154.291 Z-0.992
N11745 X26.956 Y154.31 Z-0.97
N11750 X27.023 Y154.328 Z-0.933
N11755 X27.081 Y154.344 Z-0.883
N11760 X27.129 Y154.356 Z-0.822
N11765 X27.165 Y154.366 Z-0.753
N11770 X27.187 Y154.372 Z-0.678
N11775 X27.194 Y154.374 Z-0.6
N11780 G0 Z5
N11785 X26.987 Y155.147
N11790 G1 Z1 F300
N11795 Z-1.6
N11800 X26.98 Y155.145 Z-1.678
N11805 X26.958 Y155.139 Z-1.753
N11810 X26.922 Y155.129 Z-1.822
N11815 X26.874 Y155.116 Z-1.883
N11820 X26.816 Y155.101 Z-1.933
N11825 X26.749 Y155.083 Z-1.97
N11830 X26.676 Y155.063 Z-1.992
N11835 X26.601 Y155.043 Z-2
N11840 X26.215 Y154.94
N11845 G3 X25.932 Y154.45 I0.104 J-0.386
N11850 G1 X26.432 Y152.584
N11855 G2 X26.5 Y152.066 I-1.932 J-0.518
N11860 G1 Y35.798
N11865 G2 X26.432 Y35.28 I-2
N11870 G1 X25.932 Y33.414
N11875 G2 X24 Y31.932 I-1.932 J0.518
N11880 G1 X11.5
N11885 G2 X9.5 Y33.932 J2
N11890 G1 Y55.932
N11895 G2 X11.5 Y57.932 I2
N11900 G1 X19
N11905 Y129.932
N11910 X11.5
N11915 G2 X9.5 Y131.932 J2
N11920 G1 Y153.932
N11925 G2 X11.5 Y155.932 I2
N11930 G1 X24
N11935 G2 X25.932 Y154.45 J-2
N11940 G3 X26.422 Y154.167 I0.386 J0.104
N11945 G1 X26.808 Y154.27
N11950 X26.883 Y154.291 Z-1.992
N11955 X26.956 Y154.31 Z-1.97
N11960 X27.023 Y154.328 Z-1.933
N11965 X27.081 Y154.344 Z-1.883
N11970 X27.129 Y154.356 Z-1.822
N11975 X27.165 Y154.366 Z-1.753
N11980 X27.187 Y154.372 Z-1.678
N11985 X27.194 Y154.374 Z-1.6
N11990 G0 Z5
N11995 X26.987 Y155.147
N12000 G1 Z0 F300
N12005 Z-2.6
N12010 X26.98 Y155.145 Z-2.678
N12015 X26.958 Y155.139 Z-2.753
N12020 X26.922 Y155.129 Z-2.822
N12025 X26.874 Y155.116 Z-2.883
N12030 X26.816 Y155.101 Z-2.933
N12035 X26.749 Y155.083 Z-2.97
N12040 X26.676 Y155.063 Z-2.992
N12045 X26.601 Y155.043 Z-3
N12050 X26.215 Y154.94
N12055 G3 X25.932 Y154.45 I0.104 J-0.386
N12060 G1 X26.432 Y152.584
N12065 G2 X26.5 Y152.066 I-1.932 J-0.518
N12070 G1 Y35.798
N12075 G2 X26.432 Y35.28 I-2
N12080 G1 X25.932 Y33.414
N12085 G2 X24 Y31.932 I-1.932 J0.518
N12090 G1 X11.5
N12095 G2 X9.5 Y33.932 J2
N12100 G1 Y55.932
N12105 G2 X11.5 Y57.932 I2
N12110 G1 X19
N12115 Y129.932
N12120 X11.5
N12125 G2 X9.5 Y131.932 J2
N12130 G1 Y153.932
N12135 G2 X11.5 Y155.932 I2
N12140 G1 X24
N12145 G2 X25.932 Y154.45 J-2
N12150 G3 X26.422 Y154.167 I0.386 J0.104
N12155 G1 X26.808 Y154.27
N12160 X26.883 Y154.291 Z-2.992
N12165 X26.956 Y154.31 Z-2.97
N12170 X27.023 Y154.328 Z-2.933
N12175 X27.081 Y154.344 Z-2.883
N12180 X27.129 Y154.356 Z-2.822
N12185 X27.165 Y154.366 Z-2.753
N12190 X27.187 Y154.372 Z-2.678
N12195 X27.194 Y154.374 Z-2.6
N12200 G0 Z5
N12205 X26.987 Y155.147
N12210 G1 Z-1 F300
N12215 Z-3.6
N12220 X26.98 Y155.145 Z-3.678
N12225 X26.958 Y155.139 Z-3.753
N12230 X26.922 Y155.129 Z-3.822
N12235 X26.874 Y155.116 Z-3.883
N12240 X26.816 Y155.101 Z-3.933
N12245 X26.749 Y155.083 Z-3.97
N12250 X26.676 Y155.063 Z-3.992
N12255 X26.601 Y155.043 Z-4
N12260 X26.215 Y154.94
N12265 G3 X25.932 Y154.45 I0.104 J-0.386
N12270 G1 X26.432 Y152.584
N12275 G2 X26.5 Y152.066 I-1.932 J-0.518
N12280 G1 Y35.798
N12285 G2 X26.432 Y35.28 I-2
N12290 G1 X25.932 Y33.414
N12295 G2 X24 Y31.932 I-1.932 J0.518
N12300 G1 X11.5
N12305 G2 X9.5 Y33.932 J2
N12310 G1 Y55.932
N12315 G2 X11.5 Y57.932 I2
N12320 G1 X19
N12325 Y129.932
N12330 X11.5
N12335 G2 X9.5 Y131.932 J2
N12340 G1 Y153.932
N12345 G2 X11.5 Y155.932 I2
N12350 G1 X24
N12355 G2 X25.932 Y154.45 J-2
N12360 G3 X26.422 Y154.167 I0.386 J0.104
N12365 G1 X26.808 Y154.27
N12370 X26.883 Y154.291 Z-3.992
N12375 X26.956 Y154.31 Z-3.97
N12380 X27.023 Y154.328 Z-3.933
N12385 X27.081 Y154.344 Z-3.883
N12390 X27.129 Y154.356 Z-3.822
N12395 X27.165 Y154.366 Z-3.753
N12400 X27.187 Y154.372 Z-3.678
N12405 X27.194 Y154.374 Z-3.6
N12410 G0 Z5
N12415 X26.987 Y155.147
N12420 G1 Z-2 F300
N12425 Z-4.6
N12430 X26.98 Y155.145 Z-4.678
N12435 X26.958 Y155.139 Z-4.753
N12440 X26.922 Y155.129 Z-4.822
N12445 X26.874 Y155.116 Z-4.883
N12450 X26.816 Y155.101 Z-4.933
N12455 X26.749 Y155.083 Z-4.97
N12460 X26.676 Y155.063 Z-4.992
N12465 X26.601 Y155.043 Z-5
N12470 X26.215 Y154.94
N12475 G3 X25.932 Y154.45 I0.104 J-0.386
N12480 G1 X26.432 Y152.584
N12485 G2 X26.5 Y152.066 I-1.932 J-0.518
N12490 G1 Y35.798
N12495 G2 X26.432 Y35.28 I-2
N12500 G1 X25.932 Y33.414
N12505 G2 X24 Y31.932 I-1.932 J0.518
N12510 G1 X11.5
N12515 G2 X9.5 Y33.932 J2
N12520 G1 Y55.932
N12525 G2 X11.5 Y57.932 I2
N12530 G1 X19
N12535 Y129.932
N12540 X11.5
N12545 G2 X9.5 Y131.932 J2
N12550 G1 Y153.932
N12555 G2 X11.5 Y155.932 I2
N12560 G1 X24
N12565 G2 X25.932 Y154.45 J-2
N12570 G3 X26.422 Y154.167 I0.386 J0.104
N12575 G1 X26.808 Y154.27
N12580 X26.883 Y154.291 Z-4.992
N12585 X26.956 Y154.31 Z-4.97
N12590 X27.023 Y154.328 Z-4.933
N12595 X27.081 Y154.344 Z-4.883
N12600 X27.129 Y154.356 Z-4.822
N12605 X27.165 Y154.366 Z-4.753
N12610 X27.187 Y154.372 Z-4.678
N12615 X27.194 Y154.374 Z-4.6
N12620 G0 Z5
N12625 X26.987 Y155.147
N12630 G1 Z-3 F300
N12635 Z-5.6
N12640 X26.98 Y155.145 Z-5.678
N12645 X26.958 Y155.139 Z-5.753
N12650 X26.922 Y155.129 Z-5.822
N12655 X26.874 Y155.116 Z-5.883
N12660 X26.816 Y155.101 Z-5.933
N12665 X26.749 Y155.083 Z-5.97
N12670 X26.676 Y155.063 Z-5.992
N12675 X26.601 Y155.043 Z-6
N12680 X26.215 Y154.94
N12685 G3 X25.932 Y154.45 I0.104 J-0.386
N12690 G1 X26.432 Y152.584
N12695 G2 X26.5 Y152.066 I-1.932 J-0.518
N12700 G1 Y35.798
N12705 G2 X26.432 Y35.28 I-2
N12710 G1 X25.932 Y33.414
N12715 G2 X24 Y31.932 I-1.932 J0.518
N12720 G1 X11.5
N12725 G2 X9.5 Y33.932 J2
N12730 G1 Y55.932
N12735 G2 X11.5 Y57.932 I2
N12740 G1 X19
N12745 Y129.932
N12750 X11.5
N12755 G2 X9.5 Y131.932 J2
N12760 G1 Y153.932
N12765 G2 X11.5 Y155.932 I2
N12770 G1 X24
N12775 G2 X25.932 Y154.45 J-2
N12780 G3 X26.422 Y154.167 I0.386 J0.104
N12785 G1 X26.808 Y154.27
N12790 X26.883 Y154.291 Z-5.992
N12795 X26.956 Y154.31 Z-5.97
N12800 X27.023 Y154.328 Z-5.933
N12805 X27.081 Y154.344 Z-5.883
N12810 X27.129 Y154.356 Z-5.822
N12815 X27.165 Y154.366 Z-5.753
N12820 X27.187 Y154.372 Z-5.678
N12825 X27.194 Y154.374 Z-5.6
N12830 G0 Z5
N12835 X26.987 Y155.147
N12840 G1 Z-4 F300
N12845 Z-6.6
N12850 X26.98 Y155.145 Z-6.678
N12855 X26.958 Y155.139 Z-6.753
N12860 X26.922 Y155.129 Z-6.822
N12865 X26.874 Y155.116 Z-6.883
N12870 X26.816 Y155.101 Z-6.933
N12875 X26.749 Y155.083 Z-6.97
N12880 X26.676 Y155.063 Z-6.992
N12885 X26.601 Y155.043 Z-7
N12890 X26.215 Y154.94
N12895 G3 X25.932 Y154.45 I0.104 J-0.386
N12900 G1 X26.432 Y152.584
N12905 G2 X26.5 Y152.066 I-1.932 J-0.518
N12910 G1 Y35.798
N12915 G2 X26.432 Y35.28 I-2
N12920 G1 X25.932 Y33.414
N12925 G2 X24 Y31.932 I-1.932 J0.518
N12930 G1 X11.5
N12935 G2 X9.5 Y33.932 J2
N12940 G1 Y55.932
N12945 G2 X11.5 Y57.932 I2
N12950 G1 X19
N12955 Y129.932
N12960 X11.5
N12965 G2 X9.5 Y131.932 J2
N12970 G1 Y153.932
N12975 G2 X11.5 Y155.932 I2
N12980 G1 X24
N12985 G2 X25.932 Y154.45 J-2
N12990 G3 X26.422 Y154.167 I0.386 J0.104
N12995 G1 X26.808 Y154.27
N13000 X26.883 Y154.291 Z-6.992
N13005 X26.956 Y154.31 Z-6.97
N13010 X27.023 Y154.328 Z-6.933
N13015 X27.081 Y154.344 Z-6.883
N13020 X27.129 Y154.356 Z-6.822
N13025 X27.165 Y154.366 Z-6.753
N13030 X27.187 Y154.372 Z-6.678
N13035 X27.194 Y154.374 Z-6.6
N13040 G0 Z5
N13045 X26.987 Y155.147
N13050 G1 Z-5 F300
N13055 Z-7.6
N13060 X26.98 Y155.145 Z-7.678
N13065 X26.958 Y155.139 Z-7.753
N13070 X26.922 Y155.129 Z-7.822
N13075 X26.874 Y155.116 Z-7.883
N13080 X26.816 Y155.101 Z-7.933
N13085 X26.749 Y155.083 Z-7.97
N13090 X26.676 Y155.063 Z-7.992
N13095 X26.601 Y155.043 Z-8
N13100 X26.215 Y154.94
N13105 G3 X25.932 Y154.45 I0.104 J-0.386
N13110 G1 X26.432 Y152.584
N13115 G2 X26.5 Y152.066 I-1.932 J-0.518
N13120 G1 Y35.798
N13125 G2 X26.432 Y35.28 I-2
N13130 G1 X25.932 Y33.414
N13135 G2 X24 Y31.932 I-1.932 J0.518
N13140 G1 X11.5
N13145 G2 X9.5 Y33.932 J2
N13150 G1 Y55.932
N13155 G2 X11.5 Y57.932 I2
N13160 G1 X19
N13165 Y129.932
N13170 X11.5
N13175 G2 X9.5 Y131.932 J2
N13180 G1 Y153.932
N13185 G2 X11.5 Y155.932 I2
N13190 G1 X24
N13195 G2 X25.932 Y154.45 J-2
N13200 G3 X26.422 Y154.167 I0.386 J0.104
N13205 G1 X26.808 Y154.27
N13210 X26.883 Y154.291 Z-7.992
N13215 X26.956 Y154.31 Z-7.97
N13220 X27.023 Y154.328 Z-7.933
N13225 X27.081 Y154.344 Z-7.883
N13230 X27.129 Y154.356 Z-7.822
N13235 X27.165 Y154.366 Z-7.753
N13240 X27.187 Y154.372 Z-7.678
N13245 X27.194 Y154.374 Z-7.6
N13250 G0 Z5
N13255 X26.987 Y155.147
N13260 G1 Z-6 F300
N13265 Z-8.155
N13270 X26.98 Y155.145 Z-8.233
N13275 X26.958 Y155.139 Z-8.308
N13280 X26.922 Y155.129 Z-8.377
N13285 X26.874 Y155.116 Z-8.438
N13290 X26.816 Y155.101 Z-8.488
N13295 X26.749 Y155.083 Z-8.525
N13300 X26.676 Y155.063 Z-8.547
N13305 X26.601 Y155.043 Z-8.555
N13310 X26.215 Y154.94
N13315 G3 X25.932 Y154.45 I0.104 J-0.386
N13320 G1 X26.432 Y152.584
N13325 G2 X26.5 Y152.066 I-1.932 J-0.518
N13330 G1 Y35.798
N13335 G2 X26.432 Y35.28 I-2
N13340 G1 X25.932 Y33.414
N13345 G2 X24 Y31.932 I-1.932 J0.518
N13350 G1 X11.5
N13355 G2 X9.5 Y33.932 J2
N13360 G1 Y55.932
N13365 G2 X11.5 Y57.932 I2
N13370 G1 X19
N13375 Y129.932
N13380 X11.5
N13385 G2 X9.5 Y131.932 J2
N13390 G1 Y153.932
N13395 G2 X11.5 Y155.932 I2
N13400 G1 X24
N13405 G2 X25.932 Y154.45 J-2
N13410 G3 X26.422 Y154.167 I0.386 J0.104
N13415 G1 X26.808 Y154.27
N13420 X26.883 Y154.291 Z-8.547
N13425 X26.956 Y154.31 Z-8.525
N13430 X27.023 Y154.328 Z-8.488
N13435 X27.081 Y154.344 Z-8.438
N13440 X27.129 Y154.356 Z-8.377
N13445 X27.165 Y154.366 Z-8.308
N13450 X27.187 Y154.372 Z-8.233
N13455 X27.194 Y154.374 Z-8.155
N13460 G0 Z5
N13465 X26.987 Y155.147
N13470 G1 Z-6.555 F300
N13475 Z-8.71
N13480 X26.98 Y155.145 Z-8.788
N13485 X26.958 Y155.139 Z-8.863
N13490 X26.922 Y155.129 Z-8.932
N13495 X26.874 Y155.116 Z-8.993
N13500 X26.816 Y155.101 Z-9.043
N13505 X26.749 Y155.083 Z-9.08
N13510 X26.676 Y155.063 Z-9.102
N13515 X26.601 Y155.043 Z-9.11
N13520 X26.215 Y154.94
N13525 G3 X25.932 Y154.45 I0.104 J-0.386
N13530 G1 X26.432 Y152.584
N13535 G2 X26.5 Y152.066 I-1.932 J-0.518
N13540 G1 Y35.798
N13545 G2 X26.432 Y35.28 I-2
N13550 G1 X25.932 Y33.414
N13555 G2 X24 Y31.932 I-1.932 J0.518
N13560 G1 X11.5
N13565 G2 X9.5 Y33.932 J2
N13570 G1 Y55.932
N13575 G2 X11.5 Y57.932 I2
N13580 G1 X19
N13585 Y129.932
N13590 X11.5
N13595 G2 X9.5 Y131.932 J2
N13600 G1 Y153.932
N13605 G2 X11.5 Y155.932 I2
N13610 G1 X24
N13615 G2 X25.932 Y154.45 J-2
N13620 G3 X26.422 Y154.167 I0.386 J0.104
N13625 G1 X26.808 Y154.27
N13630 X26.883 Y154.291 Z-9.102
N13635 X26.956 Y154.31 Z-9.08
N13640 X27.023 Y154.328 Z-9.043
N13645 X27.081 Y154.344 Z-8.993
N13650 X27.129 Y154.356 Z-8.932
N13655 X27.165 Y154.366 Z-8.863
N13660 X27.187 Y154.372 Z-8.788
N13665 X27.194 Y154.374 Z-8.71
N13670 G0 Z15
N13675 M9
N13680 G28
N13685 M30
%
