%
(1001)
(T2 D=4 CR=0 - ZMIN=-9.11 - flat end mill)
N10 G90 G94
N15 G17
N20 G21
N25 M9
N30 G28

(2D ??29)
N35 T2 M6
N40 S10000 M3
N45 G54
N50 M8
N55 G0 X8.7 Y41.332
N60 G43 Z15
N65 Z5
N70 G1 Z2 F600
N75 Z-0.6
N80 G18 G3 X8.3 Z-1 I-0.4
N85 G1 X7.9 F400
N90 G17 G3 X7.5 Y40.932 J-0.4
N95 G1 Y35.432 F600
N100 G3 X7.9 Y35.032 I0.4
N105 G1 X8.3
N110 G18 G2 X8.7 Z-0.6 K0.4
N115 G0 Z5
N120 Y41.332
N125 G1 Z1 F600
N130 Z-1.6
N135 G3 X8.3 Z-2 I-0.4
N140 G1 X7.9 F400
N145 G17 G3 X7.5 Y40.932 J-0.4
N150 G1 Y35.432 F600
N155 G3 X7.9 Y35.032 I0.4
N160 G1 X8.3
N165 G18 G2 X8.7 Z-1.6 K0.4
N170 G0 Z5
N175 Y41.332
N180 G1 Z0 F600
N185 Z-2.6
N190 G3 X8.3 Z-3 I-0.4
N195 G1 X7.9 F400
N200 G17 G3 X7.5 Y40.932 J-0.4
N205 G1 Y35.432 F600
N210 G3 X7.9 Y35.032 I0.4
N215 G1 X8.3
N220 G18 G2 X8.7 Z-2.6 K0.4
N225 G0 Z5
N230 Y41.332
N235 G1 Z-1 F600
N240 Z-3.6
N245 G3 X8.3 Z-4 I-0.4
N250 G1 X7.9 F400
N255 G17 G3 X7.5 Y40.932 J-0.4
N260 G1 Y35.432 F600
N265 G3 X7.9 Y35.032 I0.4
N270 G1 X8.3
N275 G18 G2 X8.7 Z-3.6 K0.4
N280 G0 Z5
N285 Y41.332
N290 G1 Z-2 F600
N295 Z-4.6
N300 G3 X8.3 Z-5 I-0.4
N305 G1 X7.9 F400
N310 G17 G3 X7.5 Y40.932 J-0.4
N315 G1 Y35.432 F600
N320 G3 X7.9 Y35.032 I0.4
N325 G1 X8.3
N330 G18 G2 X8.7 Z-4.6 K0.4
N335 G0 Z5
N340 Y41.332
N345 G1 Z-3 F600
N350 Z-5.6
N355 G3 X8.3 Z-6 I-0.4
N360 G1 X7.9 F400
N365 G17 G3 X7.5 Y40.932 J-0.4
N370 G1 Y35.432 F600
N375 G3 X7.9 Y35.032 I0.4
N380 G1 X8.3
N385 G18 G2 X8.7 Z-5.6 K0.4
N390 G0 Z5
N395 Y41.332
N400 G1 Z-4 F600
N405 Z-6.15
N410 G3 X8.3 Z-6.55 I-0.4
N415 G1 X7.9 F400
N420 G17 G3 X7.5 Y40.932 J-0.4
N425 G1 Y35.432 F600
N430 G3 X7.9 Y35.032 I0.4
N435 G1 X8.3
N440 G18 G2 X8.7 Z-6.15 K0.4
N445 G0 Z5
N450 Y41.332
N455 G1 Z-4.55 F600
N460 Z-6.7
N465 G3 X8.3 Z-7.1 I-0.4
N470 G1 X7.9 F400
N475 G17 G3 X7.5 Y40.932 J-0.4
N480 G1 Y35.432 F600
N485 G3 X7.9 Y35.032 I0.4
N490 G1 X8.3
N495 G18 G2 X8.7 Z-6.7 K0.4
N500 G0 Z5
N505 X-5.2
N510 G1 Z2 F600
N515 Z-0.6
N520 G2 X-4.8 Z-1 I0.4
N525 G1 X-4.4 F400
N530 G17 G3 X-4 Y35.432 J0.4
N535 G1 Y40.932 F600
N540 G3 X-4.4 Y41.332 I-0.4
N545 G1 X-4.8
N550 G18 G3 X-5.2 Z-0.6 K0.4
N555 G0 Z5
N560 Y35.032
N565 G1 Z1 F600
N570 Z-1.6
N575 G2 X-4.8 Z-2 I0.4
N580 G1 X-4.4 F400
N585 G17 G3 X-4 Y35.432 J0.4
N590 G1 Y40.932 F600
N595 G3 X-4.4 Y41.332 I-0.4
N600 G1 X-4.8
N605 G18 G3 X-5.2 Z-1.6 K0.4
N610 G0 Z5
N615 Y35.032
N620 G1 Z0 F600
N625 Z-2.6
N630 G2 X-4.8 Z-3 I0.4
N635 G1 X-4.4 F400
N640 G17 G3 X-4 Y35.432 J0.4
N645 G1 Y40.932 F600
N650 G3 X-4.4 Y41.332 I-0.4
N655 G1 X-4.8
N660 G18 G3 X-5.2 Z-2.6 K0.4
N665 G0 Z5
N670 Y35.032
N675 G1 Z-1 F600
N680 Z-3.6
N685 G2 X-4.8 Z-4 I0.4
N690 G1 X-4.4 F400
N695 G17 G3 X-4 Y35.432 J0.4
N700 G1 Y40.932 F600
N705 G3 X-4.4 Y41.332 I-0.4
N710 G1 X-4.8
N715 G18 G3 X-5.2 Z-3.6 K0.4
N720 G0 Z5
N725 Y35.032
N730 G1 Z-2 F600
N735 Z-4.6
N740 G2 X-4.8 Z-5 I0.4
N745 G1 X-4.4 F400
N750 G17 G3 X-4 Y35.432 J0.4
N755 G1 Y40.932 F600
N760 G3 X-4.4 Y41.332 I-0.4
N765 G1 X-4.8
N770 G18 G3 X-5.2 Z-4.6 K0.4
N775 G0 Z5
N780 Y35.032
N785 G1 Z-3 F600
N790 Z-5.6
N795 G2 X-4.8 Z-6 I0.4
N800 G1 X-4.4 F400
N805 G17 G3 X-4 Y35.432 J0.4
N810 G1 Y40.932 F600
N815 G3 X-4.4 Y41.332 I-0.4
N820 G1 X-4.8
N825 G18 G3 X-5.2 Z-5.6 K0.4
N830 G0 Z5
N835 Y35.032
N840 G1 Z-4 F600
N845 Z-6.15
N850 G2 X-4.8 Z-6.55 I0.4
N855 G1 X-4.4 F400
N860 G17 G3 X-4 Y35.432 J0.4
N865 G1 Y40.932 F600
N870 G3 X-4.4 Y41.332 I-0.4
N875 G1 X-4.8
N880 G18 G3 X-5.2 Z-6.15 K0.4
N885 G0 Z5
N890 Y35.032
N895 G1 Z-4.55 F600
N900 Z-6.7
N905 G2 X-4.8 Z-7.1 I0.4
N910 G1 X-4.4 F400
N915 G17 G3 X-4 Y35.432 J0.4
N920 G1 Y40.932 F600
N925 G3 X-4.4 Y41.332 I-0.4
N930 G1 X-4.8
N935 G18 G3 X-5.2 Z-6.7 K0.4
N940 G0 Z15
N945 X29.7 Y116.332
N950 Z5
N955 G1 Z2 F600
N960 Z-0.6
N965 G3 X29.3 Z-1 I-0.4
N970 G1 X28.9 F400
N975 G17 G3 X28.5 Y115.932 J-0.4
N980 G1 Y107.932 F600
N985 G3 X28.9 Y107.532 I0.4
N990 G1 X29.3
N995 G18 G2 X29.7 Z-0.6 K0.4
N1000 G0 Z5
N1005 Y116.332
N1010 G1 Z1 F600
N1015 Z-1.6
N1020 G3 X29.3 Z-2 I-0.4
N1025 G1 X28.9 F400
N1030 G17 G3 X28.5 Y115.932 J-0.4
N1035 G1 Y107.932 F600
N1040 G3 X28.9 Y107.532 I0.4
N1045 G1 X29.3
N1050 G18 G2 X29.7 Z-1.6 K0.4
N1055 G0 Z5
N1060 Y116.332
N1065 G1 Z0 F600
N1070 Z-2.6
N1075 G3 X29.3 Z-3 I-0.4
N1080 G1 X28.9 F400
N1085 G17 G3 X28.5 Y115.932 J-0.4
N1090 G1 Y107.932 F600
N1095 G3 X28.9 Y107.532 I0.4
N1100 G1 X29.3
N1105 G18 G2 X29.7 Z-2.6 K0.4
N1110 G0 Z5
N1115 Y116.332
N1120 G1 Z-1 F600
N1125 Z-3.6
N1130 G3 X29.3 Z-4 I-0.4
N1135 G1 X28.9 F400
N1140 G17 G3 X28.5 Y115.932 J-0.4
N1145 G1 Y107.932 F600
N1150 G3 X28.9 Y107.532 I0.4
N1155 G1 X29.3
N1160 G18 G2 X29.7 Z-3.6 K0.4
N1165 G0 Z5
N1170 Y116.332
N1175 G1 Z-2 F600
N1180 Z-4.6
N1185 G3 X29.3 Z-5 I-0.4
N1190 G1 X28.9 F400
N1195 G17 G3 X28.5 Y115.932 J-0.4
N1200 G1 Y107.932 F600
N1205 G3 X28.9 Y107.532 I0.4
N1210 G1 X29.3
N1215 G18 G2 X29.7 Z-4.6 K0.4
N1220 G0 Z5
N1225 Y116.332
N1230 G1 Z-3 F600
N1235 Z-5.6
N1240 G3 X29.3 Z-6 I-0.4
N1245 G1 X28.9 F400
N1250 G17 G3 X28.5 Y115.932 J-0.4
N1255 G1 Y107.932 F600
N1260 G3 X28.9 Y107.532 I0.4
N1265 G1 X29.3
N1270 G18 G2 X29.7 Z-5.6 K0.4
N1275 G0 Z5
N1280 Y116.332
N1285 G1 Z-4 F600
N1290 Z-6.155
N1295 G3 X29.3 Z-6.555 I-0.4
N1300 G1 X28.9 F400
N1305 G17 G3 X28.5 Y115.932 J-0.4
N1310 G1 Y107.932 F600
N1315 G3 X28.9 Y107.532 I0.4
N1320 G1 X29.3
N1325 G18 G2 X29.7 Z-6.155 K0.4
N1330 G0 Z5
N1335 Y116.332
N1340 G1 Z-4.555 F600
N1345 Z-6.71
N1350 G3 X29.3 Z-7.11 I-0.4
N1355 G1 X28.9 F400
N1360 G17 G3 X28.5 Y115.932 J-0.4
N1365 G1 Y107.932 F600
N1370 G3 X28.9 Y107.532 I0.4
N1375 G1 X29.3
N1380 G18 G2 X29.7 Z-6.71 K0.4
N1385 G0 Z5
N1390 X15.8
N1395 G1 Z2 F600
N1400 Z-0.6
N1405 G2 X16.2 Z-1 I0.4
N1410 G1 X16.6 F400
N1415 G17 G3 X17 Y107.932 J0.4
N1420 G1 Y115.932 F600
N1425 G3 X16.6 Y116.332 I-0.4
N1430 G1 X16.2
N1435 G18 G3 X15.8 Z-0.6 K0.4
N1440 G0 Z5
N1445 Y107.532
N1450 G1 Z1 F600
N1455 Z-1.6
N1460 G2 X16.2 Z-2 I0.4
N1465 G1 X16.6 F400
N1470 G17 G3 X17 Y107.932 J0.4
N1475 G1 Y115.932 F600
N1480 G3 X16.6 Y116.332 I-0.4
N1485 G1 X16.2
N1490 G18 G3 X15.8 Z-1.6 K0.4
N1495 G0 Z5
N1500 Y107.532
N1505 G1 Z0 F600
N1510 Z-2.6
N1515 G2 X16.2 Z-3 I0.4
N1520 G1 X16.6 F400
N1525 G17 G3 X17 Y107.932 J0.4
N1530 G1 Y115.932 F600
N1535 G3 X16.6 Y116.332 I-0.4
N1540 G1 X16.2
N1545 G18 G3 X15.8 Z-2.6 K0.4
N1550 G0 Z5
N1555 Y107.532
N1560 G1 Z-1 F600
N1565 Z-3.6
N1570 G2 X16.2 Z-4 I0.4
N1575 G1 X16.6 F400
N1580 G17 G3 X17 Y107.932 J0.4
N1585 G1 Y115.932 F600
N1590 G3 X16.6 Y116.332 I-0.4
N1595 G1 X16.2
N1600 G18 G3 X15.8 Z-3.6 K0.4
N1605 G0 Z5
N1610 Y107.532
N1615 G1 Z-2 F600
N1620 Z-4.6
N1625 G2 X16.2 Z-5 I0.4
N1630 G1 X16.6 F400
N1635 G17 G3 X17 Y107.932 J0.4
N1640 G1 Y115.932 F600
N1645 G3 X16.6 Y116.332 I-0.4
N1650 G1 X16.2
N1655 G18 G3 X15.8 Z-4.6 K0.4
N1660 G0 Z5
N1665 Y107.532
N1670 G1 Z-3 F600
N1675 Z-5.6
N1680 G2 X16.2 Z-6 I0.4
N1685 G1 X16.6 F400
N1690 G17 G3 X17 Y107.932 J0.4
N1695 G1 Y115.932 F600
N1700 G3 X16.6 Y116.332 I-0.4
N1705 G1 X16.2
N1710 G18 G3 X15.8 Z-5.6 K0.4
N1715 G0 Z5
N1720 Y107.532
N1725 G1 Z-4 F600
N1730 Z-6.155
N1735 G2 X16.2 Z-6.555 I0.4
N1740 G1 X16.6 F400
N1745 G17 G3 X17 Y107.932 J0.4
N1750 G1 Y115.932 F600
N1755 G3 X16.6 Y116.332 I-0.4
N1760 G1 X16.2
N1765 G18 G3 X15.8 Z-6.155 K0.4
N1770 G0 Z5
N1775 Y107.532
N1780 G1 Z-4.555 F600
N1785 Z-6.71
N1790 G2 X16.2 Z-7.11 I0.4
N1795 G1 X16.6 F400
N1800 G17 G3 X17 Y107.932 J0.4
N1805 G1 Y115.932 F600
N1810 G3 X16.6 Y116.332 I-0.4
N1815 G1 X16.2
N1820 G18 G3 X15.8 Z-6.71 K0.4
N1825 G0 Z15
N1830 G17

(2D ????19)
N1835 G0 X-3.905 Y37.745
N1840 Z15
N1845 Z5
N1850 G1 Z-0.64 F400
N1855 X-3.898 Y37.744 Z-0.71
N1860 X-3.878 Y37.741 Z-0.778
N1865 X-3.845 Y37.736 Z-0.84
N1870 X-3.801 Y37.729 Z-0.895
N1875 X-3.747 Y37.72 Z-0.939
N1880 X-3.686 Y37.71 Z-0.973
N1885 X-3.619 Y37.7 Z-0.993
N1890 X-3.549 Y37.689 Z-1
N1895 X-1.96 Y37.437
N1900 X-1.897 Y37.432
N1905 X3.5 F600
N1910 X5.393
N1915 G3 X5.593 Y37.631 J0.2
N1920 G1 X5.597 Y38.731
N1925 G3 X5.397 Y38.932 I-0.2 J0.001
N1930 G1 X0
N1935 X-1.893
N1940 X-1.938 Y38.927
N1945 X-1.981 Y38.912
N1950 X-2.019 Y38.887
N1955 X-2.051 Y38.854
N1960 X-2.853 Y37.817
N1965 G3 X-2.71 Y37.495 I0.158 J-0.122
N1970 G1 X-2.633 Y37.489 Z-1.008 F400
N1975 X-2.558 Y37.483 Z-1.03
N1980 X-2.489 Y37.478 Z-1.067
N1985 X-2.428 Y37.473 Z-1.117
N1990 X-2.379 Y37.469 Z-1.178
N1995 X-2.342 Y37.466 Z-1.247
N2000 X-2.319 Y37.465 Z-1.322
N2005 X-2.312 Y37.464 Z-1.4
N2010 Z-1.6
N2015 X-2.304 Y37.463 Z-1.678
N2020 X-2.281 Y37.462 Z-1.753
N2025 X-2.244 Y37.459 Z-1.822
N2030 X-2.195 Y37.455 Z-1.883
N2035 X-2.134 Y37.45 Z-1.933
N2040 X-2.066 Y37.445 Z-1.97
N2045 X-1.991 Y37.439 Z-1.992
N2050 X-1.913 Y37.433 Z-2
N2055 X-1.897 Y37.432
N2060 X3.5 F600
N2065 X5.393
N2070 G3 X5.593 Y37.631 J0.2
N2075 G1 X5.597 Y38.731
N2080 G3 X5.397 Y38.932 I-0.2 J0.001
N2085 G1 X0
N2090 X-1.893
N2095 X-1.938 Y38.927
N2100 X-1.981 Y38.912
N2105 X-2.019 Y38.887
N2110 X-2.051 Y38.854
N2115 X-2.853 Y37.817
N2120 G3 X-2.71 Y37.495 I0.158 J-0.122
N2125 G1 X-2.633 Y37.489 Z-2.008 F400
N2130 X-2.558 Y37.483 Z-2.03
N2135 X-2.489 Y37.478 Z-2.067
N2140 X-2.428 Y37.473 Z-2.117
N2145 X-2.379 Y37.469 Z-2.178
N2150 X-2.342 Y37.466 Z-2.247
N2155 X-2.319 Y37.465 Z-2.322
N2160 X-2.312 Y37.464 Z-2.4
N2165 Z-2.6
N2170 X-2.304 Y37.463 Z-2.678
N2175 X-2.281 Y37.462 Z-2.753
N2180 X-2.244 Y37.459 Z-2.822
N2185 X-2.195 Y37.455 Z-2.883
N2190 X-2.134 Y37.45 Z-2.933
N2195 X-2.066 Y37.445 Z-2.97
N2200 X-1.991 Y37.439 Z-2.992
N2205 X-1.913 Y37.433 Z-3
N2210 X-1.897 Y37.432
N2215 X3.5 F600
N2220 X5.393
N2225 G3 X5.593 Y37.631 J0.2
N2230 G1 X5.597 Y38.731
N2235 G3 X5.397 Y38.932 I-0.2 J0.001
N2240 G1 X0
N2245 X-1.893
N2250 X-1.938 Y38.927
N2255 X-1.981 Y38.912
N2260 X-2.019 Y38.887
N2265 X-2.051 Y38.854
N2270 X-2.853 Y37.817
N2275 G3 X-2.71 Y37.495 I0.158 J-0.122
N2280 G1 X-2.633 Y37.489 Z-3.008 F400
N2285 X-2.558 Y37.483 Z-3.03
N2290 X-2.489 Y37.478 Z-3.067
N2295 X-2.428 Y37.473 Z-3.117
N2300 X-2.379 Y37.469 Z-3.178
N2305 X-2.342 Y37.466 Z-3.247
N2310 X-2.319 Y37.465 Z-3.322
N2315 X-2.312 Y37.464 Z-3.4
N2320 Z-3.6
N2325 X-2.304 Y37.463 Z-3.678
N2330 X-2.281 Y37.462 Z-3.753
N2335 X-2.244 Y37.459 Z-3.822
N2340 X-2.195 Y37.455 Z-3.883
N2345 X-2.134 Y37.45 Z-3.933
N2350 X-2.066 Y37.445 Z-3.97
N2355 X-1.991 Y37.439 Z-3.992
N2360 X-1.913 Y37.433 Z-4
N2365 X-1.897 Y37.432
N2370 X3.5 F600
N2375 X5.393
N2380 G3 X5.593 Y37.631 J0.2
N2385 G1 X5.597 Y38.731
N2390 G3 X5.397 Y38.932 I-0.2 J0.001
N2395 G1 X0
N2400 X-1.893
N2405 X-1.938 Y38.927
N2410 X-1.981 Y38.912
N2415 X-2.019 Y38.887
N2420 X-2.051 Y38.854
N2425 X-2.853 Y37.817
N2430 G3 X-2.71 Y37.495 I0.158 J-0.122
N2435 G1 X-2.633 Y37.489 Z-4.008 F400
N2440 X-2.558 Y37.483 Z-4.03
N2445 X-2.489 Y37.478 Z-4.067
N2450 X-2.428 Y37.473 Z-4.117
N2455 X-2.379 Y37.469 Z-4.178
N2460 X-2.342 Y37.466 Z-4.247
N2465 X-2.319 Y37.465 Z-4.322
N2470 X-2.312 Y37.464 Z-4.4
N2475 Z-4.6
N2480 X-2.304 Y37.463 Z-4.678
N2485 X-2.281 Y37.462 Z-4.753
N2490 X-2.244 Y37.459 Z-4.822
N2495 X-2.195 Y37.455 Z-4.883
N2500 X-2.134 Y37.45 Z-4.933
N2505 X-2.066 Y37.445 Z-4.97
N2510 X-1.991 Y37.439 Z-4.992
N2515 X-1.913 Y37.433 Z-5
N2520 X-1.897 Y37.432
N2525 X3.5 F600
N2530 X5.393
N2535 G3 X5.593 Y37.631 J0.2
N2540 G1 X5.597 Y38.731
N2545 G3 X5.397 Y38.932 I-0.2 J0.001
N2550 G1 X0
N2555 X-1.893
N2560 X-1.938 Y38.927
N2565 X-1.981 Y38.912
N2570 X-2.019 Y38.887
N2575 X-2.051 Y38.854
N2580 X-2.853 Y37.817
N2585 G3 X-2.71 Y37.495 I0.158 J-0.122
N2590 G1 X-2.633 Y37.489 Z-5.008 F400
N2595 X-2.558 Y37.483 Z-5.03
N2600 X-2.489 Y37.478 Z-5.067
N2605 X-2.428 Y37.473 Z-5.117
N2610 X-2.379 Y37.469 Z-5.178
N2615 X-2.342 Y37.466 Z-5.247
N2620 X-2.319 Y37.465 Z-5.322
N2625 X-2.312 Y37.464 Z-5.4
N2630 Z-5.6
N2635 X-2.304 Y37.463 Z-5.678
N2640 X-2.281 Y37.462 Z-5.753
N2645 X-2.244 Y37.459 Z-5.822
N2650 X-2.195 Y37.455 Z-5.883
N2655 X-2.134 Y37.45 Z-5.933
N2660 X-2.066 Y37.445 Z-5.97
N2665 X-1.991 Y37.439 Z-5.992
N2670 X-1.913 Y37.433 Z-6
N2675 X-1.897 Y37.432
N2680 X3.5 F600
N2685 X5.393
N2690 G3 X5.593 Y37.631 J0.2
N2695 G1 X5.597 Y38.731
N2700 G3 X5.397 Y38.932 I-0.2 J0.001
N2705 G1 X0
N2710 X-1.893
N2715 X-1.938 Y38.927
N2720 X-1.981 Y38.912
N2725 X-2.019 Y38.887
N2730 X-2.051 Y38.854
N2735 X-2.853 Y37.817
N2740 G3 X-2.71 Y37.495 I0.158 J-0.122
N2745 G1 X-2.633 Y37.489 Z-6.008 F400
N2750 X-2.558 Y37.483 Z-6.03
N2755 X-2.489 Y37.478 Z-6.067
N2760 X-2.428 Y37.473 Z-6.117
N2765 X-2.379 Y37.469 Z-6.178
N2770 X-2.342 Y37.466 Z-6.247
N2775 X-2.319 Y37.465 Z-6.322
N2780 X-2.312 Y37.464 Z-6.4
N2785 Z-6.6
N2790 X-2.304 Y37.463 Z-6.678
N2795 X-2.281 Y37.462 Z-6.753
N2800 X-2.244 Y37.459 Z-6.822
N2805 X-2.195 Y37.455 Z-6.883
N2810 X-2.134 Y37.45 Z-6.933
N2815 X-2.066 Y37.445 Z-6.97
N2820 X-1.991 Y37.439 Z-6.992
N2825 X-1.913 Y37.433 Z-7
N2830 X-1.897 Y37.432
N2835 X3.5 F600
N2840 X5.393
N2845 G3 X5.593 Y37.631 J0.2
N2850 G1 X5.597 Y38.731
N2855 G3 X5.397 Y38.932 I-0.2 J0.001
N2860 G1 X0
N2865 X-1.893
N2870 X-1.938 Y38.927
N2875 X-1.981 Y38.912
N2880 X-2.019 Y38.887
N2885 X-2.051 Y38.854
N2890 X-2.853 Y37.817
N2895 G3 X-2.71 Y37.495 I0.158 J-0.122
N2900 G1 X-2.633 Y37.489 Z-7.008 F400
N2905 X-2.558 Y37.483 Z-7.03
N2910 X-2.489 Y37.478 Z-7.067
N2915 X-2.428 Y37.473 Z-7.117
N2920 X-2.379 Y37.469 Z-7.178
N2925 X-2.342 Y37.466 Z-7.247
N2930 X-2.319 Y37.465 Z-7.322
N2935 X-2.312 Y37.464 Z-7.4
N2940 Z-7.6
N2945 X-2.304 Y37.463 Z-7.678
N2950 X-2.281 Y37.462 Z-7.753
N2955 X-2.244 Y37.459 Z-7.822
N2960 X-2.195 Y37.455 Z-7.883
N2965 X-2.134 Y37.45 Z-7.933
N2970 X-2.066 Y37.445 Z-7.97
N2975 X-1.991 Y37.439 Z-7.992
N2980 X-1.913 Y37.433 Z-8
N2985 X-1.897 Y37.432
N2990 X3.5 F600
N2995 X5.393
N3000 G3 X5.593 Y37.631 J0.2
N3005 G1 X5.597 Y38.731
N3010 G3 X5.397 Y38.932 I-0.2 J0.001
N3015 G1 X0
N3020 X-1.893
N3025 X-1.94 Y38.927
N3030 X-1.983 Y38.91
N3035 X-2.022 Y38.884
N3040 X-2.054 Y38.85
N3045 X-2.816 Y37.81
N3050 G3 X-2.671 Y37.492 I0.161 J-0.118
N3055 G1 X-2.6 Y37.487 Z-8.006 F400
N3060 X-2.531 Y37.481 Z-8.025
N3065 X-2.467 Y37.476 Z-8.056
N3070 X-2.409 Y37.472 Z-8.098
N3075 X-2.359 Y37.468 Z-8.15
N3080 X-2.32 Y37.465 Z-8.209
N3085 X-2.292 Y37.462 Z-8.275
N3090 X-2.263 Y37.46 Z-8.341
N3095 X-2.224 Y37.457 Z-8.4
N3100 X-2.175 Y37.453 Z-8.452
N3105 X-2.117 Y37.449 Z-8.494
N3110 X-2.053 Y37.444 Z-8.525
N3115 X-1.984 Y37.438 Z-8.544
N3120 X-1.913 Y37.433 Z-8.55
N3125 X-1.897 Y37.432
N3130 X3.5 F600
N3135 X5.393
N3140 G3 X5.593 Y37.631 J0.2
N3145 G1 X5.597 Y38.731
N3150 G3 X5.397 Y38.932 I-0.2 J0.001
N3155 G1 X0
N3160 X-1.893
N3165 X-1.94 Y38.927
N3170 X-1.983 Y38.91
N3175 X-2.022 Y38.884
N3180 X-2.054 Y38.85
N3185 X-2.816 Y37.81
N3190 G3 X-2.671 Y37.492 I0.161 J-0.118
N3195 G1 X-2.6 Y37.487 Z-8.556 F400
N3200 X-2.531 Y37.481 Z-8.575
N3205 X-2.467 Y37.476 Z-8.606
N3210 X-2.409 Y37.472 Z-8.648
N3215 X-2.359 Y37.468 Z-8.7
N3220 X-2.32 Y37.465 Z-8.759
N3225 X-2.292 Y37.462 Z-8.825
N3230 X-2.263 Y37.46 Z-8.891
N3235 X-2.224 Y37.457 Z-8.95
N3240 X-2.175 Y37.453 Z-9.002
N3245 X-2.117 Y37.449 Z-9.044
N3250 X-2.053 Y37.444 Z-9.075
N3255 X-1.984 Y37.438 Z-9.094
N3260 X-1.913 Y37.433 Z-9.1
N3265 X-1.897 Y37.432
N3270 X3.5 F600
N3275 X5.393
N3280 G3 X5.593 Y37.631 J0.2
N3285 G1 X5.597 Y38.731
N3290 G3 X5.397 Y38.932 I-0.2 J0.001
N3295 G1 X0
N3300 X-1.893
N3305 X-1.956 Y38.927
N3310 X-3.483 Y38.685
N3315 X-3.56 Y38.673 Z-9.092
N3320 X-3.635 Y38.661 Z-9.07
N3325 X-3.703 Y38.65 Z-9.033
N3330 X-3.763 Y38.641 Z-8.983
N3335 X-3.812 Y38.633 Z-8.922
N3340 X-3.848 Y38.627 Z-8.853
N3345 X-3.871 Y38.624 Z-8.778
N3350 X-3.878 Y38.623 Z-8.7
N3355 G0 Z15
N3360 X28.376 Y112.569
N3365 Z5
N3370 G1 Z-0.6 F400
N3375 X28.368 Z-0.678
N3380 X28.345 Z-0.753
N3385 X28.308 Y112.568 Z-0.822
N3390 X28.259 Z-0.883
N3395 X28.198 Z-0.933
N3400 X28.129 Z-0.97
N3405 X28.054 Z-0.992
N3410 X27.976 Y112.567 Z-1
N3415 X26.397 Y112.562
N3420 X21 Y112.542 F600
N3425 X19.107 Y112.552
N3430 G3 X18.906 Y112.352 I-0.001 J-0.2
N3435 G1 X18.903 Y111.478
N3440 G3 X19.103 Y111.277 I0.2 J-0.001
N3445 G1 X26.383
N3450 G3 X26.583 Y111.477 J0.2
N3455 G1 Y113.732
N3460 G3 X26.383 Y113.932 I-0.2
N3465 G1 X19.107
N3470 G3 X18.907 Y113.731 J-0.2
N3475 G1 X18.917 Y110.131
N3480 G3 X19.117 Y109.932 I0.2 J0.001
N3485 G1 X26.393
N3490 X26.441 Y109.938
N3495 X26.487 Y109.955
N3500 X26.527 Y109.983
N3505 X26.559 Y110.02
N3510 X26.581 Y110.063
N3515 X27.401 Y112.296
N3520 G3 X27.212 Y112.565 I-0.188 J0.069
N3525 G1 X27.134 Y112.564 Z-1.008 F400
N3530 X27.059 Z-1.03
N3535 X26.99 Z-1.067
N3540 X26.929 Y112.563 Z-1.117
N3545 X26.88 Z-1.178
N3550 X26.843 Z-1.247
N3555 X26.82 Z-1.322
N3560 X26.812 Z-1.4
N3565 Z-1.6
N3570 X26.805 Z-1.678
N3575 X26.782 Z-1.753
N3580 X26.745 Z-1.822
N3585 X26.695 Z-1.883
N3590 X26.635 Y112.562 Z-1.933
N3595 X26.565 Z-1.97
N3600 X26.49 Z-1.992
N3605 X26.412 Z-2
N3610 X26.397
N3615 X21 Y112.542 F600
N3620 X19.107 Y112.552
N3625 G3 X18.906 Y112.352 I-0.001 J-0.2
N3630 G1 X18.903 Y111.478
N3635 G3 X19.103 Y111.277 I0.2 J-0.001
N3640 G1 X26.383
N3645 G3 X26.583 Y111.477 J0.2
N3650 G1 Y113.732
N3655 G3 X26.383 Y113.932 I-0.2
N3660 G1 X19.107
N3665 G3 X18.907 Y113.731 J-0.2
N3670 G1 X18.917 Y110.131
N3675 G3 X19.117 Y109.932 I0.2 J0.001
N3680 G1 X26.393
N3685 X26.441 Y109.938
N3690 X26.487 Y109.955
N3695 X26.527 Y109.983
N3700 X26.559 Y110.02
N3705 X26.581 Y110.063
N3710 X27.401 Y112.296
N3715 G3 X27.212 Y112.565 I-0.188 J0.069
N3720 G1 X27.134 Y112.564 Z-2.008 F400
N3725 X27.059 Z-2.03
N3730 X26.99 Z-2.067
N3735 X26.929 Y112.563 Z-2.117
N3740 X26.88 Z-2.178
N3745 X26.843 Z-2.247
N3750 X26.82 Z-2.322
N3755 X26.812 Z-2.4
N3760 Z-2.6
N3765 X26.805 Z-2.678
N3770 X26.782 Z-2.753
N3775 X26.745 Z-2.822
N3780 X26.695 Z-2.883
N3785 X26.635 Y112.562 Z-2.933
N3790 X26.565 Z-2.97
N3795 X26.49 Z-2.992
N3800 X26.412 Z-3
N3805 X26.397
N3810 X21 Y112.542 F600
N3815 X19.107 Y112.552
N3820 G3 X18.906 Y112.352 I-0.001 J-0.2
N3825 G1 X18.903 Y111.478
N3830 G3 X19.103 Y111.277 I0.2 J-0.001
N3835 G1 X26.383
N3840 G3 X26.583 Y111.477 J0.2
N3845 G1 Y113.732
N3850 G3 X26.383 Y113.932 I-0.2
N3855 G1 X19.107
N3860 G3 X18.907 Y113.731 J-0.2
N3865 G1 X18.917 Y110.131
N3870 G3 X19.117 Y109.932 I0.2 J0.001
N3875 G1 X26.393
N3880 X26.441 Y109.938
N3885 X26.487 Y109.955
N3890 X26.527 Y109.983
N3895 X26.559 Y110.02
N3900 X26.581 Y110.063
N3905 X27.401 Y112.296
N3910 G3 X27.212 Y112.565 I-0.188 J0.069
N3915 G1 X27.134 Y112.564 Z-3.008 F400
N3920 X27.059 Z-3.03
N3925 X26.99 Z-3.067
N3930 X26.929 Y112.563 Z-3.117
N3935 X26.88 Z-3.178
N3940 X26.843 Z-3.247
N3945 X26.82 Z-3.322
N3950 X26.812 Z-3.4
N3955 Z-3.6
N3960 X26.805 Z-3.678
N3965 X26.782 Z-3.753
N3970 X26.745 Z-3.822
N3975 X26.695 Z-3.883
N3980 X26.635 Y112.562 Z-3.933
N3985 X26.565 Z-3.97
N3990 X26.49 Z-3.992
N3995 X26.412 Z-4
N4000 X26.397
N4005 X21 Y112.542 F600
N4010 X19.107 Y112.552
N4015 G3 X18.906 Y112.352 I-0.001 J-0.2
N4020 G1 X18.903 Y111.478
N4025 G3 X19.103 Y111.277 I0.2 J-0.001
N4030 G1 X26.383
N4035 G3 X26.583 Y111.477 J0.2
N4040 G1 Y113.732
N4045 G3 X26.383 Y113.932 I-0.2
N4050 G1 X19.107
N4055 G3 X18.907 Y113.731 J-0.2
N4060 G1 X18.917 Y110.131
N4065 G3 X19.117 Y109.932 I0.2 J0.001
N4070 G1 X26.393
N4075 X26.441 Y109.938
N4080 X26.487 Y109.955
N4085 X26.527 Y109.983
N4090 X26.559 Y110.02
N4095 X26.581 Y110.063
N4100 X27.401 Y112.296
N4105 G3 X27.212 Y112.565 I-0.188 J0.069
N4110 G1 X27.134 Y112.564 Z-4.008 F400
N4115 X27.059 Z-4.03
N4120 X26.99 Z-4.067
N4125 X26.929 Y112.563 Z-4.117
N4130 X26.88 Z-4.178
N4135 X26.843 Z-4.247
N4140 X26.82 Z-4.322
N4145 X26.812 Z-4.4
N4150 Z-4.6
N4155 X26.805 Z-4.678
N4160 X26.782 Z-4.753
N4165 X26.745 Z-4.822
N4170 X26.695 Z-4.883
N4175 X26.635 Y112.562 Z-4.933
N4180 X26.565 Z-4.97
N4185 X26.49 Z-4.992
N4190 X26.412 Z-5
N4195 X26.397
N4200 X21 Y112.542 F600
N4205 X19.107 Y112.552
N4210 G3 X18.906 Y112.352 I-0.001 J-0.2
N4215 G1 X18.903 Y111.478
N4220 G3 X19.103 Y111.277 I0.2 J-0.001
N4225 G1 X26.383
N4230 G3 X26.583 Y111.477 J0.2
N4235 G1 Y113.732
N4240 G3 X26.383 Y113.932 I-0.2
N4245 G1 X19.107
N4250 G3 X18.907 Y113.731 J-0.2
N4255 G1 X18.917 Y110.131
N4260 G3 X19.117 Y109.932 I0.2 J0.001
N4265 G1 X26.393
N4270 X26.441 Y109.938
N4275 X26.487 Y109.955
N4280 X26.527 Y109.983
N4285 X26.559 Y110.02
N4290 X26.581 Y110.063
N4295 X27.401 Y112.296
N4300 G3 X27.212 Y112.565 I-0.188 J0.069
N4305 G1 X27.134 Y112.564 Z-5.008 F400
N4310 X27.059 Z-5.03
N4315 X26.99 Z-5.067
N4320 X26.929 Y112.563 Z-5.117
N4325 X26.88 Z-5.178
N4330 X26.843 Z-5.247
N4335 X26.82 Z-5.322
N4340 X26.812 Z-5.4
N4345 Z-5.6
N4350 X26.805 Z-5.678
N4355 X26.782 Z-5.753
N4360 X26.745 Z-5.822
N4365 X26.695 Z-5.883
N4370 X26.635 Y112.562 Z-5.933
N4375 X26.565 Z-5.97
N4380 X26.49 Z-5.992
N4385 X26.412 Z-6
N4390 X26.397
N4395 X21 Y112.542 F600
N4400 X19.107 Y112.552
N4405 G3 X18.906 Y112.352 I-0.001 J-0.2
N4410 G1 X18.903 Y111.478
N4415 G3 X19.103 Y111.277 I0.2 J-0.001
N4420 G1 X26.383
N4425 G3 X26.583 Y111.477 J0.2
N4430 G1 Y113.732
N4435 G3 X26.383 Y113.932 I-0.2
N4440 G1 X19.107
N4445 G3 X18.907 Y113.731 J-0.2
N4450 G1 X18.917 Y110.131
N4455 G3 X19.117 Y109.932 I0.2 J0.001
N4460 G1 X26.393
N4465 X26.441 Y109.938
N4470 X26.487 Y109.955
N4475 X26.527 Y109.983
N4480 X26.559 Y110.02
N4485 X26.581 Y110.063
N4490 X27.401 Y112.296
N4495 G3 X27.212 Y112.565 I-0.188 J0.069
N4500 G1 X27.134 Y112.564 Z-6.008 F400
N4505 X27.059 Z-6.03
N4510 X26.99 Z-6.067
N4515 X26.929 Y112.563 Z-6.117
N4520 X26.88 Z-6.178
N4525 X26.843 Z-6.247
N4530 X26.82 Z-6.322
N4535 X26.812 Z-6.4
N4540 Z-6.6
N4545 X26.805 Z-6.678
N4550 X26.782 Z-6.753
N4555 X26.745 Z-6.822
N4560 X26.695 Z-6.883
N4565 X26.635 Y112.562 Z-6.933
N4570 X26.565 Z-6.97
N4575 X26.49 Z-6.992
N4580 X26.412 Z-7
N4585 X26.397
N4590 X21 Y112.542 F600
N4595 X19.107 Y112.552
N4600 G3 X18.906 Y112.352 I-0.001 J-0.2
N4605 G1 X18.903 Y111.478
N4610 G3 X19.103 Y111.277 I0.2 J-0.001
N4615 G1 X26.383
N4620 G3 X26.583 Y111.477 J0.2
N4625 G1 Y113.732
N4630 G3 X26.383 Y113.932 I-0.2
N4635 G1 X19.107
N4640 G3 X18.907 Y113.731 J-0.2
N4645 G1 X18.917 Y110.131
N4650 G3 X19.117 Y109.932 I0.2 J0.001
N4655 G1 X26.393
N4660 X26.441 Y109.938
N4665 X26.487 Y109.955
N4670 X26.527 Y109.983
N4675 X26.559 Y110.02
N4680 X26.581 Y110.063
N4685 X27.401 Y112.296
N4690 G3 X27.212 Y112.565 I-0.188 J0.069
N4695 G1 X27.134 Y112.564 Z-7.008 F400
N4700 X27.059 Z-7.03
N4705 X26.99 Z-7.067
N4710 X26.929 Y112.563 Z-7.117
N4715 X26.88 Z-7.178
N4720 X26.843 Z-7.247
N4725 X26.82 Z-7.322
N4730 X26.812 Z-7.4
N4735 Z-7.6
N4740 X26.805 Z-7.678
N4745 X26.782 Z-7.753
N4750 X26.745 Z-7.822
N4755 X26.695 Z-7.883
N4760 X26.635 Y112.562 Z-7.933
N4765 X26.565 Z-7.97
N4770 X26.49 Z-7.992
N4775 X26.412 Z-8
N4780 X26.397
N4785 X21 Y112.542 F600
N4790 X19.107 Y112.552
N4795 G3 X18.906 Y112.352 I-0.001 J-0.2
N4800 G1 X18.903 Y111.478
N4805 G3 X19.103 Y111.277 I0.2 J-0.001
N4810 G1 X26.383
N4815 G3 X26.583 Y111.477 J0.2
N4820 G1 Y113.732
N4825 G3 X26.383 Y113.932 I-0.2
N4830 G1 X19.107
N4835 G3 X18.907 Y113.731 J-0.2
N4840 G1 X18.917 Y110.131
N4845 G3 X19.117 Y109.932 I0.2 J0.001
N4850 G1 X26.393
N4855 X26.442 Y109.938
N4860 X26.488 Y109.956
N4865 X26.528 Y109.984
N4870 X26.56 Y110.022
N4875 X26.582 Y110.066
N4880 X27.363 Y112.298
N4885 G3 X27.174 Y112.564 I-0.189 J0.066
N4890 G1 X27.102 Z-8.006 F400
N4895 X27.033 Z-8.026
N4900 X26.968 Z-8.057
N4905 X26.91 Y112.563 Z-8.099
N4910 X26.861 Z-8.151
N4915 X26.821 Z-8.211
N4920 X26.793 Z-8.278
N4925 X26.765 Z-8.344
N4930 X26.726 Z-8.404
N4935 X26.676 Z-8.456
N4940 X26.618 Y112.562 Z-8.498
N4945 X26.553 Z-8.529
N4950 X26.484 Z-8.549
N4955 X26.412 Z-8.555
N4960 X26.397
N4965 X21 Y112.542 F600
N4970 X19.107 Y112.552
N4975 G3 X18.906 Y112.352 I-0.001 J-0.2
N4980 G1 X18.903 Y111.478
N4985 G3 X19.103 Y111.277 I0.2 J-0.001
N4990 G1 X26.383
N4995 G3 X26.583 Y111.477 J0.2
N5000 G1 Y113.732
N5005 G3 X26.383 Y113.932 I-0.2
N5010 G1 X19.107
N5015 G3 X18.907 Y113.731 J-0.2
N5020 G1 X18.917 Y110.131
N5025 G3 X19.117 Y109.932 I0.2 J0.001
N5030 G1 X26.393
N5035 X26.442 Y109.938
N5040 X26.488 Y109.956
N5045 X26.528 Y109.984
N5050 X26.56 Y110.022
N5055 X26.582 Y110.066
N5060 X27.363 Y112.298
N5065 G3 X27.174 Y112.564 I-0.189 J0.066
N5070 G1 X27.102 Z-8.561 F400
N5075 X27.033 Z-8.581
N5080 X26.968 Z-8.612
N5085 X26.91 Y112.563 Z-8.654
N5090 X26.861 Z-8.706
N5095 X26.821 Z-8.766
N5100 X26.793 Z-8.833
N5105 X26.765 Z-8.899
N5110 X26.726 Z-8.959
N5115 X26.676 Z-9.011
N5120 X26.618 Y112.562 Z-9.053
N5125 X26.553 Z-9.084
N5130 X26.484 Z-9.104
N5135 X26.412 Z-9.11
N5140 X26.397
N5145 X21 Y112.542 F600
N5150 X19.107 Y112.552
N5155 G3 X18.906 Y112.352 I-0.001 J-0.2
N5160 G1 X18.903 Y111.478
N5165 G3 X19.103 Y111.277 I0.2 J-0.001
N5170 G1 X26.383
N5175 G3 X26.583 Y111.477 J0.2
N5180 G1 Y113.732
N5185 G3 X26.383 Y113.932 I-0.2
N5190 G1 X19.107
N5195 G3 X18.907 Y113.731 J-0.2
N5200 G1 X18.917 Y110.131
N5205 G3 X19.117 Y109.932 I0.2 J0.001
N5210 G1 X26.393
N5215 X26.456 Y109.937
N5220 X27.983 Y110.179
N5225 X28.06 Y110.191 Z-9.102
N5230 X28.135 Y110.203 Z-9.08
N5235 X28.203 Y110.214 Z-9.043
N5240 X28.263 Y110.223 Z-8.993
N5245 X28.312 Y110.231 Z-8.932
N5250 X28.348 Y110.237 Z-8.863
N5255 X28.371 Y110.24 Z-8.788
N5260 X28.378 Y110.241 Z-8.71
N5265 G0 Z15

(2D ??27)
N5270 X38.2 Y107.332
N5275 Z15
N5280 Z5
N5285 G1 Z2 F600
N5290 Z-0.6
N5295 G18 G3 X37.8 Z-1 I-0.4
N5300 G1 X37.4 F400
N5305 G17 G3 X37 Y106.932 J-0.4
N5310 G1 Y57.932 F600
N5315 X44.5
N5320 G2 X46.5 Y55.932 J-2
N5325 G1 Y33.932
N5330 G2 X44.5 Y31.932 I-2
N5335 G1 X32
N5340 G2 X30.068 Y33.414 J2
N5345 G1 X29.568 Y35.28
N5350 G2 X29.5 Y35.798 I1.932 J0.518
N5355 G1 Y123.864
N5360 Y152.066
N5365 G2 X29.568 Y152.584 I2
N5370 G1 X30.068 Y154.45
N5375 G2 X32 Y155.932 I1.932 J-0.518
N5380 G1 X44.5
N5385 G2 X46.5 Y153.932 J-2
N5390 G1 Y131.932
N5395 G2 X44.5 Y129.932 I-2
N5400 G1 X37
N5405 Y106.932
N5410 G3 X37.4 Y106.532 I0.4
N5415 G1 X37.8
N5420 G18 G2 X38.2 Z-0.6 K0.4
N5425 G0 Z5
N5430 X40.05 Y115.532
N5435 G1 Z2 F600
N5440 Z-0.6
N5445 G2 X40.45 Z-1 I0.4
N5450 G1 X40.85 F400
N5455 G17 G3 X41.25 Y115.932 J0.4
N5460 G1 Y118.864 F600
N5465 X40.25
N5470 G2 X38.25 Y120.864 J2
N5475 G1 Y123.864
N5480 G2 X40.25 Y125.864 I2
N5485 G1 X51
N5490 Y127.864
N5495 G2 X53 Y129.864 I2
N5500 G1 X56.5
N5505 G2 X58.5 Y127.864 J-2
N5510 G1 Y0
N5515 G2 X56.5 Y-2 I-2
N5520 G1 X53
N5525 G2 X51 Y0 J2
N5530 G1 Y2
N5535 X40.25
N5540 G2 X38.25 Y4 J2
N5545 G1 Y7
N5550 G2 X40.25 Y9 I2
N5555 G1 X41.25
N5560 Y11.932
N5565 G2 X43.25 Y13.932 I2
N5570 G1 X51
N5575 Y113.932
N5580 X43.25
N5585 G2 X41.25 Y115.932 J2
N5590 G3 X40.85 Y116.332 I-0.4
N5595 G1 X40.45
N5600 G18 G3 X40.05 Z-0.6 K0.4
N5605 G0 Z5
N5610 Y115.532
N5615 G1 Z1 F600
N5620 Z-1.6
N5625 G2 X40.45 Z-2 I0.4
N5630 G1 X40.85 F400
N5635 G17 G3 X41.25 Y115.932 J0.4
N5640 G1 Y118.864 F600
N5645 X40.25
N5650 G2 X38.25 Y120.864 J2
N5655 G1 Y123.864
N5660 G2 X40.25 Y125.864 I2
N5665 G1 X51
N5670 Y127.864
N5675 G2 X53 Y129.864 I2
N5680 G1 X56.5
N5685 G2 X58.5 Y127.864 J-2
N5690 G1 Y0
N5695 G2 X56.5 Y-2 I-2
N5700 G1 X53
N5705 G2 X51 Y0 J2
N5710 G1 Y2
N5715 X40.25
N5720 G2 X38.25 Y4 J2
N5725 G1 Y7
N5730 G2 X40.25 Y9 I2
N5735 G1 X41.25
N5740 Y11.932
N5745 G2 X43.25 Y13.932 I2
N5750 G1 X51
N5755 Y113.932
N5760 X43.25
N5765 G2 X41.25 Y115.932 J2
N5770 G3 X40.85 Y116.332 I-0.4
N5775 G1 X40.45
N5780 G18 G3 X40.05 Z-1.6 K0.4
N5785 G0 Z5
N5790 X38.2 Y117.295
N5795 G1 Z1 F600
N5800 Z-1.6
N5805 G3 X37.8 Z-2 I-0.4
N5810 G1 X37.4 F400
N5815 G17 G3 X37 Y116.895 J-0.4
N5820 G1 Y57.932 F600
N5825 X44.5
N5830 G2 X46.5 Y55.932 J-2
N5835 G1 Y33.932
N5840 G2 X44.5 Y31.932 I-2
N5845 G1 X32
N5850 G2 X30.068 Y33.414 J2
N5855 G1 X29.568 Y35.28
N5860 G2 X29.5 Y35.798 I1.932 J0.518
N5865 G1 Y123.864
N5870 Y152.066
N5875 G2 X29.568 Y152.584 I2
N5880 G1 X30.068 Y154.45
N5885 G2 X32 Y155.932 I1.932 J-0.518
N5890 G1 X44.5
N5895 G2 X46.5 Y153.932 J-2
N5900 G1 Y131.932
N5905 G2 X44.5 Y129.932 I-2
N5910 G1 X37
N5915 Y116.895
N5920 G3 X37.4 Y116.495 I0.4
N5925 G1 X37.8
N5930 G18 G2 X38.2 Z-1.6 K0.4
N5935 G0 Z5
N5940 Y117.295
N5945 G1 Z0 F600
N5950 Z-2.6
N5955 G3 X37.8 Z-3 I-0.4
N5960 G1 X37.4 F400
N5965 G17 G3 X37 Y116.895 J-0.4
N5970 G1 Y57.932 F600
N5975 X44.5
N5980 G2 X46.5 Y55.932 J-2
N5985 G1 Y33.932
N5990 G2 X44.5 Y31.932 I-2
N5995 G1 X32
N6000 G2 X30.068 Y33.414 J2
N6005 G1 X29.568 Y35.28
N6010 G2 X29.5 Y35.798 I1.932 J0.518
N6015 G1 Y123.864
N6020 Y152.066
N6025 G2 X29.568 Y152.584 I2
N6030 G1 X30.068 Y154.45
N6035 G2 X32 Y155.932 I1.932 J-0.518
N6040 G1 X44.5
N6045 G2 X46.5 Y153.932 J-2
N6050 G1 Y131.932
N6055 G2 X44.5 Y129.932 I-2
N6060 G1 X37
N6065 Y116.895
N6070 G3 X37.4 Y116.495 I0.4
N6075 G1 X37.8
N6080 G18 G2 X38.2 Z-2.6 K0.4
N6085 G0 Z5
N6090 X40.05 Y115.532
N6095 G1 Z0 F600
N6100 Z-2.6
N6105 G2 X40.45 Z-3 I0.4
N6110 G1 X40.85 F400
N6115 G17 G3 X41.25 Y115.932 J0.4
N6120 G1 Y118.864 F600
N6125 X40.25
N6130 G2 X38.25 Y120.864 J2
N6135 G1 Y123.864
N6140 G2 X40.25 Y125.864 I2
N6145 G1 X51
N6150 Y127.864
N6155 G2 X53 Y129.864 I2
N6160 G1 X56.5
N6165 G2 X58.5 Y127.864 J-2
N6170 G1 Y0
N6175 G2 X56.5 Y-2 I-2
N6180 G1 X53
N6185 G2 X51 Y0 J2
N6190 G1 Y2
N6195 X40.25
N6200 G2 X38.25 Y4 J2
N6205 G1 Y7
N6210 G2 X40.25 Y9 I2
N6215 G1 X41.25
N6220 Y11.932
N6225 G2 X43.25 Y13.932 I2
N6230 G1 X51
N6235 Y113.932
N6240 X43.25
N6245 G2 X41.25 Y115.932 J2
N6250 G3 X40.85 Y116.332 I-0.4
N6255 G1 X40.45
N6260 G18 G3 X40.05 Z-2.6 K0.4
N6265 G0 Z5
N6270 Y115.532
N6275 G1 Z-1 F600
N6280 Z-3.6
N6285 G2 X40.45 Z-4 I0.4
N6290 G1 X40.85 F400
N6295 G17 G3 X41.25 Y115.932 J0.4
N6300 G1 Y118.864 F600
N6305 X40.25
N6310 G2 X38.25 Y120.864 J2
N6315 G1 Y123.864
N6320 G2 X40.25 Y125.864 I2
N6325 G1 X51
N6330 Y127.864
N6335 G2 X53 Y129.864 I2
N6340 G1 X56.5
N6345 G2 X58.5 Y127.864 J-2
N6350 G1 Y0
N6355 G2 X56.5 Y-2 I-2
N6360 G1 X53
N6365 G2 X51 Y0 J2
N6370 G1 Y2
N6375 X40.25
N6380 G2 X38.25 Y4 J2
N6385 G1 Y7
N6390 G2 X40.25 Y9 I2
N6395 G1 X41.25
N6400 Y11.932
N6405 G2 X43.25 Y13.932 I2
N6410 G1 X51
N6415 Y113.932
N6420 X43.25
N6425 G2 X41.25 Y115.932 J2
N6430 G3 X40.85 Y116.332 I-0.4
N6435 G1 X40.45
N6440 G18 G3 X40.05 Z-3.6 K0.4
N6445 G0 Z5
N6450 X38.2 Y117.295
N6455 G1 Z-1 F600
N6460 Z-3.6
N6465 G3 X37.8 Z-4 I-0.4
N6470 G1 X37.4 F400
N6475 G17 G3 X37 Y116.895 J-0.4
N6480 G1 Y57.932 F600
N6485 X44.5
N6490 G2 X46.5 Y55.932 J-2
N6495 G1 Y33.932
N6500 G2 X44.5 Y31.932 I-2
N6505 G1 X32
N6510 G2 X30.068 Y33.414 J2
N6515 G1 X29.568 Y35.28
N6520 G2 X29.5 Y35.798 I1.932 J0.518
N6525 G1 Y123.864
N6530 Y152.066
N6535 G2 X29.568 Y152.584 I2
N6540 G1 X30.068 Y154.45
N6545 G2 X32 Y155.932 I1.932 J-0.518
N6550 G1 X44.5
N6555 G2 X46.5 Y153.932 J-2
N6560 G1 Y131.932
N6565 G2 X44.5 Y129.932 I-2
N6570 G1 X37
N6575 Y116.895
N6580 G3 X37.4 Y116.495 I0.4
N6585 G1 X37.8
N6590 G18 G2 X38.2 Z-3.6 K0.4
N6595 G0 Z5
N6600 Y117.295
N6605 G1 Z-2 F600
N6610 Z-4.6
N6615 G3 X37.8 Z-5 I-0.4
N6620 G1 X37.4 F400
N6625 G17 G3 X37 Y116.895 J-0.4
N6630 G1 Y57.932 F600
N6635 X44.5
N6640 G2 X46.5 Y55.932 J-2
N6645 G1 Y33.932
N6650 G2 X44.5 Y31.932 I-2
N6655 G1 X32
N6660 G2 X30.068 Y33.414 J2
N6665 G1 X29.568 Y35.28
N6670 G2 X29.5 Y35.798 I1.932 J0.518
N6675 G1 Y123.864
N6680 Y152.066
N6685 G2 X29.568 Y152.584 I2
N6690 G1 X30.068 Y154.45
N6695 G2 X32 Y155.932 I1.932 J-0.518
N6700 G1 X44.5
N6705 G2 X46.5 Y153.932 J-2
N6710 G1 Y131.932
N6715 G2 X44.5 Y129.932 I-2
N6720 G1 X37
N6725 Y116.895
N6730 G3 X37.4 Y116.495 I0.4
N6735 G1 X37.8
N6740 G18 G2 X38.2 Z-4.6 K0.4
N6745 G0 Z5
N6750 X40.05 Y115.532
N6755 G1 Z-2 F600
N6760 Z-4.6
N6765 G2 X40.45 Z-5 I0.4
N6770 G1 X40.85 F400
N6775 G17 G3 X41.25 Y115.932 J0.4
N6780 G1 Y118.864 F600
N6785 X40.25
N6790 G2 X38.25 Y120.864 J2
N6795 G1 Y123.864
N6800 G2 X40.25 Y125.864 I2
N6805 G1 X51
N6810 Y127.864
N6815 G2 X53 Y129.864 I2
N6820 G1 X56.5
N6825 G2 X58.5 Y127.864 J-2
N6830 G1 Y0
N6835 G2 X56.5 Y-2 I-2
N6840 G1 X53
N6845 G2 X51 Y0 J2
N6850 G1 Y2
N6855 X40.25
N6860 G2 X38.25 Y4 J2
N6865 G1 Y7
N6870 G2 X40.25 Y9 I2
N6875 G1 X41.25
N6880 Y11.932
N6885 G2 X43.25 Y13.932 I2
N6890 G1 X51
N6895 Y113.932
N6900 X43.25
N6905 G2 X41.25 Y115.932 J2
N6910 G3 X40.85 Y116.332 I-0.4
N6915 G1 X40.45
N6920 G18 G3 X40.05 Z-4.6 K0.4
N6925 G0 Z5
N6930 Y115.532
N6935 G1 Z-3 F600
N6940 Z-5.6
N6945 G2 X40.45 Z-6 I0.4
N6950 G1 X40.85 F400
N6955 G17 G3 X41.25 Y115.932 J0.4
N6960 G1 Y118.864 F600
N6965 X40.25
N6970 G2 X38.25 Y120.864 J2
N6975 G1 Y123.864
N6980 G2 X40.25 Y125.864 I2
N6985 G1 X51
N6990 Y127.864
N6995 G2 X53 Y129.864 I2
N7000 G1 X56.5
N7005 G2 X58.5 Y127.864 J-2
N7010 G1 Y0
N7015 G2 X56.5 Y-2 I-2
N7020 G1 X53
N7025 G2 X51 Y0 J2
N7030 G1 Y2
N7035 X40.25
N7040 G2 X38.25 Y4 J2
N7045 G1 Y7
N7050 G2 X40.25 Y9 I2
N7055 G1 X41.25
N7060 Y11.932
N7065 G2 X43.25 Y13.932 I2
N7070 G1 X51
N7075 Y113.932
N7080 X43.25
N7085 G2 X41.25 Y115.932 J2
N7090 G3 X40.85 Y116.332 I-0.4
N7095 G1 X40.45
N7100 G18 G3 X40.05 Z-5.6 K0.4
N7105 G0 Z5
N7110 X38.2 Y117.295
N7115 G1 Z-3 F600
N7120 Z-5.6
N7125 G3 X37.8 Z-6 I-0.4
N7130 G1 X37.4 F400
N7135 G17 G3 X37 Y116.895 J-0.4
N7140 G1 Y57.932 F600
N7145 X44.5
N7150 G2 X46.5 Y55.932 J-2
N7155 G1 Y33.932
N7160 G2 X44.5 Y31.932 I-2
N7165 G1 X32
N7170 G2 X30.068 Y33.414 J2
N7175 G1 X29.568 Y35.28
N7180 G2 X29.5 Y35.798 I1.932 J0.518
N7185 G1 Y123.864
N7190 Y152.066
N7195 G2 X29.568 Y152.584 I2
N7200 G1 X30.068 Y154.45
N7205 G2 X32 Y155.932 I1.932 J-0.518
N7210 G1 X44.5
N7215 G2 X46.5 Y153.932 J-2
N7220 G1 Y131.932
N7225 G2 X44.5 Y129.932 I-2
N7230 G1 X37
N7235 Y116.895
N7240 G3 X37.4 Y116.495 I0.4
N7245 G1 X37.8
N7250 G18 G2 X38.2 Z-5.6 K0.4
N7255 G0 Z5
N7260 Y117.295
N7265 G1 Z-4 F600
N7270 Z-6.6
N7275 G3 X37.8 Z-7 I-0.4
N7280 G1 X37.4 F400
N7285 G17 G3 X37 Y116.895 J-0.4
N7290 G1 Y57.932 F600
N7295 X44.5
N7300 G2 X46.5 Y55.932 J-2
N7305 G1 Y33.932
N7310 G2 X44.5 Y31.932 I-2
N7315 G1 X32
N7320 G2 X30.068 Y33.414 J2
N7325 G1 X29.568 Y35.28
N7330 G2 X29.5 Y35.798 I1.932 J0.518
N7335 G1 Y123.864
N7340 Y152.066
N7345 G2 X29.568 Y152.584 I2
N7350 G1 X30.068 Y154.45
N7355 G2 X32 Y155.932 I1.932 J-0.518
N7360 G1 X44.5
N7365 G2 X46.5 Y153.932 J-2
N7370 G1 Y131.932
N7375 G2 X44.5 Y129.932 I-2
N7380 G1 X37
N7385 Y116.895
N7390 G3 X37.4 Y116.495 I0.4
N7395 G1 X37.8
N7400 G18 G2 X38.2 Z-6.6 K0.4
N7405 G0 Z5
N7410 X40.05 Y115.532
N7415 G1 Z-4 F600
N7420 Z-6.6
N7425 G2 X40.45 Z-7 I0.4
N7430 G1 X40.85 F400
N7435 G17 G3 X41.25 Y115.932 J0.4
N7440 G1 Y118.864 F600
N7445 X40.25
N7450 G2 X38.25 Y120.864 J2
N7455 G1 Y123.864
N7460 G2 X40.25 Y125.864 I2
N7465 G1 X51
N7470 Y127.864
N7475 G2 X53 Y129.864 I2
N7480 G1 X56.5
N7485 G2 X58.5 Y127.864 J-2
N7490 G1 Y0
N7495 G2 X56.5 Y-2 I-2
N7500 G1 X53
N7505 G2 X51 Y0 J2
N7510 G1 Y2
N7515 X40.25
N7520 G2 X38.25 Y4 J2
N7525 G1 Y7
N7530 G2 X40.25 Y9 I2
N7535 G1 X41.25
N7540 Y11.932
N7545 G2 X43.25 Y13.932 I2
N7550 G1 X51
N7555 Y113.932
N7560 X43.25
N7565 G2 X41.25 Y115.932 J2
N7570 G3 X40.85 Y116.332 I-0.4
N7575 G1 X40.45
N7580 G18 G3 X40.05 Z-6.6 K0.4
N7585 G0 Z5
N7590 Y115.532
N7595 G1 Z-5 F600
N7600 Z-7.6
N7605 G2 X40.45 Z-8 I0.4
N7610 G1 X40.85 F400
N7615 G17 G3 X41.25 Y115.932 J0.4
N7620 G1 Y118.864 F600
N7625 X40.25
N7630 G2 X38.25 Y120.864 J2
N7635 G1 Y123.864
N7640 G2 X40.25 Y125.864 I2
N7645 G1 X51
N7650 Y127.864
N7655 G2 X53 Y129.864 I2
N7660 G1 X56.5
N7665 G2 X58.5 Y127.864 J-2
N7670 G1 Y0
N7675 G2 X56.5 Y-2 I-2
N7680 G1 X53
N7685 G2 X51 Y0 J2
N7690 G1 Y2
N7695 X40.25
N7700 G2 X38.25 Y4 J2
N7705 G1 Y7
N7710 G2 X40.25 Y9 I2
N7715 G1 X41.25
N7720 Y11.932
N7725 G2 X43.25 Y13.932 I2
N7730 G1 X51
N7735 Y113.932
N7740 X43.25
N7745 G2 X41.25 Y115.932 J2
N7750 G3 X40.85 Y116.332 I-0.4
N7755 G1 X40.45
N7760 G18 G3 X40.05 Z-7.6 K0.4
N7765 G0 Z5
N7770 X38.2 Y117.295
N7775 G1 Z-5 F600
N7780 Z-7.6
N7785 G3 X37.8 Z-8 I-0.4
N7790 G1 X37.4 F400
N7795 G17 G3 X37 Y116.895 J-0.4
N7800 G1 Y57.932 F600
N7805 X44.5
N7810 G2 X46.5 Y55.932 J-2
N7815 G1 Y33.932
N7820 G2 X44.5 Y31.932 I-2
N7825 G1 X32
N7830 G2 X30.068 Y33.414 J2
N7835 G1 X29.568 Y35.28
N7840 G2 X29.5 Y35.798 I1.932 J0.518
N7845 G1 Y123.864
N7850 Y152.066
N7855 G2 X29.568 Y152.584 I2
N7860 G1 X30.068 Y154.45
N7865 G2 X32 Y155.932 I1.932 J-0.518
N7870 G1 X44.5
N7875 G2 X46.5 Y153.932 J-2
N7880 G1 Y131.932
N7885 G2 X44.5 Y129.932 I-2
N7890 G1 X37
N7895 Y116.895
N7900 G3 X37.4 Y116.495 I0.4
N7905 G1 X37.8
N7910 G18 G2 X38.2 Z-7.6 K0.4
N7915 G0 Z5
N7920 Y117.295
N7925 G1 Z-6 F600
N7930 Z-8.15
N7935 G3 X37.8 Z-8.55 I-0.4
N7940 G1 X37.4 F400
N7945 G17 G3 X37 Y116.895 J-0.4
N7950 G1 Y57.932 F600
N7955 X44.5
N7960 G2 X46.5 Y55.932 J-2
N7965 G1 Y33.932
N7970 G2 X44.5 Y31.932 I-2
N7975 G1 X32
N7980 G2 X30.068 Y33.414 J2
N7985 G1 X29.568 Y35.28
N7990 G2 X29.5 Y35.798 I1.932 J0.518
N7995 G1 Y123.864
N8000 Y152.066
N8005 G2 X29.568 Y152.584 I2
N8010 G1 X30.068 Y154.45
N8015 G2 X32 Y155.932 I1.932 J-0.518
N8020 G1 X44.5
N8025 G2 X46.5 Y153.932 J-2
N8030 G1 Y131.932
N8035 G2 X44.5 Y129.932 I-2
N8040 G1 X37
N8045 Y116.895
N8050 G3 X37.4 Y116.495 I0.4
N8055 G1 X37.8
N8060 G18 G2 X38.2 Z-8.15 K0.4
N8065 G0 Z5
N8070 X40.05 Y115.532
N8075 G1 Z-6 F600
N8080 Z-8.15
N8085 G2 X40.45 Z-8.55 I0.4
N8090 G1 X40.85 F400
N8095 G17 G3 X41.25 Y115.932 J0.4
N8100 G1 Y118.864 F600
N8105 X40.25
N8110 G2 X38.25 Y120.864 J2
N8115 G1 Y123.864
N8120 G2 X40.25 Y125.864 I2
N8125 G1 X51
N8130 Y127.864
N8135 G2 X53 Y129.864 I2
N8140 G1 X56.5
N8145 G2 X58.5 Y127.864 J-2
N8150 G1 Y0
N8155 G2 X56.5 Y-2 I-2
N8160 G1 X53
N8165 G2 X51 Y0 J2
N8170 G1 Y2
N8175 X40.25
N8180 G2 X38.25 Y4 J2
N8185 G1 Y7
N8190 G2 X40.25 Y9 I2
N8195 G1 X41.25
N8200 Y11.932
N8205 G2 X43.25 Y13.932 I2
N8210 G1 X51
N8215 Y113.932
N8220 X43.25
N8225 G2 X41.25 Y115.932 J2
N8230 G3 X40.85 Y116.332 I-0.4
N8235 G1 X40.45
N8240 G18 G3 X40.05 Z-8.15 K0.4
N8245 G0 Z5
N8250 Y115.532
N8255 G1 Z-6.55 F600
N8260 Z-8.7
N8265 G2 X40.45 Z-9.1 I0.4
N8270 G1 X40.85 F400
N8275 G17 G3 X41.25 Y115.932 J0.4
N8280 G1 Y118.864 F600
N8285 X40.25
N8290 G2 X38.25 Y120.864 J2
N8295 G1 Y123.864
N8300 G2 X40.25 Y125.864 I2
N8305 G1 X51
N8310 Y127.864
N8315 G2 X53 Y129.864 I2
N8320 G1 X56.5
N8325 G2 X58.5 Y127.864 J-2
N8330 G1 Y0
N8335 G2 X56.5 Y-2 I-2
N8340 G1 X53
N8345 G2 X51 Y0 J2
N8350 G1 Y2
N8355 X40.25
N8360 G2 X38.25 Y4 J2
N8365 G1 Y7
N8370 G2 X40.25 Y9 I2
N8375 G1 X41.25
N8380 Y11.932
N8385 G2 X43.25 Y13.932 I2
N8390 G1 X51
N8395 Y113.932
N8400 X43.25
N8405 G2 X41.25 Y115.932 J2
N8410 G3 X40.85 Y116.332 I-0.4
N8415 G1 X40.45
N8420 G18 G3 X40.05 Z-8.7 K0.4
N8425 G0 Z5
N8430 X38.2 Y117.295
N8435 G1 Z-6.55 F600
N8440 Z-8.7
N8445 G3 X37.8 Z-9.1 I-0.4
N8450 G1 X37.4 F400
N8455 G17 G3 X37 Y116.895 J-0.4
N8460 G1 Y57.932 F600
N8465 X44.5
N8470 G2 X46.5 Y55.932 J-2
N8475 G1 Y33.932
N8480 G2 X44.5 Y31.932 I-2
N8485 G1 X32
N8490 G2 X30.068 Y33.414 J2
N8495 G1 X29.568 Y35.28
N8500 G2 X29.5 Y35.798 I1.932 J0.518
N8505 G1 Y123.864
N8510 Y152.066
N8515 G2 X29.568 Y152.584 I2
N8520 G1 X30.068 Y154.45
N8525 G2 X32 Y155.932 I1.932 J-0.518
N8530 G1 X44.5
N8535 G2 X46.5 Y153.932 J-2
N8540 G1 Y131.932
N8545 G2 X44.5 Y129.932 I-2
N8550 G1 X37
N8555 Y116.895
N8560 G3 X37.4 Y116.495 I0.4
N8565 G1 X37.8
N8570 G18 G2 X38.2 Z-8.7 K0.4
N8575 G0 Z5
N8580 X14.038 Y15.059
N8585 G1 Z2 F600
N8590 Z-0.6
N8595 X14.035 Y15.052 Z-0.678
N8600 X14.027 Y15.031 Z-0.753
N8605 X14.014 Y14.996 Z-0.822
N8610 X13.996 Y14.95 Z-0.883
N8615 X13.974 Y14.893 Z-0.933
N8620 X13.949 Y14.829 Z-0.97
N8625 X13.921 Y14.759 Z-0.992
N8630 X13.893 Y14.686 Z-1
N8635 X13.748 Y14.314 F400
N8640 G17 G3 X13.976 Y13.796 I0.373 J-0.145
N8645 G2 X15.25 Y11.932 I-0.726 J-1.864 F600
N8650 G1 Y9
N8655 X16.25
N8660 G2 X18.25 Y7 J-2
N8665 G1 Y4
N8670 G2 X16.25 Y2 I-2
N8675 G1 X5.5
N8680 Y0
N8685 G2 X3.5 Y-2 I-2
N8690 G1 X0
N8695 G2 X-2 Y0 J2
N8700 G1 Y127.864
N8705 G2 X0 Y129.864 I2
N8710 G1 X3.5
N8715 G2 X5.5 Y127.864 J-2
N8720 G1 Y125.864
N8725 X16.25
N8730 G2 X18.25 Y123.864 J-2
N8735 G1 Y120.864
N8740 G2 X16.25 Y118.864 I-2
N8745 G1 X15.25
N8750 Y115.932
N8755 G2 X13.25 Y113.932 I-2
N8760 G1 X5.5
N8765 Y13.932
N8770 X13.25
N8775 G2 X13.976 Y13.796 J-2
N8780 G3 X14.493 Y14.023 I0.145 J0.373
N8785 G1 X14.639 Y14.396
N8790 X14.667 Y14.469 Z-0.992
N8795 X14.694 Y14.539 Z-0.97
N8800 X14.719 Y14.603 Z-0.933
N8805 X14.741 Y14.66 Z-0.883
N8810 X14.759 Y14.706 Z-0.822
N8815 X14.773 Y14.74 Z-0.753
N8820 X14.781 Y14.762 Z-0.678
N8825 X14.784 Y14.769 Z-0.6
N8830 G0 Z5
N8835 X14.038 Y15.059
N8840 G1 Z1 F600
N8845 Z-1.6
N8850 X14.035 Y15.052 Z-1.678
N8855 X14.027 Y15.031 Z-1.753
N8860 X14.014 Y14.996 Z-1.822
N8865 X13.996 Y14.95 Z-1.883
N8870 X13.974 Y14.893 Z-1.933
N8875 X13.949 Y14.829 Z-1.97
N8880 X13.921 Y14.759 Z-1.992
N8885 X13.893 Y14.686 Z-2
N8890 X13.748 Y14.314 F400
N8895 G3 X13.976 Y13.796 I0.373 J-0.145
N8900 G2 X15.25 Y11.932 I-0.726 J-1.864 F600
N8905 G1 Y9
N8910 X16.25
N8915 G2 X18.25 Y7 J-2
N8920 G1 Y4
N8925 G2 X16.25 Y2 I-2
N8930 G1 X5.5
N8935 Y0
N8940 G2 X3.5 Y-2 I-2
N8945 G1 X0
N8950 G2 X-2 Y0 J2
N8955 G1 Y127.864
N8960 G2 X0 Y129.864 I2
N8965 G1 X3.5
N8970 G2 X5.5 Y127.864 J-2
N8975 G1 Y125.864
N8980 X16.25
N8985 G2 X18.25 Y123.864 J-2
N8990 G1 Y120.864
N8995 G2 X16.25 Y118.864 I-2
N9000 G1 X15.25
N9005 Y115.932
N9010 G2 X13.25 Y113.932 I-2
N9015 G1 X5.5
N9020 Y13.932
N9025 X13.25
N9030 G2 X13.976 Y13.796 J-2
N9035 G3 X14.493 Y14.023 I0.145 J0.373
N9040 G1 X14.639 Y14.396
N9045 X14.667 Y14.469 Z-1.992
N9050 X14.694 Y14.539 Z-1.97
N9055 X14.719 Y14.603 Z-1.933
N9060 X14.741 Y14.66 Z-1.883
N9065 X14.759 Y14.706 Z-1.822
N9070 X14.773 Y14.74 Z-1.753
N9075 X14.781 Y14.762 Z-1.678
N9080 X14.784 Y14.769 Z-1.6
N9085 G0 Z5
N9090 X14.038 Y15.059
N9095 G1 Z0 F600
N9100 Z-2.6
N9105 X14.035 Y15.052 Z-2.678
N9110 X14.027 Y15.031 Z-2.753
N9115 X14.014 Y14.996 Z-2.822
N9120 X13.996 Y14.95 Z-2.883
N9125 X13.974 Y14.893 Z-2.933
N9130 X13.949 Y14.829 Z-2.97
N9135 X13.921 Y14.759 Z-2.992
N9140 X13.893 Y14.686 Z-3
N9145 X13.748 Y14.314 F400
N9150 G3 X13.976 Y13.796 I0.373 J-0.145
N9155 G2 X15.25 Y11.932 I-0.726 J-1.864 F600
N9160 G1 Y9
N9165 X16.25
N9170 G2 X18.25 Y7 J-2
N9175 G1 Y4
N9180 G2 X16.25 Y2 I-2
N9185 G1 X5.5
N9190 Y0
N9195 G2 X3.5 Y-2 I-2
N9200 G1 X0
N9205 G2 X-2 Y0 J2
N9210 G1 Y127.864
N9215 G2 X0 Y129.864 I2
N9220 G1 X3.5
N9225 G2 X5.5 Y127.864 J-2
N9230 G1 Y125.864
N9235 X16.25
N9240 G2 X18.25 Y123.864 J-2
N9245 G1 Y120.864
N9250 G2 X16.25 Y118.864 I-2
N9255 G1 X15.25
N9260 Y115.932
N9265 G2 X13.25 Y113.932 I-2
N9270 G1 X5.5
N9275 Y13.932
N9280 X13.25
N9285 G2 X13.976 Y13.796 J-2
N9290 G3 X14.493 Y14.023 I0.145 J0.373
N9295 G1 X14.639 Y14.396
N9300 X14.667 Y14.469 Z-2.992
N9305 X14.694 Y14.539 Z-2.97
N9310 X14.719 Y14.603 Z-2.933
N9315 X14.741 Y14.66 Z-2.883
N9320 X14.759 Y14.706 Z-2.822
N9325 X14.773 Y14.74 Z-2.753
N9330 X14.781 Y14.762 Z-2.678
N9335 X14.784 Y14.769 Z-2.6
N9340 G0 Z5
N9345 X14.038 Y15.059
N9350 G1 Z-1 F600
N9355 Z-3.6
N9360 X14.035 Y15.052 Z-3.678
N9365 X14.027 Y15.031 Z-3.753
N9370 X14.014 Y14.996 Z-3.822
N9375 X13.996 Y14.95 Z-3.883
N9380 X13.974 Y14.893 Z-3.933
N9385 X13.949 Y14.829 Z-3.97
N9390 X13.921 Y14.759 Z-3.992
N9395 X13.893 Y14.686 Z-4
N9400 X13.748 Y14.314 F400
N9405 G3 X13.976 Y13.796 I0.373 J-0.145
N9410 G2 X15.25 Y11.932 I-0.726 J-1.864 F600
N9415 G1 Y9
N9420 X16.25
N9425 G2 X18.25 Y7 J-2
N9430 G1 Y4
N9435 G2 X16.25 Y2 I-2
N9440 G1 X5.5
N9445 Y0
N9450 G2 X3.5 Y-2 I-2
N9455 G1 X0
N9460 G2 X-2 Y0 J2
N9465 G1 Y127.864
N9470 G2 X0 Y129.864 I2
N9475 G1 X3.5
N9480 G2 X5.5 Y127.864 J-2
N9485 G1 Y125.864
N9490 X16.25
N9495 G2 X18.25 Y123.864 J-2
N9500 G1 Y120.864
N9505 G2 X16.25 Y118.864 I-2
N9510 G1 X15.25
N9515 Y115.932
N9520 G2 X13.25 Y113.932 I-2
N9525 G1 X5.5
N9530 Y13.932
N9535 X13.25
N9540 G2 X13.976 Y13.796 J-2
N9545 G3 X14.493 Y14.023 I0.145 J0.373
N9550 G1 X14.639 Y14.396
N9555 X14.667 Y14.469 Z-3.992
N9560 X14.694 Y14.539 Z-3.97
N9565 X14.719 Y14.603 Z-3.933
N9570 X14.741 Y14.66 Z-3.883
N9575 X14.759 Y14.706 Z-3.822
N9580 X14.773 Y14.74 Z-3.753
N9585 X14.781 Y14.762 Z-3.678
N9590 X14.784 Y14.769 Z-3.6
N9595 G0 Z5
N9600 X14.038 Y15.059
N9605 G1 Z-2 F600
N9610 Z-4.6
N9615 X14.035 Y15.052 Z-4.678
N9620 X14.027 Y15.031 Z-4.753
N9625 X14.014 Y14.996 Z-4.822
N9630 X13.996 Y14.95 Z-4.883
N9635 X13.974 Y14.893 Z-4.933
N9640 X13.949 Y14.829 Z-4.97
N9645 X13.921 Y14.759 Z-4.992
N9650 X13.893 Y14.686 Z-5
N9655 X13.748 Y14.314 F400
N9660 G3 X13.976 Y13.796 I0.373 J-0.145
N9665 G2 X15.25 Y11.932 I-0.726 J-1.864 F600
N9670 G1 Y9
N9675 X16.25
N9680 G2 X18.25 Y7 J-2
N9685 G1 Y4
N9690 G2 X16.25 Y2 I-2
N9695 G1 X5.5
N9700 Y0
N9705 G2 X3.5 Y-2 I-2
N9710 G1 X0
N9715 G2 X-2 Y0 J2
N9720 G1 Y127.864
N9725 G2 X0 Y129.864 I2
N9730 G1 X3.5
N9735 G2 X5.5 Y127.864 J-2
N9740 G1 Y125.864
N9745 X16.25
N9750 G2 X18.25 Y123.864 J-2
N9755 G1 Y120.864
N9760 G2 X16.25 Y118.864 I-2
N9765 G1 X15.25
N9770 Y115.932
N9775 G2 X13.25 Y113.932 I-2
N9780 G1 X5.5
N9785 Y13.932
N9790 X13.25
N9795 G2 X13.976 Y13.796 J-2
N9800 G3 X14.493 Y14.023 I0.145 J0.373
N9805 G1 X14.639 Y14.396
N9810 X14.667 Y14.469 Z-4.992
N9815 X14.694 Y14.539 Z-4.97
N9820 X14.719 Y14.603 Z-4.933
N9825 X14.741 Y14.66 Z-4.883
N9830 X14.759 Y14.706 Z-4.822
N9835 X14.773 Y14.74 Z-4.753
N9840 X14.781 Y14.762 Z-4.678
N9845 X14.784 Y14.769 Z-4.6
N9850 G0 Z5
N9855 X14.038 Y15.059
N9860 G1 Z-3 F600
N9865 Z-5.6
N9870 X14.035 Y15.052 Z-5.678
N9875 X14.027 Y15.031 Z-5.753
N9880 X14.014 Y14.996 Z-5.822
N9885 X13.996 Y14.95 Z-5.883
N9890 X13.974 Y14.893 Z-5.933
N9895 X13.949 Y14.829 Z-5.97
N9900 X13.921 Y14.759 Z-5.992
N9905 X13.893 Y14.686 Z-6
N9910 X13.748 Y14.314 F400
N9915 G3 X13.976 Y13.796 I0.373 J-0.145
N9920 G2 X15.25 Y11.932 I-0.726 J-1.864 F600
N9925 G1 Y9
N9930 X16.25
N9935 G2 X18.25 Y7 J-2
N9940 G1 Y4
N9945 G2 X16.25 Y2 I-2
N9950 G1 X5.5
N9955 Y0
N9960 G2 X3.5 Y-2 I-2
N9965 G1 X0
N9970 G2 X-2 Y0 J2
N9975 G1 Y127.864
N9980 G2 X0 Y129.864 I2
N9985 G1 X3.5
N9990 G2 X5.5 Y127.864 J-2
N9995 G1 Y125.864
N10000 X16.25
N10005 G2 X18.25 Y123.864 J-2
N10010 G1 Y120.864
N10015 G2 X16.25 Y118.864 I-2
N10020 G1 X15.25
N10025 Y115.932
N10030 G2 X13.25 Y113.932 I-2
N10035 G1 X5.5
N10040 Y13.932
N10045 X13.25
N10050 G2 X13.976 Y13.796 J-2
N10055 G3 X14.493 Y14.023 I0.145 J0.373
N10060 G1 X14.639 Y14.396
N10065 X14.667 Y14.469 Z-5.992
N10070 X14.694 Y14.539 Z-5.97
N10075 X14.719 Y14.603 Z-5.933
N10080 X14.741 Y14.66 Z-5.883
N10085 X14.759 Y14.706 Z-5.822
N10090 X14.773 Y14.74 Z-5.753
N10095 X14.781 Y14.762 Z-5.678
N10100 X14.784 Y14.769 Z-5.6
N10105 G0 Z5
N10110 X14.038 Y15.059
N10115 G1 Z-4 F600
N10120 Z-6.6
N10125 X14.035 Y15.052 Z-6.678
N10130 X14.027 Y15.031 Z-6.753
N10135 X14.014 Y14.996 Z-6.822
N10140 X13.996 Y14.95 Z-6.883
N10145 X13.974 Y14.893 Z-6.933
N10150 X13.949 Y14.829 Z-6.97
N10155 X13.921 Y14.759 Z-6.992
N10160 X13.893 Y14.686 Z-7
N10165 X13.748 Y14.314 F400
N10170 G3 X13.976 Y13.796 I0.373 J-0.145
N10175 G2 X15.25 Y11.932 I-0.726 J-1.864 F600
N10180 G1 Y9
N10185 X16.25
N10190 G2 X18.25 Y7 J-2
N10195 G1 Y4
N10200 G2 X16.25 Y2 I-2
N10205 G1 X5.5
N10210 Y0
N10215 G2 X3.5 Y-2 I-2
N10220 G1 X0
N10225 G2 X-2 Y0 J2
N10230 G1 Y127.864
N10235 G2 X0 Y129.864 I2
N10240 G1 X3.5
N10245 G2 X5.5 Y127.864 J-2
N10250 G1 Y125.864
N10255 X16.25
N10260 G2 X18.25 Y123.864 J-2
N10265 G1 Y120.864
N10270 G2 X16.25 Y118.864 I-2
N10275 G1 X15.25
N10280 Y115.932
N10285 G2 X13.25 Y113.932 I-2
N10290 G1 X5.5
N10295 Y13.932
N10300 X13.25
N10305 G2 X13.976 Y13.796 J-2
N10310 G3 X14.493 Y14.023 I0.145 J0.373
N10315 G1 X14.639 Y14.396
N10320 X14.667 Y14.469 Z-6.992
N10325 X14.694 Y14.539 Z-6.97
N10330 X14.719 Y14.603 Z-6.933
N10335 X14.741 Y14.66 Z-6.883
N10340 X14.759 Y14.706 Z-6.822
N10345 X14.773 Y14.74 Z-6.753
N10350 X14.781 Y14.762 Z-6.678
N10355 X14.784 Y14.769 Z-6.6
N10360 G0 Z5
N10365 X14.038 Y15.059
N10370 G1 Z-5 F600
N10375 Z-7.6
N10380 X14.035 Y15.052 Z-7.678
N10385 X14.027 Y15.031 Z-7.753
N10390 X14.014 Y14.996 Z-7.822
N10395 X13.996 Y14.95 Z-7.883
N10400 X13.974 Y14.893 Z-7.933
N10405 X13.949 Y14.829 Z-7.97
N10410 X13.921 Y14.759 Z-7.992
N10415 X13.893 Y14.686 Z-8
N10420 X13.748 Y14.314 F400
N10425 G3 X13.976 Y13.796 I0.373 J-0.145
N10430 G2 X15.25 Y11.932 I-0.726 J-1.864 F600
N10435 G1 Y9
N10440 X16.25
N10445 G2 X18.25 Y7 J-2
N10450 G1 Y4
N10455 G2 X16.25 Y2 I-2
N10460 G1 X5.5
N10465 Y0
N10470 G2 X3.5 Y-2 I-2
N10475 G1 X0
N10480 G2 X-2 Y0 J2
N10485 G1 Y127.864
N10490 G2 X0 Y129.864 I2
N10495 G1 X3.5
N10500 G2 X5.5 Y127.864 J-2
N10505 G1 Y125.864
N10510 X16.25
N10515 G2 X18.25 Y123.864 J-2
N10520 G1 Y120.864
N10525 G2 X16.25 Y118.864 I-2
N10530 G1 X15.25
N10535 Y115.932
N10540 G2 X13.25 Y113.932 I-2
N10545 G1 X5.5
N10550 Y13.932
N10555 X13.25
N10560 G2 X13.976 Y13.796 J-2
N10565 G3 X14.493 Y14.023 I0.145 J0.373
N10570 G1 X14.639 Y14.396
N10575 X14.667 Y14.469 Z-7.992
N10580 X14.694 Y14.539 Z-7.97
N10585 X14.719 Y14.603 Z-7.933
N10590 X14.741 Y14.66 Z-7.883
N10595 X14.759 Y14.706 Z-7.822
N10600 X14.773 Y14.74 Z-7.753
N10605 X14.781 Y14.762 Z-7.678
N10610 X14.784 Y14.769 Z-7.6
N10615 G0 Z5
N10620 X14.038 Y15.059
N10625 G1 Z-6 F600
N10630 Z-8.15
N10635 X14.035 Y15.052 Z-8.228
N10640 X14.027 Y15.031 Z-8.303
N10645 X14.014 Y14.996 Z-8.372
N10650 X13.996 Y14.95 Z-8.433
N10655 X13.974 Y14.893 Z-8.483
N10660 X13.949 Y14.829 Z-8.52
N10665 X13.921 Y14.759 Z-8.542
N10670 X13.893 Y14.686 Z-8.55
N10675 X13.748 Y14.314 F400
N10680 G3 X13.976 Y13.796 I0.373 J-0.145
N10685 G2 X15.25 Y11.932 I-0.726 J-1.864 F600
N10690 G1 Y9
N10695 X16.25
N10700 G2 X18.25 Y7 J-2
N10705 G1 Y4
N10710 G2 X16.25 Y2 I-2
N10715 G1 X5.5
N10720 Y0
N10725 G2 X3.5 Y-2 I-2
N10730 G1 X0
N10735 G2 X-2 Y0 J2
N10740 G1 Y127.864
N10745 G2 X0 Y129.864 I2
N10750 G1 X3.5
N10755 G2 X5.5 Y127.864 J-2
N10760 G1 Y125.864
N10765 X16.25
N10770 G2 X18.25 Y123.864 J-2
N10775 G1 Y120.864
N10780 G2 X16.25 Y118.864 I-2
N10785 G1 X15.25
N10790 Y115.932
N10795 G2 X13.25 Y113.932 I-2
N10800 G1 X5.5
N10805 Y13.932
N10810 X13.25
N10815 G2 X13.976 Y13.796 J-2
N10820 G3 X14.493 Y14.023 I0.145 J0.373
N10825 G1 X14.639 Y14.396
N10830 X14.667 Y14.469 Z-8.542
N10835 X14.694 Y14.539 Z-8.52
N10840 X14.719 Y14.603 Z-8.483
N10845 X14.741 Y14.66 Z-8.433
N10850 X14.759 Y14.706 Z-8.372
N10855 X14.773 Y14.74 Z-8.303
N10860 X14.781 Y14.762 Z-8.228
N10865 X14.784 Y14.769 Z-8.15
N10870 G0 Z5
N10875 X14.038 Y15.059
N10880 G1 Z-6.55 F600
N10885 Z-8.7
N10890 X14.035 Y15.052 Z-8.778
N10895 X14.027 Y15.031 Z-8.853
N10900 X14.014 Y14.996 Z-8.922
N10905 X13.996 Y14.95 Z-8.983
N10910 X13.974 Y14.893 Z-9.033
N10915 X13.949 Y14.829 Z-9.07
N10920 X13.921 Y14.759 Z-9.092
N10925 X13.893 Y14.686 Z-9.1
N10930 X13.748 Y14.314 F400
N10935 G3 X13.976 Y13.796 I0.373 J-0.145
N10940 G2 X15.25 Y11.932 I-0.726 J-1.864 F600
N10945 G1 Y9
N10950 X16.25
N10955 G2 X18.25 Y7 J-2
N10960 G1 Y4
N10965 G2 X16.25 Y2 I-2
N10970 G1 X5.5
N10975 Y0
N10980 G2 X3.5 Y-2 I-2
N10985 G1 X0
N10990 G2 X-2 Y0 J2
N10995 G1 Y127.864
N11000 G2 X0 Y129.864 I2
N11005 G1 X3.5
N11010 G2 X5.5 Y127.864 J-2
N11015 G1 Y125.864
N11020 X16.25
N11025 G2 X18.25 Y123.864 J-2
N11030 G1 Y120.864
N11035 G2 X16.25 Y118.864 I-2
N11040 G1 X15.25
N11045 Y115.932
N11050 G2 X13.25 Y113.932 I-2
N11055 G1 X5.5
N11060 Y13.932
N11065 X13.25
N11070 G2 X13.976 Y13.796 J-2
N11075 G3 X14.493 Y14.023 I0.145 J0.373
N11080 G1 X14.639 Y14.396
N11085 X14.667 Y14.469 Z-9.092
N11090 X14.694 Y14.539 Z-9.07
N11095 X14.719 Y14.603 Z-9.033
N11100 X14.741 Y14.66 Z-8.983
N11105 X14.759 Y14.706 Z-8.922
N11110 X14.773 Y14.74 Z-8.853
N11115 X14.781 Y14.762 Z-8.778
N11120 X14.784 Y14.769 Z-8.7
N11125 G0 Z15
N11130 X26.987 Y155.147
N11135 Z5
N11140 G1 Z2 F600
N11145 Z-0.6
N11150 X26.98 Y155.145 Z-0.678
N11155 X26.958 Y155.139 Z-0.753
N11160 X26.922 Y155.129 Z-0.822
N11165 X26.874 Y155.116 Z-0.883
N11170 X26.816 Y155.101 Z-0.933
N11175 X26.749 Y155.083 Z-0.97
N11180 X26.676 Y155.063 Z-0.992
N11185 X26.601 Y155.043 Z-1
N11190 X26.215 Y154.94 F400
N11195 G3 X25.932 Y154.45 I0.104 J-0.386
N11200 G1 X26.432 Y152.584 F600
N11205 G2 X26.5 Y152.066 I-1.932 J-0.518
N11210 G1 Y35.798
N11215 G2 X26.432 Y35.28 I-2
N11220 G1 X25.932 Y33.414
N11225 G2 X24 Y31.932 I-1.932 J0.518
N11230 G1 X11.5
N11235 G2 X9.5 Y33.932 J2
N11240 G1 Y55.932
N11245 G2 X11.5 Y57.932 I2
N11250 G1 X19
N11255 Y129.932
N11260 X11.5
N11265 G2 X9.5 Y131.932 J2
N11270 G1 Y153.932
N11275 G2 X11.5 Y155.932 I2
N11280 G1 X24
N11285 G2 X25.932 Y154.45 J-2
N11290 G3 X26.422 Y154.167 I0.386 J0.104
N11295 G1 X26.808 Y154.27
N11300 X26.883 Y154.291 Z-0.992
N11305 X26.956 Y154.31 Z-0.97
N11310 X27.023 Y154.328 Z-0.933
N11315 X27.081 Y154.344 Z-0.883
N11320 X27.129 Y154.356 Z-0.822
N11325 X27.165 Y154.366 Z-0.753
N11330 X27.187 Y154.372 Z-0.678
N11335 X27.194 Y154.374 Z-0.6
N11340 G0 Z5
N11345 X26.987 Y155.147
N11350 G1 Z1 F600
N11355 Z-1.6
N11360 X26.98 Y155.145 Z-1.678
N11365 X26.958 Y155.139 Z-1.753
N11370 X26.922 Y155.129 Z-1.822
N11375 X26.874 Y155.116 Z-1.883
N11380 X26.816 Y155.101 Z-1.933
N11385 X26.749 Y155.083 Z-1.97
N11390 X26.676 Y155.063 Z-1.992
N11395 X26.601 Y155.043 Z-2
N11400 X26.215 Y154.94 F400
N11405 G3 X25.932 Y154.45 I0.104 J-0.386
N11410 G1 X26.432 Y152.584 F600
N11415 G2 X26.5 Y152.066 I-1.932 J-0.518
N11420 G1 Y35.798
N11425 G2 X26.432 Y35.28 I-2
N11430 G1 X25.932 Y33.414
N11435 G2 X24 Y31.932 I-1.932 J0.518
N11440 G1 X11.5
N11445 G2 X9.5 Y33.932 J2
N11450 G1 Y55.932
N11455 G2 X11.5 Y57.932 I2
N11460 G1 X19
N11465 Y129.932
N11470 X11.5
N11475 G2 X9.5 Y131.932 J2
N11480 G1 Y153.932
N11485 G2 X11.5 Y155.932 I2
N11490 G1 X24
N11495 G2 X25.932 Y154.45 J-2
N11500 G3 X26.422 Y154.167 I0.386 J0.104
N11505 G1 X26.808 Y154.27
N11510 X26.883 Y154.291 Z-1.992
N11515 X26.956 Y154.31 Z-1.97
N11520 X27.023 Y154.328 Z-1.933
N11525 X27.081 Y154.344 Z-1.883
N11530 X27.129 Y154.356 Z-1.822
N11535 X27.165 Y154.366 Z-1.753
N11540 X27.187 Y154.372 Z-1.678
N11545 X27.194 Y154.374 Z-1.6
N11550 G0 Z5
N11555 X26.987 Y155.147
N11560 G1 Z0 F600
N11565 Z-2.6
N11570 X26.98 Y155.145 Z-2.678
N11575 X26.958 Y155.139 Z-2.753
N11580 X26.922 Y155.129 Z-2.822
N11585 X26.874 Y155.116 Z-2.883
N11590 X26.816 Y155.101 Z-2.933
N11595 X26.749 Y155.083 Z-2.97
N11600 X26.676 Y155.063 Z-2.992
N11605 X26.601 Y155.043 Z-3
N11610 X26.215 Y154.94 F400
N11615 G3 X25.932 Y154.45 I0.104 J-0.386
N11620 G1 X26.432 Y152.584 F600
N11625 G2 X26.5 Y152.066 I-1.932 J-0.518
N11630 G1 Y35.798
N11635 G2 X26.432 Y35.28 I-2
N11640 G1 X25.932 Y33.414
N11645 G2 X24 Y31.932 I-1.932 J0.518
N11650 G1 X11.5
N11655 G2 X9.5 Y33.932 J2
N11660 G1 Y55.932
N11665 G2 X11.5 Y57.932 I2
N11670 G1 X19
N11675 Y129.932
N11680 X11.5
N11685 G2 X9.5 Y131.932 J2
N11690 G1 Y153.932
N11695 G2 X11.5 Y155.932 I2
N11700 G1 X24
N11705 G2 X25.932 Y154.45 J-2
N11710 G3 X26.422 Y154.167 I0.386 J0.104
N11715 G1 X26.808 Y154.27
N11720 X26.883 Y154.291 Z-2.992
N11725 X26.956 Y154.31 Z-2.97
N11730 X27.023 Y154.328 Z-2.933
N11735 X27.081 Y154.344 Z-2.883
N11740 X27.129 Y154.356 Z-2.822
N11745 X27.165 Y154.366 Z-2.753
N11750 X27.187 Y154.372 Z-2.678
N11755 X27.194 Y154.374 Z-2.6
N11760 G0 Z5
N11765 X26.987 Y155.147
N11770 G1 Z-1 F600
N11775 Z-3.6
N11780 X26.98 Y155.145 Z-3.678
N11785 X26.958 Y155.139 Z-3.753
N11790 X26.922 Y155.129 Z-3.822
N11795 X26.874 Y155.116 Z-3.883
N11800 X26.816 Y155.101 Z-3.933
N11805 X26.749 Y155.083 Z-3.97
N11810 X26.676 Y155.063 Z-3.992
N11815 X26.601 Y155.043 Z-4
N11820 X26.215 Y154.94 F400
N11825 G3 X25.932 Y154.45 I0.104 J-0.386
N11830 G1 X26.432 Y152.584 F600
N11835 G2 X26.5 Y152.066 I-1.932 J-0.518
N11840 G1 Y35.798
N11845 G2 X26.432 Y35.28 I-2
N11850 G1 X25.932 Y33.414
N11855 G2 X24 Y31.932 I-1.932 J0.518
N11860 G1 X11.5
N11865 G2 X9.5 Y33.932 J2
N11870 G1 Y55.932
N11875 G2 X11.5 Y57.932 I2
N11880 G1 X19
N11885 Y129.932
N11890 X11.5
N11895 G2 X9.5 Y131.932 J2
N11900 G1 Y153.932
N11905 G2 X11.5 Y155.932 I2
N11910 G1 X24
N11915 G2 X25.932 Y154.45 J-2
N11920 G3 X26.422 Y154.167 I0.386 J0.104
N11925 G1 X26.808 Y154.27
N11930 X26.883 Y154.291 Z-3.992
N11935 X26.956 Y154.31 Z-3.97
N11940 X27.023 Y154.328 Z-3.933
N11945 X27.081 Y154.344 Z-3.883
N11950 X27.129 Y154.356 Z-3.822
N11955 X27.165 Y154.366 Z-3.753
N11960 X27.187 Y154.372 Z-3.678
N11965 X27.194 Y154.374 Z-3.6
N11970 G0 Z5
N11975 X26.987 Y155.147
N11980 G1 Z-2 F600
N11985 Z-4.6
N11990 X26.98 Y155.145 Z-4.678
N11995 X26.958 Y155.139 Z-4.753
N12000 X26.922 Y155.129 Z-4.822
N12005 X26.874 Y155.116 Z-4.883
N12010 X26.816 Y155.101 Z-4.933
N12015 X26.749 Y155.083 Z-4.97
N12020 X26.676 Y155.063 Z-4.992
N12025 X26.601 Y155.043 Z-5
N12030 X26.215 Y154.94 F400
N12035 G3 X25.932 Y154.45 I0.104 J-0.386
N12040 G1 X26.432 Y152.584 F600
N12045 G2 X26.5 Y152.066 I-1.932 J-0.518
N12050 G1 Y35.798
N12055 G2 X26.432 Y35.28 I-2
N12060 G1 X25.932 Y33.414
N12065 G2 X24 Y31.932 I-1.932 J0.518
N12070 G1 X11.5
N12075 G2 X9.5 Y33.932 J2
N12080 G1 Y55.932
N12085 G2 X11.5 Y57.932 I2
N12090 G1 X19
N12095 Y129.932
N12100 X11.5
N12105 G2 X9.5 Y131.932 J2
N12110 G1 Y153.932
N12115 G2 X11.5 Y155.932 I2
N12120 G1 X24
N12125 G2 X25.932 Y154.45 J-2
N12130 G3 X26.422 Y154.167 I0.386 J0.104
N12135 G1 X26.808 Y154.27
N12140 X26.883 Y154.291 Z-4.992
N12145 X26.956 Y154.31 Z-4.97
N12150 X27.023 Y154.328 Z-4.933
N12155 X27.081 Y154.344 Z-4.883
N12160 X27.129 Y154.356 Z-4.822
N12165 X27.165 Y154.366 Z-4.753
N12170 X27.187 Y154.372 Z-4.678
N12175 X27.194 Y154.374 Z-4.6
N12180 G0 Z5
N12185 X26.987 Y155.147
N12190 G1 Z-3 F600
N12195 Z-5.6
N12200 X26.98 Y155.145 Z-5.678
N12205 X26.958 Y155.139 Z-5.753
N12210 X26.922 Y155.129 Z-5.822
N12215 X26.874 Y155.116 Z-5.883
N12220 X26.816 Y155.101 Z-5.933
N12225 X26.749 Y155.083 Z-5.97
N12230 X26.676 Y155.063 Z-5.992
N12235 X26.601 Y155.043 Z-6
N12240 X26.215 Y154.94 F400
N12245 G3 X25.932 Y154.45 I0.104 J-0.386
N12250 G1 X26.432 Y152.584 F600
N12255 G2 X26.5 Y152.066 I-1.932 J-0.518
N12260 G1 Y35.798
N12265 G2 X26.432 Y35.28 I-2
N12270 G1 X25.932 Y33.414
N12275 G2 X24 Y31.932 I-1.932 J0.518
N12280 G1 X11.5
N12285 G2 X9.5 Y33.932 J2
N12290 G1 Y55.932
N12295 G2 X11.5 Y57.932 I2
N12300 G1 X19
N12305 Y129.932
N12310 X11.5
N12315 G2 X9.5 Y131.932 J2
N12320 G1 Y153.932
N12325 G2 X11.5 Y155.932 I2
N12330 G1 X24
N12335 G2 X25.932 Y154.45 J-2
N12340 G3 X26.422 Y154.167 I0.386 J0.104
N12345 G1 X26.808 Y154.27
N12350 X26.883 Y154.291 Z-5.992
N12355 X26.956 Y154.31 Z-5.97
N12360 X27.023 Y154.328 Z-5.933
N12365 X27.081 Y154.344 Z-5.883
N12370 X27.129 Y154.356 Z-5.822
N12375 X27.165 Y154.366 Z-5.753
N12380 X27.187 Y154.372 Z-5.678
N12385 X27.194 Y154.374 Z-5.6
N12390 G0 Z5
N12395 X26.987 Y155.147
N12400 G1 Z-4 F600
N12405 Z-6.6
N12410 X26.98 Y155.145 Z-6.678
N12415 X26.958 Y155.139 Z-6.753
N12420 X26.922 Y155.129 Z-6.822
N12425 X26.874 Y155.116 Z-6.883
N12430 X26.816 Y155.101 Z-6.933
N12435 X26.749 Y155.083 Z-6.97
N12440 X26.676 Y155.063 Z-6.992
N12445 X26.601 Y155.043 Z-7
N12450 X26.215 Y154.94 F400
N12455 G3 X25.932 Y154.45 I0.104 J-0.386
N12460 G1 X26.432 Y152.584 F600
N12465 G2 X26.5 Y152.066 I-1.932 J-0.518
N12470 G1 Y35.798
N12475 G2 X26.432 Y35.28 I-2
N12480 G1 X25.932 Y33.414
N12485 G2 X24 Y31.932 I-1.932 J0.518
N12490 G1 X11.5
N12495 G2 X9.5 Y33.932 J2
N12500 G1 Y55.932
N12505 G2 X11.5 Y57.932 I2
N12510 G1 X19
N12515 Y129.932
N12520 X11.5
N12525 G2 X9.5 Y131.932 J2
N12530 G1 Y153.932
N12535 G2 X11.5 Y155.932 I2
N12540 G1 X24
N12545 G2 X25.932 Y154.45 J-2
N12550 G3 X26.422 Y154.167 I0.386 J0.104
N12555 G1 X26.808 Y154.27
N12560 X26.883 Y154.291 Z-6.992
N12565 X26.956 Y154.31 Z-6.97
N12570 X27.023 Y154.328 Z-6.933
N12575 X27.081 Y154.344 Z-6.883
N12580 X27.129 Y154.356 Z-6.822
N12585 X27.165 Y154.366 Z-6.753
N12590 X27.187 Y154.372 Z-6.678
N12595 X27.194 Y154.374 Z-6.6
N12600 G0 Z5
N12605 X26.987 Y155.147
N12610 G1 Z-5 F600
N12615 Z-7.6
N12620 X26.98 Y155.145 Z-7.678
N12625 X26.958 Y155.139 Z-7.753
N12630 X26.922 Y155.129 Z-7.822
N12635 X26.874 Y155.116 Z-7.883
N12640 X26.816 Y155.101 Z-7.933
N12645 X26.749 Y155.083 Z-7.97
N12650 X26.676 Y155.063 Z-7.992
N12655 X26.601 Y155.043 Z-8
N12660 X26.215 Y154.94 F400
N12665 G3 X25.932 Y154.45 I0.104 J-0.386
N12670 G1 X26.432 Y152.584 F600
N12675 G2 X26.5 Y152.066 I-1.932 J-0.518
N12680 G1 Y35.798
N12685 G2 X26.432 Y35.28 I-2
N12690 G1 X25.932 Y33.414
N12695 G2 X24 Y31.932 I-1.932 J0.518
N12700 G1 X11.5
N12705 G2 X9.5 Y33.932 J2
N12710 G1 Y55.932
N12715 G2 X11.5 Y57.932 I2
N12720 G1 X19
N12725 Y129.932
N12730 X11.5
N12735 G2 X9.5 Y131.932 J2
N12740 G1 Y153.932
N12745 G2 X11.5 Y155.932 I2
N12750 G1 X24
N12755 G2 X25.932 Y154.45 J-2
N12760 G3 X26.422 Y154.167 I0.386 J0.104
N12765 G1 X26.808 Y154.27
N12770 X26.883 Y154.291 Z-7.992
N12775 X26.956 Y154.31 Z-7.97
N12780 X27.023 Y154.328 Z-7.933
N12785 X27.081 Y154.344 Z-7.883
N12790 X27.129 Y154.356 Z-7.822
N12795 X27.165 Y154.366 Z-7.753
N12800 X27.187 Y154.372 Z-7.678
N12805 X27.194 Y154.374 Z-7.6
N12810 G0 Z5
N12815 X26.987 Y155.147
N12820 G1 Z-6 F600
N12825 Z-8.155
N12830 X26.98 Y155.145 Z-8.233
N12835 X26.958 Y155.139 Z-8.308
N12840 X26.922 Y155.129 Z-8.377
N12845 X26.874 Y155.116 Z-8.438
N12850 X26.816 Y155.101 Z-8.488
N12855 X26.749 Y155.083 Z-8.525
N12860 X26.676 Y155.063 Z-8.547
N12865 X26.601 Y155.043 Z-8.555
N12870 X26.215 Y154.94 F400
N12875 G3 X25.932 Y154.45 I0.104 J-0.386
N12880 G1 X26.432 Y152.584 F600
N12885 G2 X26.5 Y152.066 I-1.932 J-0.518
N12890 G1 Y35.798
N12895 G2 X26.432 Y35.28 I-2
N12900 G1 X25.932 Y33.414
N12905 G2 X24 Y31.932 I-1.932 J0.518
N12910 G1 X11.5
N12915 G2 X9.5 Y33.932 J2
N12920 G1 Y55.932
N12925 G2 X11.5 Y57.932 I2
N12930 G1 X19
N12935 Y129.932
N12940 X11.5
N12945 G2 X9.5 Y131.932 J2
N12950 G1 Y153.932
N12955 G2 X11.5 Y155.932 I2
N12960 G1 X24
N12965 G2 X25.932 Y154.45 J-2
N12970 G3 X26.422 Y154.167 I0.386 J0.104
N12975 G1 X26.808 Y154.27
N12980 X26.883 Y154.291 Z-8.547
N12985 X26.956 Y154.31 Z-8.525
N12990 X27.023 Y154.328 Z-8.488
N12995 X27.081 Y154.344 Z-8.438
N13000 X27.129 Y154.356 Z-8.377
N13005 X27.165 Y154.366 Z-8.308
N13010 X27.187 Y154.372 Z-8.233
N13015 X27.194 Y154.374 Z-8.155
N13020 G0 Z5
N13025 X26.987 Y155.147
N13030 G1 Z-6.555 F600
N13035 Z-8.71
N13040 X26.98 Y155.145 Z-8.788
N13045 X26.958 Y155.139 Z-8.863
N13050 X26.922 Y155.129 Z-8.932
N13055 X26.874 Y155.116 Z-8.993
N13060 X26.816 Y155.101 Z-9.043
N13065 X26.749 Y155.083 Z-9.08
N13070 X26.676 Y155.063 Z-9.102
N13075 X26.601 Y155.043 Z-9.11
N13080 X26.215 Y154.94 F400
N13085 G3 X25.932 Y154.45 I0.104 J-0.386
N13090 G1 X26.432 Y152.584 F600
N13095 G2 X26.5 Y152.066 I-1.932 J-0.518
N13100 G1 Y35.798
N13105 G2 X26.432 Y35.28 I-2
N13110 G1 X25.932 Y33.414
N13115 G2 X24 Y31.932 I-1.932 J0.518
N13120 G1 X11.5
N13125 G2 X9.5 Y33.932 J2
N13130 G1 Y55.932
N13135 G2 X11.5 Y57.932 I2
N13140 G1 X19
N13145 Y129.932
N13150 X11.5
N13155 G2 X9.5 Y131.932 J2
N13160 G1 Y153.932
N13165 G2 X11.5 Y155.932 I2
N13170 G1 X24
N13175 G2 X25.932 Y154.45 J-2
N13180 G3 X26.422 Y154.167 I0.386 J0.104
N13185 G1 X26.808 Y154.27
N13190 X26.883 Y154.291 Z-9.102
N13195 X26.956 Y154.31 Z-9.08
N13200 X27.023 Y154.328 Z-9.043
N13205 X27.081 Y154.344 Z-8.993
N13210 X27.129 Y154.356 Z-8.932
N13215 X27.165 Y154.366 Z-8.863
N13220 X27.187 Y154.372 Z-8.788
N13225 X27.194 Y154.374 Z-8.71
N13230 G0 Z15
N13235 M9
N13240 G28
N13245 M30
%
