%
(1001)
(T1 D=2 CR=0 - ZMIN=-7.51 - flat end mill)
N10 G90 G94
N15 G17
N20 G21
N25 M9
N30 G28

(2D ????18)
N35 T1 M6
(0)
N40 S23873 M3
N45 G54
N50 M8
N55 G0 X40.007 Y147.85
N60 G43 Z15
N65 Z5
N70 G1 Z2.7 F400
N75 X40.002 Y147.875 Z2.602 F600
N80 X39.986 Y147.944 Z2.529
N85 X39.956 Y148.036 Z2.5
N90 G3 X38.184 Y147.348 Z2.396 I-0.886 J-0.344
N95 X39.956 Y148.036 Z2.292 I0.886 J0.344
N100 X38.184 Y147.348 Z2.187 I-0.886 J-0.344
N105 X39.956 Y148.036 Z2.083 I0.886 J0.344
N110 X38.184 Y147.348 Z1.979 I-0.886 J-0.344
N115 X39.956 Y148.036 Z1.875 I0.886 J0.344
N120 X38.184 Y147.348 Z1.77 I-0.886 J-0.344
N125 X39.956 Y148.036 Z1.666 I0.886 J0.344
N130 X38.184 Y147.348 Z1.562 I-0.886 J-0.344
N135 X39.956 Y148.036 Z1.458 I0.886 J0.344
N140 X38.184 Y147.348 Z1.354 I-0.886 J-0.344
N145 X39.956 Y148.036 Z1.249 I0.886 J0.344
N150 X38.184 Y147.348 Z1.145 I-0.886 J-0.344
N155 X39.956 Y148.036 Z1.041 I0.886 J0.344
N160 X38.184 Y147.348 Z0.937 I-0.886 J-0.344
N165 X39.956 Y148.036 Z0.832 I0.886 J0.344
N170 X38.184 Y147.348 Z0.728 I-0.886 J-0.344
N175 X39.956 Y148.036 Z0.624 I0.886 J0.344
N180 X38.184 Y147.348 Z0.52 I-0.886 J-0.344
N185 X39.956 Y148.036 Z0.416 I0.886 J0.344
N190 X38.184 Y147.348 Z0.311 I-0.886 J-0.344
N195 X39.956 Y148.036 Z0.207 I0.886 J0.344
N200 X38.184 Y147.348 Z0.103 I-0.886 J-0.344
N205 X39.956 Y148.036 Z-0.001 I0.886 J0.344
N210 X38.184 Y147.348 Z-0.106 I-0.886 J-0.344
N215 X39.956 Y148.036 Z-0.21 I0.886 J0.344
N220 X38.184 Y147.348 Z-0.314 I-0.886 J-0.344
N225 X39.956 Y148.036 Z-0.418 I0.886 J0.344
N230 X38.184 Y147.348 Z-0.522 I-0.886 J-0.344
N235 X39.956 Y148.036 Z-0.627 I0.886 J0.344
N240 X38.184 Y147.348 Z-0.731 I-0.886 J-0.344
N245 X39.956 Y148.036 Z-0.835 I0.886 J0.344
N250 X38.184 Y147.348 Z-0.939 I-0.886 J-0.344
N255 X39.956 Y148.036 Z-1.044 I0.886 J0.344
N260 X38.184 Y147.348 Z-1.148 I-0.886 J-0.344
N265 X39.956 Y148.036 Z-1.252 I0.886 J0.344
N270 X38.184 Y147.348 Z-1.356 I-0.886 J-0.344
N275 X39.956 Y148.036 Z-1.46 I0.886 J0.344
N280 X38.184 Y147.348 Z-1.565 I-0.886 J-0.344
N285 X39.956 Y148.036 Z-1.669 I0.886 J0.344
N290 X38.184 Y147.348 Z-1.773 I-0.886 J-0.344
N295 X39.956 Y148.036 Z-1.877 I0.886 J0.344
N300 X38.184 Y147.348 Z-1.982 I-0.886 J-0.344
N305 X38.5 Y146.932 Z-2 I0.886 J0.344
N310 X41.5 Y150.932 I1.5 J2
N315 X38.5 Y146.932 I-1.5 J-2
N320 X41.5 Y150.932 Z-2.274 I1.5 J2
N325 X38.5 Y146.932 Z-2.549 I-1.5 J-2
N330 X41.5 Y150.932 Z-2.823 I1.5 J2
N335 X37.542 Y149.391 Z-3 I-1.5 J-2
N340 X42.458 Y148.473 I2.458 J-0.459
N345 X37.542 Y149.391 I-2.458 J0.459
N350 G1 X37.539 Y149.341 Z-2.987
N355 X37.549 Y149.292 Z-2.973
N360 X37.563 Y149.259 Z-2.937
N365 X37.584 Y149.228 Z-2.9
N370 X37.602 Y149.209 Z-2.8
N375 G0 Z15
N380 X12.173 Y128.048
N385 Z5
N390 G1 Z-1.8 F400
N395 G19 G3 Y128.248 Z-2 J0.2
N400 G1 Y131.034
N405 Y132.786 F600
N410 G17 G3 X11.854 Y133.105 I-0.319
N415 G1 X10.6
N420 X10.593
N425 G18 G3 X10.393 Z-1.8 K0.2
N430 G1 X13.737 Y128.05
N435 G19 G3 Y128.25 Z-2 J0.2 F400
N440 G1 Y131.036
N445 Y134.35 F600
N450 G17 G3 X13.418 Y134.669 I-0.319
N455 G1 X10.612
N460 X10.604
N465 G18 G3 X10.404 Z-1.8 K0.2
N470 G1 Z3
N475 X15.365 Y135.98
N480 Z-1.8 F400
N485 X15.36 Y135.985 Z-1.852
N490 X15.346 Y135.999 Z-1.9
N495 X15.324 Y136.022 Z-1.941
N500 X15.295 Y136.052 Z-1.973
N505 X15.261 Y136.086 Z-1.993
N510 X15.225 Y136.123 Z-2
N515 X15.211 Y136.137
N520 X15.162 Y136.178 F600
N525 X15.106 Y136.209
N530 X15.046 Y136.227
N535 X14.982 Y136.234
N540 X10.61
N545 G17 G3 X10.461 Y135.9 J-0.2
N550 G1 X14.953 Y130.904
N555 G3 X15.302 Y131.038 I0.149 J0.134
N560 G1 Y135.519
N565 G3 X14.519 Y135.52 I-0.391
N570 G1 X14.514 Y133.347
N575 X14.519 Y133.279
N580 X14.911 Y131.038
N585 G3 X15.274 Y130.715 I0.385 J0.067
N590 G1 X16.453 Y130.649
N595 G3 X16.866 Y131.04 I0.022 J0.391
N600 G1 Y137.479
N605 G3 X16.547 Y137.798 I-0.319
N610 G1 X10.608
N615 X10.6
N620 G18 G3 X10.4 Z-1.8 K0.2
N625 G1 X18.431 Y128.05
N630 G19 G3 Y128.25 Z-2 J0.2 F400
N635 G1 Y131.042
N640 Y139.043 F600
N645 G17 G3 X18.111 Y139.363 I-0.319
N650 G1 X10.606
N655 X9.606
N660 G18 G3 X9.406 Z-1.8 K0.2
N665 G1 X19.53 Y128.052
N670 Z-1.82
N675 X19.531 Y128.058 Z-1.867 F400
N680 X19.534 Y128.076 Z-1.91
N685 X19.539 Y128.104 Z-1.947
N690 X19.544 Y128.141 Z-1.976
N695 X19.551 Y128.183 Z-1.994
N700 X19.558 Y128.23 Z-2
N705 X19.998 Y131.002
N710 X20 Y131.033
N715 Y140.932 F600
N720 X11.5
N725 X10.601
N730 X10.566 Y140.926
N735 X10.535 Y140.907
N740 X10.513 Y140.879
N745 X10.502 Y140.845
N750 X9.623 Y134.015
N755 X9.619 Y133.986
N760 X9.624 Y133.957
N765 X9.637 Y133.93
N770 X11.991 Y130.569
N775 X12.017 Y130.543
N780 X12.049 Y130.529
N785 X12.085 Y130.527
N790 X12.12 Y130.537
N795 X12.148 Y130.56
N800 X12.166 Y130.59
N805 X12.173 Y130.626
N810 G19 G2 Y130.826 Z-2.2 K-0.2 F400
N815 G1 Z-3.31
N820 G3 Y131.026 Z-3.51 J0.2
N825 G1 Y131.034
N830 Y132.786 F600
N835 G17 G3 X11.854 Y133.105 I-0.319
N840 G1 X10.6
N845 X10.593
N850 G18 G3 X10.393 Z-3.31 K0.2
N855 G1 X13.737 Y128.05
N860 G19 G3 Y128.25 Z-3.51 J0.2 F400
N865 G1 Y131.036
N870 Y134.35 F600
N875 G17 G3 X13.418 Y134.669 I-0.319
N880 G1 X10.612
N885 X10.604
N890 G18 G3 X10.404 Z-3.31 K0.2
N895 G1 Z1
N900 X15.365 Y135.98
N905 Z-3.31 F400
N910 X15.36 Y135.985 Z-3.362
N915 X15.346 Y135.999 Z-3.41
N920 X15.324 Y136.022 Z-3.451
N925 X15.295 Y136.052 Z-3.483
N930 X15.261 Y136.086 Z-3.503
N935 X15.225 Y136.123 Z-3.51
N940 X15.211 Y136.137
N945 X15.162 Y136.178 F600
N950 X15.106 Y136.209
N955 X15.046 Y136.227
N960 X14.982 Y136.234
N965 X10.61
N970 G17 G3 X10.461 Y135.9 J-0.2
N975 G1 X14.953 Y130.904
N980 G3 X15.302 Y131.038 I0.149 J0.134
N985 G1 Y135.519
N990 G3 X14.519 Y135.52 I-0.391
N995 G1 X14.514 Y133.347
N1000 X14.519 Y133.279
N1005 X14.911 Y131.038
N1010 G3 X15.274 Y130.715 I0.385 J0.067
N1015 G1 X16.453 Y130.649
N1020 G3 X16.866 Y131.04 I0.022 J0.391
N1025 G1 Y137.479
N1030 G3 X16.547 Y137.798 I-0.319
N1035 G1 X10.608
N1040 X10.6
N1045 G18 G3 X10.4 Z-3.31 K0.2
N1050 G1 X18.431 Y128.05
N1055 G19 G3 Y128.25 Z-3.51 J0.2 F400
N1060 G1 Y131.042
N1065 Y139.043 F600
N1070 G17 G3 X18.111 Y139.363 I-0.319
N1075 G1 X10.606
N1080 X9.606
N1085 G18 G3 X9.406 Z-3.31 K0.2
N1090 G1 X19.53 Y128.052
N1095 Z-3.33
N1100 X19.531 Y128.058 Z-3.377 F400
N1105 X19.534 Y128.076 Z-3.42
N1110 X19.539 Y128.104 Z-3.457
N1115 X19.544 Y128.141 Z-3.486
N1120 X19.551 Y128.183 Z-3.504
N1125 X19.558 Y128.23 Z-3.51
N1130 X19.998 Y131.002
N1135 X20 Y131.033
N1140 Y140.932 F600
N1145 X11.5
N1150 X10.601
N1155 X10.57 Y140.93
N1160 X9.582 Y140.773
N1165 X9.531 Y140.765 Z-3.503
N1170 X9.483 Y140.757 Z-3.483
N1175 X9.442 Y140.751 Z-3.451
N1180 X9.411 Y140.746 Z-3.41
N1185 X9.391 Y140.743 Z-3.362
N1190 X9.384 Y140.742 Z-3.31
N1195 G0 Z15
N1200 X17.02 Y127.584
N1205 Z5
N1210 G1 Z-1.8 F400
N1215 G19 G2 Y127.384 Z-2 J-0.2
N1220 G1 Y124.164
N1225 Y120.555 F600
N1230 G17 G3 X17.803 Y120.553 I0.391
N1235 G1 X17.812 Y122.275
N1240 X17.809 Y122.317
N1245 X17.803 Y122.359
N1250 X17.412 Y124.164
N1255 G3 X17.224 Y124.42 I-0.382 J-0.083
N1260 G1 X16.042 Y125.101
N1265 G3 X15.456 Y124.762 I-0.195 J-0.339
N1270 G1 Y119.967
N1275 G3 X16.238 Y119.966 I0.391
N1280 G1 X16.243 Y122.3
N1285 X16.238 Y122.364
N1290 X15.847 Y124.762
N1295 G3 X15.481 Y125.089 I-0.386 J-0.063
N1300 G1 X14.303 Y125.15
N1305 G3 X13.892 Y124.76 I-0.02 J-0.391
N1310 G1 Y115.32
N1315 G3 X14.674 I0.391
N1320 G1 Y120.04
N1325 X14.283 Y124.76
N1330 G3 X13.903 Y125.118 I-0.39 J-0.032
N1335 G1 X12.728 Y125.148
N1340 G3 X12.327 Y124.757 I-0.01 J-0.391
N1345 G1 Y115.045
N1350 G3 X13.109 I0.391
N1355 G1 Y119.901
N1360 X12.718 Y124.757
N1365 G3 X12.338 Y125.117 I-0.39 J-0.031
N1370 G1 X11.164 Y125.146
N1375 G3 X10.763 Y124.755 I-0.01 J-0.391
N1380 G1 Y115.043
N1385 G3 X11.545 I0.391
N1390 G1 Y119.899
N1395 X11.154 Y124.755
N1400 G3 X10.774 Y125.115 I-0.39 J-0.031
N1405 G1 X9.599 Y125.144
N1410 G3 X9.198 Y124.753 I-0.01 J-0.391
N1415 G1 Y120.803
N1420 Y119.972
N1425 Y115.041
N1430 G2 X8.799 Y115.026 I-0.2
N1435 G1 X8.033 Y124.767
N1440 G3 X7.634 Y124.751 I-0.199 J-0.016
N1445 G1 Y115.039
N1450 G3 X8.416 I0.391
N1455 G1 Y119.895
N1460 X8.025 Y124.751
N1465 G3 X7.649 Y125.111 I-0.39 J-0.031
N1470 G1 X6.475 Y125.154
N1475 G3 X6.069 Y124.763 I-0.014 J-0.391
N1480 G1 Y115.037
N1485 G3 X6.852 I0.391
N1490 G1 Y119.9
N1495 X6.461 Y124.763
N1500 G3 X6.08 Y125.123 I-0.39 J-0.031
N1505 G1 X4.9 Y125.149
N1510 G3 X4.5 Y124.758 I-0.009 J-0.391
N1515 G1 Y115.033
N1520 G3 X4.828 Y114.879 I0.2
N1525 G1 X16.693 Y124.734
N1530 G2 X17.02 Y124.58 I0.128 J-0.154
N1535 G19 G3 Y124.38 Z-2.2 K-0.2 F400
N1540 G1 Z-3.3
N1545 G2 Y124.18 Z-3.5 J-0.2
N1550 G1 Y124.164
N1555 Y120.555 F600
N1560 G17 G3 X17.803 Y120.553 I0.391
N1565 G1 X17.812 Y122.275
N1570 X17.809 Y122.317
N1575 X17.803 Y122.359
N1580 X17.412 Y124.164
N1585 G3 X17.224 Y124.42 I-0.382 J-0.083
N1590 G1 X16.042 Y125.101
N1595 G3 X15.456 Y124.762 I-0.195 J-0.339
N1600 G1 Y119.967
N1605 G3 X16.238 Y119.966 I0.391
N1610 G1 X16.243 Y122.3
N1615 X16.238 Y122.364
N1620 X15.847 Y124.762
N1625 G3 X15.481 Y125.089 I-0.386 J-0.063
N1630 G1 X14.303 Y125.15
N1635 G3 X13.892 Y124.76 I-0.02 J-0.391
N1640 G1 Y115.32
N1645 G3 X14.674 I0.391
N1650 G1 Y120.04
N1655 X14.283 Y124.76
N1660 G3 X13.903 Y125.118 I-0.39 J-0.032
N1665 G1 X12.728 Y125.148
N1670 G3 X12.327 Y124.757 I-0.01 J-0.391
N1675 G1 Y115.045
N1680 G3 X13.109 I0.391
N1685 G1 Y119.901
N1690 X12.718 Y124.757
N1695 G3 X12.338 Y125.117 I-0.39 J-0.031
N1700 G1 X11.164 Y125.146
N1705 G3 X10.763 Y124.755 I-0.01 J-0.391
N1710 G1 Y115.043
N1715 G3 X11.545 I0.391
N1720 G1 Y119.899
N1725 X11.154 Y124.755
N1730 G3 X10.774 Y125.115 I-0.39 J-0.031
N1735 G1 X9.599 Y125.144
N1740 G3 X9.198 Y124.753 I-0.01 J-0.391
N1745 G1 Y120.803
N1750 Y119.972
N1755 Y115.041
N1760 G2 X8.799 Y115.026 I-0.2
N1765 G1 X8.033 Y124.767
N1770 G3 X7.634 Y124.751 I-0.199 J-0.016
N1775 G1 Y115.039
N1780 G3 X8.416 I0.391
N1785 G1 Y119.895
N1790 X8.025 Y124.751
N1795 G3 X7.649 Y125.111 I-0.39 J-0.031
N1800 G1 X6.475 Y125.154
N1805 G3 X6.069 Y124.763 I-0.014 J-0.391
N1810 G1 Y115.037
N1815 G3 X6.852 I0.391
N1820 G1 Y119.9
N1825 X6.461 Y124.763
N1830 G3 X6.08 Y125.123 I-0.39 J-0.031
N1835 G1 X4.9 Y125.149
N1840 G3 X4.5 Y124.758 I-0.009 J-0.391
N1845 G1 Y115.033
N1850 X4.502 Y115.002
N1855 X4.659 Y114.014
N1860 X4.667 Y113.963 Z-3.493
N1865 X4.675 Y113.915 Z-3.473
N1870 X4.681 Y113.874 Z-3.441
N1875 X4.686 Y113.843 Z-3.4
N1880 X4.689 Y113.823 Z-3.352
N1885 X4.69 Y113.816 Z-3.3
N1890 G0 Z15
N1895 X7.599 Y54.759
N1900 Z5
N1905 G1 Z-1.8 F400
N1910 G18 G2 X7.799 Z-2 I0.2
N1915 G1 X10.602
N1920 X11.854 F600
N1925 G17 G3 X12.173 Y55.078 J0.319
N1930 G1 Y56.822
N1935 G3 X11.391 I-0.391
N1940 X11.412 Y56.693 I0.391
N1945 G1 X11.792 Y55.604
N1950 G2 X11.391 Y55.085 I-0.369 J-0.129
N1955 G1 X10.602 Y55.15
N1960 G3 X10.179 Y54.749 I-0.032 J-0.39
N1965 G1 X10.213 Y53.574
N1970 G3 X10.604 Y53.195 I0.391 J0.011
N1975 G1 X13.418
N1980 G3 X13.737 Y53.514 J0.319
N1985 G1 Y56.824
N1990 G3 X13.319 Y57.214 I-0.391
N1995 X12.959 Y56.77 I0.027 J-0.39
N2000 G1 X13.354 Y53.963
N2005 G2 X12.955 Y53.518 I-0.387 J-0.054
N2010 G1 X10.604 Y53.586
N2015 G3 X10.52 Y52.811 I-0.011 J-0.391
N2020 G1 X14.837 Y51.988
N2025 G3 X15.302 Y52.372 I0.073 J0.384
N2030 G1 Y56.826
N2035 G3 X14.953 Y56.96 I-0.2
N2040 G1 X10.457 Y51.964
N2045 G3 X10.606 Y51.63 I0.149 J-0.134
N2050 G1 X14.982
N2055 X15.044 Y51.636
N2060 X15.103 Y51.654
N2065 X15.157 Y51.682
N2070 X15.205 Y51.721
N2075 G3 X14.937 Y52.392 I-0.273 J0.28
N2080 G1 X12.988 Y52.418
N2085 X12.918 Y52.413
N2090 X10.606 Y52.021
N2095 G3 X10.281 Y51.657 I0.065 J-0.386
N2100 G1 X10.218 Y50.478
N2105 G3 X10.608 Y50.066 I0.391 J-0.021
N2110 G1 X16.547
N2115 G3 X16.866 Y50.385 J0.319
N2120 G1 Y56.828
N2125 G3 X16.462 Y57.219 I-0.391
N2130 X16.085 Y56.803 I0.013 J-0.391
N2135 G1 X16.479 Y50.803
N2140 G2 X16.084 Y50.387 I-0.39 J-0.026
N2145 G1 X10.608 Y50.457
N2150 G3 X10.212 Y50.064 I-0.005 J-0.391
N2155 G1 X10.219 Y48.89
N2160 G3 X10.61 Y48.501 I0.391 J0.002
N2165 G1 X18.111
N2170 G3 X18.431 Y48.821 J0.319
N2175 G1 Y56.83
N2180 G3 X18.029 Y57.221 I-0.391
N2185 X17.649 Y56.81 I0.01 J-0.391
N2190 G1 X18.043 Y49.236
N2195 G2 X17.648 Y48.824 I-0.391 J-0.02
N2200 G1 X10.61 Y48.893
N2205 G3 X10.215 Y48.503 I-0.004 J-0.391
N2210 G1 X10.21 Y47.325
N2215 G3 X10.601 Y46.932 I0.391 J-0.002
N2220 G1 X20
N2225 Y55.932
N2230 Y56.831
N2235 X19.993 Y56.867
N2240 X19.973 Y56.899
N2245 X19.944 Y56.921
N2250 X19.908 Y56.931
N2255 X13.443 Y57.449
N2260 X13.415 Y57.45
N2265 X13.388 Y57.444
N2270 X13.364 Y57.43
N2275 X10.133 Y54.938
N2280 X10.109 Y54.912
N2285 X10.096 Y54.879
N2290 X10.095 Y54.844
N2295 X10.107 Y54.811
N2300 X10.129 Y54.783
N2305 X10.159 Y54.765
N2310 X10.194 Y54.759
N2315 G18 G3 X10.394 Z-2.2 K-0.2 F400
N2320 G1 Z-3.31
N2325 G2 X10.594 Z-3.51 I0.2
N2330 G1 X10.602
N2335 X11.854 F600
N2340 G17 G3 X12.173 Y55.078 J0.319
N2345 G1 Y56.822
N2350 G3 X11.391 I-0.391
N2355 X11.412 Y56.693 I0.391
N2360 G1 X11.792 Y55.604
N2365 G2 X11.391 Y55.085 I-0.369 J-0.129
N2370 G1 X10.602 Y55.15
N2375 G3 X10.179 Y54.749 I-0.032 J-0.39
N2380 G1 X10.213 Y53.574
N2385 G3 X10.604 Y53.195 I0.391 J0.011
N2390 G1 X13.418
N2395 G3 X13.737 Y53.514 J0.319
N2400 G1 Y56.824
N2405 G3 X13.319 Y57.214 I-0.391
N2410 X12.959 Y56.77 I0.027 J-0.39
N2415 G1 X13.354 Y53.963
N2420 G2 X12.955 Y53.518 I-0.387 J-0.054
N2425 G1 X10.604 Y53.586
N2430 G3 X10.52 Y52.811 I-0.011 J-0.391
N2435 G1 X14.837 Y51.988
N2440 G3 X15.302 Y52.372 I0.073 J0.384
N2445 G1 Y56.826
N2450 G3 X14.953 Y56.96 I-0.2
N2455 G1 X10.457 Y51.964
N2460 G3 X10.606 Y51.63 I0.149 J-0.134
N2465 G1 X14.982
N2470 X15.044 Y51.636
N2475 X15.103 Y51.654
N2480 X15.157 Y51.682
N2485 X15.205 Y51.721
N2490 G3 X14.937 Y52.392 I-0.273 J0.28
N2495 G1 X12.988 Y52.418
N2500 X12.918 Y52.413
N2505 X10.606 Y52.021
N2510 G3 X10.281 Y51.657 I0.065 J-0.386
N2515 G1 X10.218 Y50.478
N2520 G3 X10.608 Y50.066 I0.391 J-0.021
N2525 G1 X16.547
N2530 G3 X16.866 Y50.385 J0.319
N2535 G1 Y56.828
N2540 G3 X16.462 Y57.219 I-0.391
N2545 X16.085 Y56.803 I0.013 J-0.391
N2550 G1 X16.479 Y50.803
N2555 G2 X16.084 Y50.387 I-0.39 J-0.026
N2560 G1 X10.608 Y50.457
N2565 G3 X10.212 Y50.064 I-0.005 J-0.391
N2570 G1 X10.219 Y48.89
N2575 G3 X10.61 Y48.501 I0.391 J0.002
N2580 G1 X18.111
N2585 G3 X18.431 Y48.821 J0.319
N2590 G1 Y56.83
N2595 G3 X18.029 Y57.221 I-0.391
N2600 X17.649 Y56.81 I0.01 J-0.391
N2605 G1 X18.043 Y49.236
N2610 G2 X17.648 Y48.824 I-0.391 J-0.02
N2615 G1 X10.61 Y48.893
N2620 G3 X10.215 Y48.503 I-0.004 J-0.391
N2625 G1 X10.21 Y47.325
N2630 G3 X10.601 Y46.932 I0.391 J-0.002
N2635 G1 X20
N2640 Y55.932
N2645 Y56.831
N2650 X19.998 Y56.862
N2655 X19.841 Y57.85
N2660 X19.833 Y57.901 Z-3.503
N2665 X19.825 Y57.949 Z-3.483
N2670 X19.819 Y57.99 Z-3.451
N2675 X19.814 Y58.021 Z-3.41
N2680 X19.811 Y58.041 Z-3.362
N2685 X19.81 Y58.048 Z-3.31
N2690 G0 Z15
N2695 X17.02 Y12.748
N2700 Z5
N2705 G1 Z-1.8 F400
N2710 G19 G2 Y12.548 Z-2 J-0.2
N2715 G1 Y7.302
N2720 Y3.692 F600
N2725 G17 G3 X17.803 Y3.69 I0.391
N2730 G1 X17.812 Y5.412
N2735 X17.809 Y5.455
N2740 X17.803 Y5.497
N2745 X17.412 Y7.302
N2750 G3 X17.224 Y7.558 I-0.382 J-0.083
N2755 G1 X16.042 Y8.238
N2760 G3 X15.456 Y7.899 I-0.195 J-0.339
N2765 G1 Y3.104
N2770 G3 X16.238 Y3.103 I0.391
N2775 G1 X16.243 Y5.438
N2780 X16.238 Y5.502
N2785 X15.847 Y7.899
N2790 X14.662 Y12.65
N2795 G3 X13.892 Y12.556 I-0.379 J-0.095
N2800 G1 Y3.102
N2805 G3 X14.674 I0.391
N2810 G1 Y7.829
N2815 X14.283 Y12.556
N2820 G3 X13.99 Y12.902 I-0.39 J-0.032
N2825 G1 X12.816 Y13.205
N2830 G3 X12.327 Y12.826 I-0.098 J-0.379
N2835 G1 Y3.1
N2840 G3 X13.109 I0.391
N2845 G1 Y7.963
N2850 X12.718 Y12.826
N2855 G3 X12.338 Y13.186 I-0.39 J-0.031
N2860 G1 X11.164 Y13.215
N2865 G3 X10.763 Y12.824 I-0.01 J-0.391
N2870 G1 Y3.112
N2875 G3 X11.545 I0.391
N2880 G1 Y7.968
N2885 X11.154 Y12.824
N2890 G3 X10.774 Y13.183 I-0.39 J-0.031
N2895 G1 X9.599 Y13.213
N2900 G3 X9.198 Y12.822 I-0.01 J-0.391
N2905 G1 Y7.891
N2910 Y7.073
N2915 Y3.11
N2920 G2 X8.799 Y3.094 I-0.2
N2925 G1 X8.033 Y12.835
N2930 G3 X7.634 Y12.82 I-0.199 J-0.016
N2935 G1 Y3.108
N2940 G3 X8.416 Y3.107 I0.391
N2945 G1 Y7.964
N2950 X8.025 Y12.82
N2955 G3 X7.649 Y13.179 I-0.39 J-0.031
N2960 G1 X6.475 Y13.222
N2965 G3 X6.069 Y12.831 I-0.014 J-0.391
N2970 G1 Y3.106
N2975 G3 X6.852 Y3.105 I0.391
N2980 G1 Y7.968
N2985 X6.461 Y12.831
N2990 G3 X6.08 Y13.191 I-0.39 J-0.031
N2995 G1 X4.9 Y13.218
N3000 G3 X4.5 Y12.827 I-0.009 J-0.391
N3005 G1 Y3.101
N3010 G3 X4.777 Y2.916 I0.2
N3015 G1 X16.744 Y7.902
N3020 G2 X17.02 Y7.717 I0.077 J-0.185
N3025 G19 G3 Y7.517 Z-2.2 K-0.2 F400
N3030 G1 Z-3.3
N3035 G2 Y7.317 Z-3.5 J-0.2
N3040 G1 Y7.302
N3045 Y3.692 F600
N3050 G17 G3 X17.803 Y3.69 I0.391
N3055 G1 X17.812 Y5.412
N3060 X17.809 Y5.455
N3065 X17.803 Y5.497
N3070 X17.412 Y7.302
N3075 G3 X17.224 Y7.558 I-0.382 J-0.083
N3080 G1 X16.042 Y8.238
N3085 G3 X15.456 Y7.899 I-0.195 J-0.339
N3090 G1 Y3.104
N3095 G3 X16.238 Y3.103 I0.391
N3100 G1 X16.243 Y5.438
N3105 X16.238 Y5.502
N3110 X15.847 Y7.899
N3115 X14.662 Y12.65
N3120 G3 X13.892 Y12.556 I-0.379 J-0.095
N3125 G1 Y3.102
N3130 G3 X14.674 I0.391
N3135 G1 Y7.829
N3140 X14.283 Y12.556
N3145 G3 X13.99 Y12.902 I-0.39 J-0.032
N3150 G1 X12.816 Y13.205
N3155 G3 X12.327 Y12.826 I-0.098 J-0.379
N3160 G1 Y3.1
N3165 G3 X13.109 I0.391
N3170 G1 Y7.963
N3175 X12.718 Y12.826
N3180 G3 X12.338 Y13.186 I-0.39 J-0.031
N3185 G1 X11.164 Y13.215
N3190 G3 X10.763 Y12.824 I-0.01 J-0.391
N3195 G1 Y3.112
N3200 G3 X11.545 I0.391
N3205 G1 Y7.968
N3210 X11.154 Y12.824
N3215 G3 X10.774 Y13.183 I-0.39 J-0.031
N3220 G1 X9.599 Y13.213
N3225 G3 X9.198 Y12.822 I-0.01 J-0.391
N3230 G1 Y7.891
N3235 Y7.073
N3240 Y3.11
N3245 G2 X8.799 Y3.094 I-0.2
N3250 G1 X8.033 Y12.835
N3255 G3 X7.634 Y12.82 I-0.199 J-0.016
N3260 G1 Y3.108
N3265 G3 X8.416 Y3.107 I0.391
N3270 G1 Y7.964
N3275 X8.025 Y12.82
N3280 G3 X7.649 Y13.179 I-0.39 J-0.031
N3285 G1 X6.475 Y13.222
N3290 G3 X6.069 Y12.831 I-0.014 J-0.391
N3295 G1 Y3.106
N3300 G3 X6.852 Y3.105 I0.391
N3305 G1 Y7.968
N3310 X6.461 Y12.831
N3315 G3 X6.08 Y13.191 I-0.39 J-0.031
N3320 G1 X4.9 Y13.218
N3325 G3 X4.5 Y12.827 I-0.009 J-0.391
N3330 G1 Y3.101
N3335 X4.502 Y3.07
N3340 X4.659 Y2.082
N3345 X4.667 Y2.031 Z-3.493
N3350 X4.675 Y1.983 Z-3.473
N3355 X4.681 Y1.942 Z-3.441
N3360 X4.686 Y1.911 Z-3.4
N3365 X4.689 Y1.891 Z-3.352
N3370 X4.69 Y1.884 Z-3.3
N3375 G0 Z15
N3380 X40.007 Y37.85
N3385 Z5
N3390 G1 Z2.7 F400
N3395 X40.002 Y37.875 Z2.602 F600
N3400 X39.986 Y37.944 Z2.529
N3405 X39.956 Y38.036 Z2.5
N3410 G3 X38.184 Y37.348 Z2.396 I-0.886 J-0.344
N3415 X39.956 Y38.036 Z2.292 I0.886 J0.344
N3420 X38.184 Y37.348 Z2.187 I-0.886 J-0.344
N3425 X39.956 Y38.036 Z2.083 I0.886 J0.344
N3430 X38.184 Y37.348 Z1.979 I-0.886 J-0.344
N3435 X39.956 Y38.036 Z1.875 I0.886 J0.344
N3440 X38.184 Y37.348 Z1.77 I-0.886 J-0.344
N3445 X39.956 Y38.036 Z1.666 I0.886 J0.344
N3450 X38.184 Y37.348 Z1.562 I-0.886 J-0.344
N3455 X39.956 Y38.036 Z1.458 I0.886 J0.344
N3460 X38.184 Y37.348 Z1.354 I-0.886 J-0.344
N3465 X39.956 Y38.036 Z1.249 I0.886 J0.344
N3470 X38.184 Y37.348 Z1.145 I-0.886 J-0.344
N3475 X39.956 Y38.036 Z1.041 I0.886 J0.344
N3480 X38.184 Y37.348 Z0.937 I-0.886 J-0.344
N3485 X39.956 Y38.036 Z0.832 I0.886 J0.344
N3490 X38.184 Y37.348 Z0.728 I-0.886 J-0.344
N3495 X39.956 Y38.036 Z0.624 I0.886 J0.344
N3500 X38.184 Y37.348 Z0.52 I-0.886 J-0.344
N3505 X39.956 Y38.036 Z0.416 I0.886 J0.344
N3510 X38.184 Y37.348 Z0.311 I-0.886 J-0.344
N3515 X39.956 Y38.036 Z0.207 I0.886 J0.344
N3520 X38.184 Y37.348 Z0.103 I-0.886 J-0.344
N3525 X39.956 Y38.036 Z-0.001 I0.886 J0.344
N3530 X38.184 Y37.348 Z-0.106 I-0.886 J-0.344
N3535 X39.956 Y38.036 Z-0.21 I0.886 J0.344
N3540 X38.184 Y37.348 Z-0.314 I-0.886 J-0.344
N3545 X39.956 Y38.036 Z-0.418 I0.886 J0.344
N3550 X38.184 Y37.348 Z-0.522 I-0.886 J-0.344
N3555 X39.956 Y38.036 Z-0.627 I0.886 J0.344
N3560 X38.184 Y37.348 Z-0.731 I-0.886 J-0.344
N3565 X39.956 Y38.036 Z-0.835 I0.886 J0.344
N3570 X38.184 Y37.348 Z-0.939 I-0.886 J-0.344
N3575 X39.956 Y38.036 Z-1.044 I0.886 J0.344
N3580 X38.184 Y37.348 Z-1.148 I-0.886 J-0.344
N3585 X39.956 Y38.036 Z-1.252 I0.886 J0.344
N3590 X38.184 Y37.348 Z-1.356 I-0.886 J-0.344
N3595 X39.956 Y38.036 Z-1.46 I0.886 J0.344
N3600 X38.184 Y37.348 Z-1.565 I-0.886 J-0.344
N3605 X39.956 Y38.036 Z-1.669 I0.886 J0.344
N3610 X38.184 Y37.348 Z-1.773 I-0.886 J-0.344
N3615 X39.956 Y38.036 Z-1.877 I0.886 J0.344
N3620 X38.184 Y37.348 Z-1.982 I-0.886 J-0.344
N3625 X38.5 Y36.932 Z-2 I0.886 J0.344
N3630 X41.5 Y40.932 I1.5 J2
N3635 X38.5 Y36.932 I-1.5 J-2
N3640 X41.5 Y40.932 Z-2.274 I1.5 J2
N3645 X38.5 Y36.932 Z-2.549 I-1.5 J-2
N3650 X41.5 Y40.932 Z-2.823 I1.5 J2
N3655 X37.542 Y39.391 Z-3 I-1.5 J-2
N3660 X42.458 Y38.473 I2.458 J-0.459
N3665 X37.542 Y39.391 I-2.458 J0.459
N3670 G1 X37.539 Y39.341 Z-2.987
N3675 X37.549 Y39.292 Z-2.973
N3680 X37.563 Y39.259 Z-2.937
N3685 X37.584 Y39.228 Z-2.9
N3690 X37.602 Y39.209 Z-2.8
N3695 G0 Z15

(2D ??28)
N3700 X40.12 Y51.713
N3705 Z15
N3710 Z5
N3715 G1 Z3 F600
N3720 Z-1.8
N3725 X40.127 Y51.712 Z-1.852
N3730 X40.146 Y51.709 Z-1.9
N3735 X40.178 Y51.704 Z-1.941
N3740 X40.219 Y51.698 Z-1.973
N3745 X40.267 Y51.691 Z-1.993
N3750 X40.318 Y51.684 Z-2
N3755 X40.516 Y51.656 F400
N3760 G3 X40.742 Y51.825 I0.029 J0.198
N3765 X39.258 Y52.039 I-0.742 J0.107 F600
N3770 X40.742 Y51.825 I0.742 J-0.107
N3775 X40.573 Y52.051 I-0.198 J0.029
N3780 G1 X40.375 Y52.08
N3785 X40.324 Y52.087 Z-1.993
N3790 X40.276 Y52.094 Z-1.973
N3795 X40.235 Y52.1 Z-1.941
N3800 X40.204 Y52.105 Z-1.9
N3805 X40.184 Y52.108 Z-1.852
N3810 X40.177 Y52.109 Z-1.8
N3815 G0 Z5
N3820 X40.12 Y51.713
N3825 G1 Z1 F600
N3830 Z-3.8
N3835 X40.127 Y51.712 Z-3.852
N3840 X40.146 Y51.709 Z-3.9
N3845 X40.178 Y51.704 Z-3.941
N3850 X40.219 Y51.698 Z-3.973
N3855 X40.267 Y51.691 Z-3.993
N3860 X40.318 Y51.684 Z-4
N3865 X40.516 Y51.656 F400
N3870 G3 X40.742 Y51.825 I0.029 J0.198
N3875 X39.258 Y52.039 I-0.742 J0.107 F600
N3880 X40.742 Y51.825 I0.742 J-0.107
N3885 X40.573 Y52.051 I-0.198 J0.029
N3890 G1 X40.375 Y52.08
N3895 X40.324 Y52.087 Z-3.993
N3900 X40.276 Y52.094 Z-3.973
N3905 X40.235 Y52.1 Z-3.941
N3910 X40.204 Y52.105 Z-3.9
N3915 X40.184 Y52.108 Z-3.852
N3920 X40.177 Y52.109 Z-3.8
N3925 G0 Z5
N3930 X48.15 Y7.282
N3935 G1 Z3 F600
N3940 Z-1.8
N3945 G18 G2 X48.35 Z-2 I0.2
N3950 G1 X48.55 F400
N3955 G17 G3 X48.75 Y7.482 J0.2
N3960 X47.25 I-0.75 F600
N3965 X48.75 I0.75
N3970 X48.55 Y7.682 I-0.2
N3975 G1 X48.35
N3980 G18 G3 X48.15 Z-1.8 K0.2
N3985 G0 Z5
N3990 Y7.282
N3995 G1 Z1 F600
N4000 Z-3.8
N4005 G2 X48.35 Z-4 I0.2
N4010 G1 X48.55 F400
N4015 G17 G3 X48.75 Y7.482 J0.2
N4020 X47.25 I-0.75 F600
N4025 X48.75 I0.75
N4030 X48.55 Y7.682 I-0.2
N4035 G1 X48.35
N4040 G18 G3 X48.15 Z-3.8 K0.2
N4045 G0 Z5
N4050 Y120.182
N4055 G1 Z3 F600
N4060 Z-1.8
N4065 G2 X48.35 Z-2 I0.2
N4070 G1 X48.55 F400
N4075 G17 G3 X48.75 Y120.382 J0.2
N4080 X47.25 I-0.75 F600
N4085 X48.75 I0.75
N4090 X48.55 Y120.582 I-0.2
N4095 G1 X48.35
N4100 G18 G3 X48.15 Z-1.8 K0.2
N4105 G0 Z5
N4110 Y120.182
N4115 G1 Z1 F600
N4120 Z-3.8
N4125 G2 X48.35 Z-4 I0.2
N4130 G1 X48.55 F400
N4135 G17 G3 X48.75 Y120.382 J0.2
N4140 X47.25 I-0.75 F600
N4145 X48.75 I0.75
N4150 X48.55 Y120.582 I-0.2
N4155 G1 X48.35
N4160 G18 G3 X48.15 Z-3.8 K0.2
N4165 G0 Z5
N4170 X40.12 Y135.713
N4175 G1 Z3 F600
N4180 Z-1.8
N4185 X40.127 Y135.712 Z-1.852
N4190 X40.146 Y135.709 Z-1.9
N4195 X40.178 Y135.704 Z-1.941
N4200 X40.219 Y135.698 Z-1.973
N4205 X40.267 Y135.691 Z-1.993
N4210 X40.318 Y135.684 Z-2
N4215 X40.516 Y135.655 F400
N4220 G17 G3 X40.742 Y135.825 I0.029 J0.198
N4225 X39.258 Y136.039 I-0.742 J0.107 F600
N4230 X40.742 Y135.825 I0.742 J-0.107
N4235 X40.573 Y136.051 I-0.198 J0.029
N4240 G1 X40.375 Y136.08
N4245 X40.324 Y136.087 Z-1.993
N4250 X40.276 Y136.094 Z-1.973
N4255 X40.235 Y136.1 Z-1.941
N4260 X40.204 Y136.105 Z-1.9
N4265 X40.184 Y136.108 Z-1.852
N4270 X40.177 Y136.109 Z-1.8
N4275 G0 Z5
N4280 X40.12 Y135.713
N4285 G1 Z1 F600
N4290 Z-3.8
N4295 X40.127 Y135.712 Z-3.852
N4300 X40.146 Y135.709 Z-3.9
N4305 X40.178 Y135.704 Z-3.941
N4310 X40.219 Y135.698 Z-3.973
N4315 X40.267 Y135.691 Z-3.993
N4320 X40.318 Y135.684 Z-4
N4325 X40.516 Y135.655 F400
N4330 G3 X40.742 Y135.825 I0.029 J0.198
N4335 X39.258 Y136.039 I-0.742 J0.107 F600
N4340 X40.742 Y135.825 I0.742 J-0.107
N4345 X40.573 Y136.051 I-0.198 J0.029
N4350 G1 X40.375 Y136.08
N4355 X40.324 Y136.087 Z-3.993
N4360 X40.276 Y136.094 Z-3.973
N4365 X40.235 Y136.1 Z-3.941
N4370 X40.204 Y136.105 Z-3.9
N4375 X40.184 Y136.108 Z-3.852
N4380 X40.177 Y136.109 Z-3.8
N4385 G0 Z15
N4390 X16.15 Y38.732
N4395 Z5
N4400 G1 Z3 F600
N4405 Z-1.8
N4410 G18 G2 X16.35 Z-2 I0.2
N4415 G1 X16.55 F400
N4420 G17 G3 X16.75 Y38.932 J0.2
N4425 X15.25 I-0.75 F600
N4430 X16.75 I0.75
N4435 X16.55 Y39.132 I-0.2
N4440 G1 X16.35
N4445 G18 G3 X16.15 Z-1.8 K0.2
N4450 G0 Z5
N4455 Y38.732
N4460 G1 Z1 F600
N4465 Z-3.81
N4470 G2 X16.35 Z-4.01 I0.2
N4475 G1 X16.55 F400
N4480 G17 G3 X16.75 Y38.932 J0.2
N4485 X15.25 I-0.75 F600
N4490 X16.75 I0.75
N4495 X16.55 Y39.132 I-0.2
N4500 G1 X16.35
N4505 G18 G3 X16.15 Z-3.81 K0.2
N4510 G0 Z5
N4515 Y148.732
N4520 G1 Z3 F600
N4525 Z-1.8
N4530 G2 X16.35 Z-2 I0.2
N4535 G1 X16.55 F400
N4540 G17 G3 X16.75 Y148.932 J0.2
N4545 X15.25 I-0.75 F600
N4550 X16.75 I0.75
N4555 X16.55 Y149.132 I-0.2
N4560 G1 X16.35
N4565 G18 G3 X16.15 Z-1.8 K0.2
N4570 G0 Z5
N4575 Y148.732
N4580 G1 Z1 F600
N4585 Z-3.81
N4590 G2 X16.35 Z-4.01 I0.2
N4595 G1 X16.55 F400
N4600 G17 G3 X16.75 Y148.932 J0.2
N4605 X15.25 I-0.75 F600
N4610 X16.75 I0.75
N4615 X16.55 Y149.132 I-0.2
N4620 G1 X16.35
N4625 G18 G3 X16.15 Z-3.81 K0.2
N4630 G0 Z15
N4635 X40.15 Y38.732
N4640 Z5
N4645 G1 Z3 F600
N4650 Z-1.8
N4655 G2 X40.35 Z-2 I0.2
N4660 G1 X40.55 F400
N4665 G17 G3 X40.75 Y38.932 J0.2
N4670 X39.25 I-0.75 F600
N4675 X40.75 I0.75
N4680 X40.55 Y39.132 I-0.2
N4685 G1 X40.35
N4690 G18 G3 X40.15 Z-1.8 K0.2
N4695 G0 Z5
N4700 Y38.732
N4705 G1 Z1 F600
N4710 Z-3.8
N4715 G2 X40.35 Z-4 I0.2
N4720 G1 X40.55 F400
N4725 G17 G3 X40.75 Y38.932 J0.2
N4730 X39.25 I-0.75 F600
N4735 X40.75 I0.75
N4740 X40.55 Y39.132 I-0.2
N4745 G1 X40.35
N4750 G18 G3 X40.15 Z-3.8 K0.2
N4755 G0 Z5
N4760 Y38.732
N4765 G1 Z-1 F600
N4770 Z-5.8
N4775 G2 X40.35 Z-6 I0.2
N4780 G1 X40.55 F400
N4785 G17 G3 X40.75 Y38.932 J0.2
N4790 X39.25 I-0.75 F600
N4795 X40.75 I0.75
N4800 X40.55 Y39.132 I-0.2
N4805 G1 X40.35
N4810 G18 G3 X40.15 Z-5.8 K0.2
N4815 G0 Z5
N4820 Y38.732
N4825 G1 Z-3 F600
N4830 Z-6.8
N4835 G2 X40.35 Z-7 I0.2
N4840 G1 X40.55 F400
N4845 G17 G3 X40.75 Y38.932 J0.2
N4850 X39.25 I-0.75 F600
N4855 X40.75 I0.75
N4860 X40.55 Y39.132 I-0.2
N4865 G1 X40.35
N4870 G18 G3 X40.15 Z-6.8 K0.2
N4875 G0 Z5
N4880 Y148.732
N4885 G1 Z3 F600
N4890 Z-1.8
N4895 G2 X40.35 Z-2 I0.2
N4900 G1 X40.55 F400
N4905 G17 G3 X40.75 Y148.932 J0.2
N4910 X39.25 I-0.75 F600
N4915 X40.75 I0.75
N4920 X40.55 Y149.132 I-0.2
N4925 G1 X40.35
N4930 G18 G3 X40.15 Z-1.8 K0.2
N4935 G0 Z5
N4940 Y148.732
N4945 G1 Z1 F600
N4950 Z-3.8
N4955 G2 X40.35 Z-4 I0.2
N4960 G1 X40.55 F400
N4965 G17 G3 X40.75 Y148.932 J0.2
N4970 X39.25 I-0.75 F600
N4975 X40.75 I0.75
N4980 X40.55 Y149.132 I-0.2
N4985 G1 X40.35
N4990 G18 G3 X40.15 Z-3.8 K0.2
N4995 G0 Z5
N5000 Y148.732
N5005 G1 Z-1 F600
N5010 Z-5.8
N5015 G2 X40.35 Z-6 I0.2
N5020 G1 X40.55 F400
N5025 G17 G3 X40.75 Y148.932 J0.2
N5030 X39.25 I-0.75 F600
N5035 X40.75 I0.75
N5040 X40.55 Y149.132 I-0.2
N5045 G1 X40.35
N5050 G18 G3 X40.15 Z-5.8 K0.2
N5055 G0 Z5
N5060 Y148.732
N5065 G1 Z-3 F600
N5070 Z-6.8
N5075 G2 X40.35 Z-7 I0.2
N5080 G1 X40.55 F400
N5085 G17 G3 X40.75 Y148.932 J0.2
N5090 X39.25 I-0.75 F600
N5095 X40.75 I0.75
N5100 X40.55 Y149.132 I-0.2
N5105 G1 X40.35
N5110 G18 G3 X40.15 Z-6.8 K0.2
N5115 G0 Z15
N5120 X8.65 Y7.282
N5125 Z5
N5130 G1 Z3 F600
N5135 Z-1.8
N5140 G2 X8.85 Z-2 I0.2
N5145 G1 X9.05 F400
N5150 G17 G3 X9.25 Y7.482 J0.2
N5155 X7.75 I-0.75 F600
N5160 X9.25 I0.75
N5165 X9.05 Y7.682 I-0.2
N5170 G1 X8.85
N5175 G18 G3 X8.65 Z-1.8 K0.2
N5180 G0 Z5
N5185 Y7.282
N5190 G1 Z1 F600
N5195 Z-3.8
N5200 G2 X8.85 Z-4 I0.2
N5205 G1 X9.05 F400
N5210 G17 G3 X9.25 Y7.482 J0.2
N5215 X7.75 I-0.75 F600
N5220 X9.25 I0.75
N5225 X9.05 Y7.682 I-0.2
N5230 G1 X8.85
N5235 G18 G3 X8.65 Z-3.8 K0.2
N5240 G0 Z5
N5245 Y7.282
N5250 G1 Z-1 F600
N5255 Z-5.8
N5260 G2 X8.85 Z-6 I0.2
N5265 G1 X9.05 F400
N5270 G17 G3 X9.25 Y7.482 J0.2
N5275 X7.75 I-0.75 F600
N5280 X9.25 I0.75
N5285 X9.05 Y7.682 I-0.2
N5290 G1 X8.85
N5295 G18 G3 X8.65 Z-5.8 K0.2
N5300 G0 Z5
N5305 Y7.282
N5310 G1 Z-3 F600
N5315 Z-7.3
N5320 G2 X8.85 Z-7.5 I0.2
N5325 G1 X9.05 F400
N5330 G17 G3 X9.25 Y7.482 J0.2
N5335 X7.75 I-0.75 F600
N5340 X9.25 I0.75
N5345 X9.05 Y7.682 I-0.2
N5350 G1 X8.85
N5355 G18 G3 X8.65 Z-7.3 K0.2
N5360 G0 Z5
N5365 Y120.182
N5370 G1 Z3 F600
N5375 Z-1.8
N5380 G2 X8.85 Z-2 I0.2
N5385 G1 X9.05 F400
N5390 G17 G3 X9.25 Y120.382 J0.2
N5395 X7.75 I-0.75 F600
N5400 X9.25 I0.75
N5405 X9.05 Y120.582 I-0.2
N5410 G1 X8.85
N5415 G18 G3 X8.65 Z-1.8 K0.2
N5420 G0 Z5
N5425 Y120.182
N5430 G1 Z1 F600
N5435 Z-3.8
N5440 G2 X8.85 Z-4 I0.2
N5445 G1 X9.05 F400
N5450 G17 G3 X9.25 Y120.382 J0.2
N5455 X7.75 I-0.75 F600
N5460 X9.25 I0.75
N5465 X9.05 Y120.582 I-0.2
N5470 G1 X8.85
N5475 G18 G3 X8.65 Z-3.8 K0.2
N5480 G0 Z5
N5485 Y120.182
N5490 G1 Z-1 F600
N5495 Z-5.8
N5500 G2 X8.85 Z-6 I0.2
N5505 G1 X9.05 F400
N5510 G17 G3 X9.25 Y120.382 J0.2
N5515 X7.75 I-0.75 F600
N5520 X9.25 I0.75
N5525 X9.05 Y120.582 I-0.2
N5530 G1 X8.85
N5535 G18 G3 X8.65 Z-5.8 K0.2
N5540 G0 Z5
N5545 Y120.182
N5550 G1 Z-3 F600
N5555 Z-7.3
N5560 G2 X8.85 Z-7.5 I0.2
N5565 G1 X9.05 F400
N5570 G17 G3 X9.25 Y120.382 J0.2
N5575 X7.75 I-0.75 F600
N5580 X9.25 I0.75
N5585 X9.05 Y120.582 I-0.2
N5590 G1 X8.85
N5595 G18 G3 X8.65 Z-7.3 K0.2
N5600 G0 Z15
N5605 X16.177 Y51.756
N5610 Z5
N5615 G1 Z3 F600
N5620 Z-1.8
N5625 X16.184 Y51.757 Z-1.852
N5630 X16.204 Y51.759 Z-1.9
N5635 X16.235 Y51.764 Z-1.941
N5640 X16.276 Y51.77 Z-1.973
N5645 X16.324 Y51.777 Z-1.993
N5650 X16.375 Y51.784 Z-2
N5655 X16.573 Y51.813 F400
N5660 G17 G3 X16.742 Y52.039 I-0.029 J0.198
N5665 X15.258 Y51.825 I-0.742 J-0.107 F600
N5670 X16.742 Y52.039 I0.742 J0.107
N5675 X16.516 Y52.209 I-0.198 J-0.029
N5680 G1 X16.318 Y52.18
N5685 X16.267 Y52.173 Z-1.993
N5690 X16.219 Y52.166 Z-1.973
N5695 X16.178 Y52.16 Z-1.941
N5700 X16.146 Y52.155 Z-1.9
N5705 X16.127 Y52.152 Z-1.852
N5710 X16.12 Y52.151 Z-1.8
N5715 G0 Z5
N5720 X16.177 Y51.756
N5725 G1 Z1 F600
N5730 Z-3.8
N5735 X16.184 Y51.757 Z-3.852
N5740 X16.204 Y51.759 Z-3.9
N5745 X16.235 Y51.764 Z-3.941
N5750 X16.276 Y51.77 Z-3.973
N5755 X16.324 Y51.777 Z-3.993
N5760 X16.375 Y51.784 Z-4
N5765 X16.573 Y51.813 F400
N5770 G3 X16.742 Y52.039 I-0.029 J0.198
N5775 X15.258 Y51.825 I-0.742 J-0.107 F600
N5780 X16.742 Y52.039 I0.742 J0.107
N5785 X16.516 Y52.209 I-0.198 J-0.029
N5790 G1 X16.318 Y52.18
N5795 X16.267 Y52.173 Z-3.993
N5800 X16.219 Y52.166 Z-3.973
N5805 X16.178 Y52.16 Z-3.941
N5810 X16.146 Y52.155 Z-3.9
N5815 X16.127 Y52.152 Z-3.852
N5820 X16.12 Y52.151 Z-3.8
N5825 G0 Z5
N5830 X16.177 Y51.756
N5835 G1 Z-1 F600
N5840 Z-5.8
N5845 X16.184 Y51.757 Z-5.852
N5850 X16.204 Y51.759 Z-5.9
N5855 X16.235 Y51.764 Z-5.941
N5860 X16.276 Y51.77 Z-5.973
N5865 X16.324 Y51.777 Z-5.993
N5870 X16.375 Y51.784 Z-6
N5875 X16.573 Y51.813 F400
N5880 G3 X16.742 Y52.039 I-0.029 J0.198
N5885 X15.258 Y51.825 I-0.742 J-0.107 F600
N5890 X16.742 Y52.039 I0.742 J0.107
N5895 X16.516 Y52.209 I-0.198 J-0.029
N5900 G1 X16.318 Y52.18
N5905 X16.267 Y52.173 Z-5.993
N5910 X16.219 Y52.166 Z-5.973
N5915 X16.178 Y52.16 Z-5.941
N5920 X16.146 Y52.155 Z-5.9
N5925 X16.127 Y52.152 Z-5.852
N5930 X16.12 Y52.151 Z-5.8
N5935 G0 Z5
N5940 X16.177 Y51.756
N5945 G1 Z-3 F600
N5950 Z-7.31
N5955 X16.184 Y51.757 Z-7.362
N5960 X16.204 Y51.759 Z-7.41
N5965 X16.235 Y51.764 Z-7.451
N5970 X16.276 Y51.77 Z-7.483
N5975 X16.324 Y51.777 Z-7.503
N5980 X16.375 Y51.784 Z-7.51
N5985 X16.573 Y51.813 F400
N5990 G3 X16.742 Y52.039 I-0.029 J0.198
N5995 X15.258 Y51.825 I-0.742 J-0.107 F600
N6000 X16.742 Y52.039 I0.742 J0.107
N6005 X16.516 Y52.209 I-0.198 J-0.029
N6010 G1 X16.318 Y52.18
N6015 X16.267 Y52.173 Z-7.503
N6020 X16.219 Y52.166 Z-7.483
N6025 X16.178 Y52.16 Z-7.451
N6030 X16.146 Y52.155 Z-7.41
N6035 X16.127 Y52.152 Z-7.362
N6040 X16.12 Y52.151 Z-7.31
N6045 G0 Z5
N6050 X16.177 Y135.755
N6055 G1 Z3 F600
N6060 Z-1.8
N6065 X16.184 Y135.756 Z-1.852
N6070 X16.204 Y135.759 Z-1.9
N6075 X16.235 Y135.764 Z-1.941
N6080 X16.276 Y135.77 Z-1.973
N6085 X16.324 Y135.777 Z-1.993
N6090 X16.375 Y135.784 Z-2
N6095 X16.573 Y135.813 F400
N6100 G3 X16.742 Y136.039 I-0.029 J0.198
N6105 X15.258 Y135.825 I-0.742 J-0.107 F600
N6110 X16.742 Y136.039 I0.742 J0.107
N6115 X16.516 Y136.209 I-0.198 J-0.029
N6120 G1 X16.318 Y136.18
N6125 X16.267 Y136.173 Z-1.993
N6130 X16.219 Y136.166 Z-1.973
N6135 X16.178 Y136.16 Z-1.941
N6140 X16.146 Y136.155 Z-1.9
N6145 X16.127 Y136.152 Z-1.852
N6150 X16.12 Y136.151 Z-1.8
N6155 G0 Z5
N6160 X16.177 Y135.755
N6165 G1 Z1 F600
N6170 Z-3.8
N6175 X16.184 Y135.756 Z-3.852
N6180 X16.204 Y135.759 Z-3.9
N6185 X16.235 Y135.764 Z-3.941
N6190 X16.276 Y135.77 Z-3.973
N6195 X16.324 Y135.777 Z-3.993
N6200 X16.375 Y135.784 Z-4
N6205 X16.573 Y135.813 F400
N6210 G3 X16.742 Y136.039 I-0.029 J0.198
N6215 X15.258 Y135.825 I-0.742 J-0.107 F600
N6220 X16.742 Y136.039 I0.742 J0.107
N6225 X16.516 Y136.209 I-0.198 J-0.029
N6230 G1 X16.318 Y136.18
N6235 X16.267 Y136.173 Z-3.993
N6240 X16.219 Y136.166 Z-3.973
N6245 X16.178 Y136.16 Z-3.941
N6250 X16.146 Y136.155 Z-3.9
N6255 X16.127 Y136.152 Z-3.852
N6260 X16.12 Y136.151 Z-3.8
N6265 G0 Z5
N6270 X16.177 Y135.755
N6275 G1 Z-1 F600
N6280 Z-5.8
N6285 X16.184 Y135.756 Z-5.852
N6290 X16.204 Y135.759 Z-5.9
N6295 X16.235 Y135.764 Z-5.941
N6300 X16.276 Y135.77 Z-5.973
N6305 X16.324 Y135.777 Z-5.993
N6310 X16.375 Y135.784 Z-6
N6315 X16.573 Y135.813 F400
N6320 G3 X16.742 Y136.039 I-0.029 J0.198
N6325 X15.258 Y135.825 I-0.742 J-0.107 F600
N6330 X16.742 Y136.039 I0.742 J0.107
N6335 X16.516 Y136.209 I-0.198 J-0.029
N6340 G1 X16.318 Y136.18
N6345 X16.267 Y136.173 Z-5.993
N6350 X16.219 Y136.166 Z-5.973
N6355 X16.178 Y136.16 Z-5.941
N6360 X16.146 Y136.155 Z-5.9
N6365 X16.127 Y136.152 Z-5.852
N6370 X16.12 Y136.151 Z-5.8
N6375 G0 Z5
N6380 X16.177 Y135.755
N6385 G1 Z-3 F600
N6390 Z-7.31
N6395 X16.184 Y135.756 Z-7.362
N6400 X16.204 Y135.759 Z-7.41
N6405 X16.235 Y135.764 Z-7.451
N6410 X16.276 Y135.77 Z-7.483
N6415 X16.324 Y135.777 Z-7.503
N6420 X16.375 Y135.784 Z-7.51
N6425 X16.573 Y135.813 F400
N6430 G3 X16.742 Y136.039 I-0.029 J0.198
N6435 X15.258 Y135.825 I-0.742 J-0.107 F600
N6440 X16.742 Y136.039 I0.742 J0.107
N6445 X16.516 Y136.209 I-0.198 J-0.029
N6450 G1 X16.318 Y136.18
N6455 X16.267 Y136.173 Z-7.503
N6460 X16.219 Y136.166 Z-7.483
N6465 X16.178 Y136.16 Z-7.451
N6470 X16.146 Y136.155 Z-7.41
N6475 X16.127 Y136.152 Z-7.362
N6480 X16.12 Y136.151 Z-7.31
N6485 G0 Z15
N6490 M9
N6495 G28
N6500 M30
%
