%
(1001)
(T1 D=2 CR=0 - ZMIN=-9.1 - flat end mill)
N10 G90 G94
N15 G17
N20 G21
N25 M9
N30 G28

(2D ????15)
N35 T1 M6
(0)
N40 S23873 M3
N45 G54
N50 M8
N55 G0 X8.849 Y89.109
N60 G43 Z15
N65 Z5
N70 G1 Z-1.8 F400
N75 G18 G2 X9.049 Z-2 I0.2
N80 G1 X11.858
N85 X17.143 F600
N90 G17 G3 X17.343 Y89.31 J0.2
N95 G1 X17.342 Y90.055
N100 G3 X17.142 Y90.255 I-0.2
N105 G1 X11.857
N110 G3 X11.657 Y90.054 J-0.2
N115 G1 X11.659 Y88.132
N120 G3 X11.859 Y87.932 I0.2
N125 G1 X17.149
N130 G3 X17.349 Y88.133 J0.2
N135 G1 X17.341 Y91.233
N140 G3 X17.141 Y91.432 I-0.2 J-0.001
N145 G1 X11.851
N150 G3 X11.655 Y91.273 J-0.2
N155 G1 X11.254 Y89.35
N160 G3 X11.45 Y89.109 I0.196 J-0.041
N165 G18 G3 X11.65 Z-2.2 K-0.2 F400
N170 G1 Z-3.8
N175 G2 X11.85 Z-4 I0.2
N180 G1 X11.858
N185 X17.143 F600
N190 G17 G3 X17.343 Y89.31 J0.2
N195 G1 X17.342 Y90.055
N200 G3 X17.142 Y90.255 I-0.2
N205 G1 X11.857
N210 G3 X11.657 Y90.054 J-0.2
N215 G1 X11.659 Y88.132
N220 G3 X11.859 Y87.932 I0.2
N225 G1 X17.149
N230 G3 X17.349 Y88.133 J0.2
N235 G1 X17.341 Y91.233
N240 G3 X17.141 Y91.432 I-0.2 J-0.001
N245 G1 X11.851
N250 G3 X11.655 Y91.273 J-0.2
N255 G1 X11.254 Y89.35
N260 G3 X11.45 Y89.109 I0.196 J-0.041
N265 G18 G3 X11.65 Z-4.2 K-0.2 F400
N270 G1 Z-5.8
N275 G2 X11.85 Z-6 I0.2
N280 G1 X11.858
N285 X17.143 F600
N290 G17 G3 X17.343 Y89.31 J0.2
N295 G1 X17.342 Y90.055
N300 G3 X17.142 Y90.255 I-0.2
N305 G1 X11.857
N310 G3 X11.657 Y90.054 J-0.2
N315 G1 X11.659 Y88.132
N320 G3 X11.859 Y87.932 I0.2
N325 G1 X17.149
N330 G3 X17.349 Y88.133 J0.2
N335 G1 X17.341 Y91.233
N340 G3 X17.141 Y91.432 I-0.2 J-0.001
N345 G1 X11.851
N350 G3 X11.655 Y91.273 J-0.2
N355 G1 X11.254 Y89.35
N360 G3 X11.45 Y89.109 I0.196 J-0.041
N365 G18 G3 X11.65 Z-6.2 K-0.2 F400
N370 G1 Z-7.8
N375 G2 X11.85 Z-8 I0.2
N380 G1 X11.858
N385 X17.143 F600
N390 G17 G3 X17.343 Y89.31 J0.2
N395 G1 X17.342 Y90.055
N400 G3 X17.142 Y90.255 I-0.2
N405 G1 X11.857
N410 G3 X11.657 Y90.054 J-0.2
N415 G1 X11.659 Y88.132
N420 G3 X11.859 Y87.932 I0.2
N425 G1 X17.149
N430 G3 X17.349 Y88.133 J0.2
N435 G1 X17.341 Y91.233
N440 G3 X17.141 Y91.432 I-0.2 J-0.001
N445 G1 X11.851
N450 G3 X11.655 Y91.273 J-0.2
N455 G1 X11.254 Y89.35
N460 G3 X11.45 Y89.109 I0.196 J-0.041
N465 G18 G3 X11.65 Z-8.2 K-0.2 F400
N470 G1 Z-8.9
N475 G2 X11.85 Z-9.1 I0.2
N480 G1 X11.858
N485 X17.143 F600
N490 G17 G3 X17.343 Y89.31 J0.2
N495 G1 X17.342 Y90.055
N500 G3 X17.142 Y90.255 I-0.2
N505 G1 X11.857
N510 G3 X11.657 Y90.054 J-0.2
N515 G1 X11.659 Y88.132
N520 G3 X11.859 Y87.932 I0.2
N525 G1 X17.149
N530 G3 X17.349 Y88.133 J0.2
N535 G1 X17.341 Y91.233
N540 G3 X17.141 Y91.432 I-0.2 J-0.001
N545 G1 X11.851
N550 X11.82 Y91.43
N555 X10.832 Y91.273
N560 X10.781 Y91.265 Z-9.093
N565 X10.733 Y91.257 Z-9.073
N570 X10.692 Y91.251 Z-9.041
N575 X10.661 Y91.246 Z-9
N580 X10.641 Y91.243 Z-8.952
N585 X10.634 Y91.242 Z-8.9
N590 G0 Z15

(2D ??24)
N595 X17.85 Y128.064
N600 Z15
N605 Z5
N610 G1 Z3 F600
N615 Z-1.8
N620 G18 G3 X17.65 Z-2 I-0.2
N625 G1 X17.45 F400
N630 G17 G3 X17.25 Y127.864 J-0.2
N635 G1 Y0 F600
N640 G2 X16.25 Y-1 I-1
N645 G1 X12.75
N650 G2 X11.75 Y0 J1
N655 G1 Y3
N660 X0
N665 G2 X-1 Y4 J1
N670 G1 Y7
N675 G2 X0 Y8 I1
N680 G1 X2
N685 Y11.932
N690 G2 X3 Y12.932 I1
N695 G1 X11.75
N700 Y114.932
N705 X3
N710 G2 X2 Y115.932 J1
N715 G1 Y119.864
N720 X0
N725 G2 X-1 Y120.864 J1
N730 G1 Y123.864
N735 G2 X0 Y124.864 I1
N740 G1 X11.75
N745 Y127.864
N750 G2 X12.75 Y128.864 I1
N755 G1 X16.25
N760 G2 X17.25 Y127.864 J-1
N765 G3 X17.45 Y127.664 I0.2
N770 G1 X17.65
N775 G18 G2 X17.85 Z-1.8 K0.2
N780 G0 Z5
N785 Y128.064
N790 G1 Z1 F600
N795 Z-3.8
N800 G3 X17.65 Z-4 I-0.2
N805 G1 X17.45 F400
N810 G17 G3 X17.25 Y127.864 J-0.2
N815 G1 Y0 F600
N820 G2 X16.25 Y-1 I-1
N825 G1 X12.75
N830 G2 X11.75 Y0 J1
N835 G1 Y3
N840 X0
N845 G2 X-1 Y4 J1
N850 G1 Y7
N855 G2 X0 Y8 I1
N860 G1 X2
N865 Y11.932
N870 G2 X3 Y12.932 I1
N875 G1 X11.75
N880 Y114.932
N885 X3
N890 G2 X2 Y115.932 J1
N895 G1 Y119.864
N900 X0
N905 G2 X-1 Y120.864 J1
N910 G1 Y123.864
N915 G2 X0 Y124.864 I1
N920 G1 X11.75
N925 Y127.864
N930 G2 X12.75 Y128.864 I1
N935 G1 X16.25
N940 G2 X17.25 Y127.864 J-1
N945 G3 X17.45 Y127.664 I0.2
N950 G1 X17.65
N955 G18 G2 X17.85 Z-3.8 K0.2
N960 G0 Z5
N965 Y128.064
N970 G1 Z-1 F600
N975 Z-5.8
N980 G3 X17.65 Z-6 I-0.2
N985 G1 X17.45 F400
N990 G17 G3 X17.25 Y127.864 J-0.2
N995 G1 Y0 F600
N1000 G2 X16.25 Y-1 I-1
N1005 G1 X12.75
N1010 G2 X11.75 Y0 J1
N1015 G1 Y3
N1020 X0
N1025 G2 X-1 Y4 J1
N1030 G1 Y7
N1035 G2 X0 Y8 I1
N1040 G1 X2
N1045 Y11.932
N1050 G2 X3 Y12.932 I1
N1055 G1 X11.75
N1060 Y114.932
N1065 X3
N1070 G2 X2 Y115.932 J1
N1075 G1 Y119.864
N1080 X0
N1085 G2 X-1 Y120.864 J1
N1090 G1 Y123.864
N1095 G2 X0 Y124.864 I1
N1100 G1 X11.75
N1105 Y127.864
N1110 G2 X12.75 Y128.864 I1
N1115 G1 X16.25
N1120 G2 X17.25 Y127.864 J-1
N1125 G3 X17.45 Y127.664 I0.2
N1130 G1 X17.65
N1135 G18 G2 X17.85 Z-5.8 K0.2
N1140 G0 Z5
N1145 Y128.064
N1150 G1 Z-3 F600
N1155 Z-7.8
N1160 G3 X17.65 Z-8 I-0.2
N1165 G1 X17.45 F400
N1170 G17 G3 X17.25 Y127.864 J-0.2
N1175 G1 Y0 F600
N1180 G2 X16.25 Y-1 I-1
N1185 G1 X12.75
N1190 G2 X11.75 Y0 J1
N1195 G1 Y3
N1200 X0
N1205 G2 X-1 Y4 J1
N1210 G1 Y7
N1215 G2 X0 Y8 I1
N1220 G1 X2
N1225 Y11.932
N1230 G2 X3 Y12.932 I1
N1235 G1 X11.75
N1240 Y114.932
N1245 X3
N1250 G2 X2 Y115.932 J1
N1255 G1 Y119.864
N1260 X0
N1265 G2 X-1 Y120.864 J1
N1270 G1 Y123.864
N1275 G2 X0 Y124.864 I1
N1280 G1 X11.75
N1285 Y127.864
N1290 G2 X12.75 Y128.864 I1
N1295 G1 X16.25
N1300 G2 X17.25 Y127.864 J-1
N1305 G3 X17.45 Y127.664 I0.2
N1310 G1 X17.65
N1315 G18 G2 X17.85 Z-7.8 K0.2
N1320 G0 Z5
N1325 Y128.064
N1330 G1 Z-5 F600
N1335 Z-8.9
N1340 G3 X17.65 Z-9.1 I-0.2
N1345 G1 X17.45 F400
N1350 G17 G3 X17.25 Y127.864 J-0.2
N1355 G1 Y0 F600
N1360 G2 X16.25 Y-1 I-1
N1365 G1 X12.75
N1370 G2 X11.75 Y0 J1
N1375 G1 Y3
N1380 X0
N1385 G2 X-1 Y4 J1
N1390 G1 Y7
N1395 G2 X0 Y8 I1
N1400 G1 X2
N1405 Y11.932
N1410 G2 X3 Y12.932 I1
N1415 G1 X11.75
N1420 Y114.932
N1425 X3
N1430 G2 X2 Y115.932 J1
N1435 G1 Y119.864
N1440 X0
N1445 G2 X-1 Y120.864 J1
N1450 G1 Y123.864
N1455 G2 X0 Y124.864 I1
N1460 G1 X11.75
N1465 Y127.864
N1470 G2 X12.75 Y128.864 I1
N1475 G1 X16.25
N1480 G2 X17.25 Y127.864 J-1
N1485 G3 X17.45 Y127.664 I0.2
N1490 G1 X17.65
N1495 G18 G2 X17.85 Z-8.9 K0.2
N1500 G0 Z15
N1505 G17
N1510 M9
N1515 G28
N1520 M30
%
