%
(1001)
(T1 D=2 CR=0 - ZMIN=-7.5 - flat end mill)
N10 G90 G94
N15 G17
N20 G21
N25 M9
N30 G28

(2D ????12)
N35 T1 M6
(0)
N40 S23873 M3
N45 G54
N50 M8
N55 G0 X-0.77 Y115.063
N60 G43 Z15
N65 Z5
N70 G1 Z-1.8 F400
N75 G19 G3 Y115.263 Z-2 J0.2
N80 G1 Y120.562
N85 Y124.172 F600
N90 G17 G3 X-1.553 Y124.174 I-0.391
N95 G1 X-1.562 Y122.452
N100 X-1.559 Y122.409
N105 X-1.553 Y122.367
N110 X-1.162 Y120.562
N115 G3 X-0.974 Y120.306 I0.382 J0.083
N120 G1 X0.208 Y119.626
N125 G3 X0.794 Y119.965 I0.195 J0.339
N130 G1 Y124.76
N135 G3 X0.012 Y124.761 I-0.391
N140 G1 X0.007 Y122.426
N145 X0.012 Y122.363
N150 X0.403 Y119.965
N155 X1.588 Y115.214
N160 G3 X2.358 Y115.309 I0.379 J0.095
N165 G1 Y124.762
N170 G3 X1.576 I-0.391
N175 G1 Y120.035
N180 X1.967 Y115.309
N185 G3 X2.26 Y114.962 I0.39 J0.032
N190 G1 X3.434 Y114.659
N195 G3 X3.923 Y115.038 I0.098 J0.379
N200 G1 Y124.75
N205 G3 X3.141 I-0.391
N210 G1 Y119.894
N215 X3.532 Y115.038
N220 G3 X3.912 Y114.679 I0.39 J0.031
N225 G1 X5.086 Y114.649
N230 G3 X5.487 Y115.04 I0.01 J0.391
N235 G1 Y124.752
N240 G3 X4.705 Y124.753 I-0.391
N245 G1 Y119.896
N250 X5.096 Y115.04
N255 G3 X5.476 Y114.681 I0.39 J0.031
N260 G1 X6.651 Y114.651
N265 G3 X7.052 Y115.042 I0.01 J0.391
N270 G1 Y119.973
N275 Y120.791
N280 Y124.754
N285 G2 X7.451 Y124.77 I0.2
N290 G1 X8.217 Y115.029
N295 G3 X8.616 Y115.044 I0.199 J0.016
N300 G1 Y124.757
N305 G3 X7.834 I-0.391
N310 G1 Y119.9
N315 X8.225 Y115.044
N320 G3 X8.601 Y114.685 I0.39 J0.031
N325 G1 X9.775 Y114.642
N330 G3 X10.181 Y115.033 I0.014 J0.391
N335 G1 Y124.759
N340 G3 X9.398 I-0.391
N345 G1 Y119.896
N350 X9.789 Y115.033
N355 G3 X10.17 Y114.673 I0.39 J0.031
N360 G1 X11.35 Y114.646
N365 G3 X11.75 Y115.037 I0.009 J0.391
N370 G1 Y124.763
N375 G3 X11.473 Y124.948 I-0.2
N380 G1 X-0.494 Y119.962
N385 G2 X-0.77 Y120.147 I-0.077 J0.185
N390 G19 G2 Y120.347 Z-2.2 K-0.2 F400
N395 G1 Z-3.3
N400 G3 Y120.547 Z-3.5 J0.2
N405 G1 Y120.562
N410 Y124.172 F600
N415 G17 G3 X-1.553 Y124.174 I-0.391
N420 G1 X-1.562 Y122.452
N425 X-1.559 Y122.409
N430 X-1.553 Y122.367
N435 X-1.162 Y120.562
N440 G3 X-0.974 Y120.306 I0.382 J0.083
N445 G1 X0.208 Y119.626
N450 G3 X0.794 Y119.965 I0.195 J0.339
N455 G1 Y124.76
N460 G3 X0.012 Y124.761 I-0.391
N465 G1 X0.007 Y122.426
N470 X0.012 Y122.363
N475 X0.403 Y119.965
N480 X1.588 Y115.214
N485 G3 X2.358 Y115.309 I0.379 J0.095
N490 G1 Y124.762
N495 G3 X1.576 I-0.391
N500 G1 Y120.035
N505 X1.967 Y115.309
N510 G3 X2.26 Y114.962 I0.39 J0.032
N515 G1 X3.434 Y114.659
N520 G3 X3.923 Y115.038 I0.098 J0.379
N525 G1 Y124.75
N530 G3 X3.141 I-0.391
N535 G1 Y119.894
N540 X3.532 Y115.038
N545 G3 X3.912 Y114.679 I0.39 J0.031
N550 G1 X5.086 Y114.649
N555 G3 X5.487 Y115.04 I0.01 J0.391
N560 G1 Y124.752
N565 G3 X4.705 Y124.753 I-0.391
N570 G1 Y119.896
N575 X5.096 Y115.04
N580 G3 X5.476 Y114.681 I0.39 J0.031
N585 G1 X6.651 Y114.651
N590 G3 X7.052 Y115.042 I0.01 J0.391
N595 G1 Y119.973
N600 Y120.791
N605 Y124.754
N610 G2 X7.451 Y124.77 I0.2
N615 G1 X8.217 Y115.029
N620 G3 X8.616 Y115.044 I0.199 J0.016
N625 G1 Y124.757
N630 G3 X7.834 I-0.391
N635 G1 Y119.9
N640 X8.225 Y115.044
N645 G3 X8.601 Y114.685 I0.39 J0.031
N650 G1 X9.775 Y114.642
N655 G3 X10.181 Y115.033 I0.014 J0.391
N660 G1 Y124.759
N665 G3 X9.398 I-0.391
N670 G1 Y119.896
N675 X9.789 Y115.033
N680 G3 X10.17 Y114.673 I0.39 J0.031
N685 G1 X11.35 Y114.646
N690 G3 X11.75 Y115.037 I0.009 J0.391
N695 G1 Y124.763
N700 X11.748 Y124.794
N705 X11.591 Y125.782
N710 X11.583 Y125.833 Z-3.493
N715 X11.575 Y125.881 Z-3.473
N720 X11.569 Y125.922 Z-3.441
N725 X11.564 Y125.953 Z-3.4
N730 X11.561 Y125.973 Z-3.352
N735 X11.56 Y125.98 Z-3.3
N740 G0 Z15
N745 X-0.775 Y0.292
N750 Z5
N755 G1 Z-1.8 F400
N760 Y0.298 Z-1.852
N765 Y0.318 Z-1.9
N770 Y0.35 Z-1.941
N775 Y0.392 Z-1.973
N780 X-0.776 Y0.44 Z-1.993
N785 Y0.492 Z-2
N790 X-0.787 Y3.74
N795 X-0.799 Y7.241 F600
N800 G3 X-1.581 Y7.24 I-0.391 J-0.001
N805 G1 X-1.585 Y5.575
N810 X-1.583 Y5.531
N815 X-1.575 Y5.488
N820 X-1.178 Y3.739
N825 G3 X-1.001 Y3.492 I0.381 J0.087
N830 G1 X0.181 Y2.767
N835 G3 X0.776 Y3.102 I0.204 J0.333
N840 G1 X0.761 Y7.897
N845 G3 X-0.021 Y7.895 I-0.391 J-0.001
N850 G1 X-0.019 Y5.561
N855 X-0.013 Y5.497
N860 X0.385 Y3.101
N865 G3 X0.75 Y2.774 I0.386 J0.064
N870 G1 X1.926 Y2.712
N875 G3 X2.338 Y3.104 I0.021 J0.391
N880 G1 X2.313 Y11.932
N885 X2.316 Y12.45
N890 G3 X1.926 Y12.843 I-0.391 J0.002
N895 X1.534 Y12.451 I-0.001 J-0.391
N900 G1 X1.543 Y7.775
N905 X1.947 Y3.103
N910 G3 X2.327 Y2.746 I0.39 J0.034
N915 G1 X3.522 Y2.715
N920 G3 X3.923 Y3.106 I0.01 J0.391
N925 G1 Y12.832
N930 G3 X3.141 I-0.391
N935 G1 Y7.969
N940 X3.532 Y3.106
N945 G3 X3.911 Y2.746 I0.39 J0.031
N950 G1 X5.062 Y2.716
N955 G3 X5.463 Y3.108 I0.01 J0.391
N960 G1 X5.442 Y11.932
N965 X5.446 Y12.831
N970 G3 X5.055 Y13.224 I-0.391 J0.002
N975 X4.664 Y12.832 I-0.001 J-0.391
N980 G1 X4.669 Y7.968
N985 X5.072 Y3.107
N990 G3 X5.452 Y2.749 I0.39 J0.032
N995 G1 X6.625 Y2.718
N1000 G3 X7.026 Y3.11 I0.01 J0.391
N1005 G1 X7.017 Y7.142
N1010 X7.016 Y7.823
N1015 X7.007 Y11.932
N1020 X7.01 Y12.831
N1025 G2 X7.409 Y12.847 I0.2 J-0.001
N1030 G1 X8.217 Y3.096
N1035 G3 X8.616 Y3.112 I0.199 J0.017
N1040 G1 Y12.824
N1045 G3 X7.834 Y12.825 I-0.391
N1050 G1 Y7.968
N1055 X8.225 Y3.112
N1060 G3 X8.601 Y2.753 I0.39 J0.031
N1065 G1 X9.775 Y2.71
N1070 G3 X10.181 Y3.101 I0.014 J0.391
N1075 G1 Y12.826
N1080 G3 X9.398 Y12.827 I-0.391
N1085 G1 Y7.964
N1090 X9.789 Y3.101
N1095 G3 X10.17 Y2.741 I0.39 J0.031
N1100 G1 X11.35 Y2.714
N1105 G3 X11.75 Y3.105 I0.009 J0.391
N1110 G1 Y12.831
N1115 G3 X11.423 Y12.985 I-0.2
N1120 G1 X-0.458 Y3.171
N1125 G2 X-0.786 Y3.325 I-0.127 J0.154
N1130 G1 Y3.376 Z-2.007 F400
N1135 Y3.425 Z-2.027
N1140 Y3.466 Z-2.059
N1145 Y3.498 Z-2.1
N1150 Y3.518 Z-2.148
N1155 Y3.525 Z-2.2
N1160 Z-3.3
N1165 Y3.531 Z-3.352
N1170 Y3.551 Z-3.4
N1175 X-0.787 Y3.583 Z-3.441
N1180 Y3.625 Z-3.473
N1185 Y3.673 Z-3.493
N1190 Y3.725 Z-3.5
N1195 Y3.74
N1200 X-0.799 Y7.241 F600
N1205 G3 X-1.581 Y7.24 I-0.391 J-0.001
N1210 G1 X-1.585 Y5.575
N1215 X-1.583 Y5.531
N1220 X-1.575 Y5.488
N1225 X-1.178 Y3.739
N1230 G3 X-1.001 Y3.492 I0.381 J0.087
N1235 G1 X0.181 Y2.767
N1240 G3 X0.776 Y3.102 I0.204 J0.333
N1245 G1 X0.761 Y7.897
N1250 G3 X-0.021 Y7.895 I-0.391 J-0.001
N1255 G1 X-0.019 Y5.561
N1260 X-0.013 Y5.497
N1265 X0.385 Y3.101
N1270 G3 X0.75 Y2.774 I0.386 J0.064
N1275 G1 X1.926 Y2.712
N1280 G3 X2.338 Y3.104 I0.021 J0.391
N1285 G1 X2.313 Y11.932
N1290 X2.316 Y12.45
N1295 G3 X1.926 Y12.843 I-0.391 J0.002
N1300 X1.534 Y12.451 I-0.001 J-0.391
N1305 G1 X1.543 Y7.775
N1310 X1.947 Y3.103
N1315 G3 X2.327 Y2.746 I0.39 J0.034
N1320 G1 X3.522 Y2.715
N1325 G3 X3.923 Y3.106 I0.01 J0.391
N1330 G1 Y12.832
N1335 G3 X3.141 I-0.391
N1340 G1 Y7.969
N1345 X3.532 Y3.106
N1350 G3 X3.911 Y2.746 I0.39 J0.031
N1355 G1 X5.062 Y2.716
N1360 G3 X5.463 Y3.108 I0.01 J0.391
N1365 G1 X5.442 Y11.932
N1370 X5.446 Y12.831
N1375 G3 X5.055 Y13.224 I-0.391 J0.002
N1380 X4.664 Y12.832 I-0.001 J-0.391
N1385 G1 X4.669 Y7.968
N1390 X5.072 Y3.107
N1395 G3 X5.452 Y2.749 I0.39 J0.032
N1400 G1 X6.625 Y2.718
N1405 G3 X7.026 Y3.11 I0.01 J0.391
N1410 G1 X7.017 Y7.142
N1415 X7.016 Y7.823
N1420 X7.007 Y11.932
N1425 X7.01 Y12.831
N1430 G2 X7.409 Y12.847 I0.2 J-0.001
N1435 G1 X8.217 Y3.096
N1440 G3 X8.616 Y3.112 I0.199 J0.017
N1445 G1 Y12.824
N1450 G3 X7.834 Y12.825 I-0.391
N1455 G1 Y7.968
N1460 X8.225 Y3.112
N1465 G3 X8.601 Y2.753 I0.39 J0.031
N1470 G1 X9.775 Y2.71
N1475 G3 X10.181 Y3.101 I0.014 J0.391
N1480 G1 Y12.826
N1485 G3 X9.398 Y12.827 I-0.391
N1490 G1 Y7.964
N1495 X9.789 Y3.101
N1500 G3 X10.17 Y2.741 I0.39 J0.031
N1505 G1 X11.35 Y2.714
N1510 G3 X11.75 Y3.105 I0.009 J0.391
N1515 G1 Y12.831
N1520 X11.748 Y12.862
N1525 X11.591 Y13.85
N1530 X11.583 Y13.901 Z-3.493
N1535 X11.575 Y13.949 Z-3.473
N1540 X11.569 Y13.99 Z-3.441
N1545 X11.564 Y14.021 Z-3.4
N1550 X11.561 Y14.041 Z-3.352
N1555 X11.56 Y14.048 Z-3.3
N1560 G0 Z15

(2D ??18)
N1565 X7.9 Y7.282
N1570 Z15
N1575 Z5
N1580 G1 Z3 F600
N1585 Z-1.8
N1590 G18 G2 X8.1 Z-2 I0.2
N1595 G1 X8.3 F400
N1600 G17 G3 X8.5 Y7.482 J0.2
N1605 X7 I-0.75 F600
N1610 X8.5 I0.75
N1615 X8.3 Y7.682 I-0.2
N1620 G1 X8.1
N1625 G18 G3 X7.9 Z-1.8 K0.2
N1630 G0 Z5
N1635 Y7.282
N1640 G1 Z1 F600
N1645 Z-3.8
N1650 G2 X8.1 Z-4 I0.2
N1655 G1 X8.3 F400
N1660 G17 G3 X8.5 Y7.482 J0.2
N1665 X7 I-0.75 F600
N1670 X8.5 I0.75
N1675 X8.3 Y7.682 I-0.2
N1680 G1 X8.1
N1685 G18 G3 X7.9 Z-3.8 K0.2
N1690 G0 Z5
N1695 Y7.282
N1700 G1 Z-1 F600
N1705 Z-5.8
N1710 G2 X8.1 Z-6 I0.2
N1715 G1 X8.3 F400
N1720 G17 G3 X8.5 Y7.482 J0.2
N1725 X7 I-0.75 F600
N1730 X8.5 I0.75
N1735 X8.3 Y7.682 I-0.2
N1740 G1 X8.1
N1745 G18 G3 X7.9 Z-5.8 K0.2
N1750 G0 Z5
N1755 Y7.282
N1760 G1 Z-3 F600
N1765 Z-7.3
N1770 G2 X8.1 Z-7.5 I0.2
N1775 G1 X8.3 F400
N1780 G17 G3 X8.5 Y7.482 J0.2
N1785 X7 I-0.75 F600
N1790 X8.5 I0.75
N1795 X8.3 Y7.682 I-0.2
N1800 G1 X8.1
N1805 G18 G3 X7.9 Z-7.3 K0.2
N1810 G0 Z5
N1815 Y120.182
N1820 G1 Z3 F600
N1825 Z-1.8
N1830 G2 X8.1 Z-2 I0.2
N1835 G1 X8.3 F400
N1840 G17 G3 X8.5 Y120.382 J0.2
N1845 X7 I-0.75 F600
N1850 X8.5 I0.75
N1855 X8.3 Y120.582 I-0.2
N1860 G1 X8.1
N1865 G18 G3 X7.9 Z-1.8 K0.2
N1870 G0 Z5
N1875 Y120.182
N1880 G1 Z1 F600
N1885 Z-3.8
N1890 G2 X8.1 Z-4 I0.2
N1895 G1 X8.3 F400
N1900 G17 G3 X8.5 Y120.382 J0.2
N1905 X7 I-0.75 F600
N1910 X8.5 I0.75
N1915 X8.3 Y120.582 I-0.2
N1920 G1 X8.1
N1925 G18 G3 X7.9 Z-3.8 K0.2
N1930 G0 Z5
N1935 Y120.182
N1940 G1 Z-1 F600
N1945 Z-5.8
N1950 G2 X8.1 Z-6 I0.2
N1955 G1 X8.3 F400
N1960 G17 G3 X8.5 Y120.382 J0.2
N1965 X7 I-0.75 F600
N1970 X8.5 I0.75
N1975 X8.3 Y120.582 I-0.2
N1980 G1 X8.1
N1985 G18 G3 X7.9 Z-5.8 K0.2
N1990 G0 Z5
N1995 Y120.182
N2000 G1 Z-3 F600
N2005 Z-7.3
N2010 G2 X8.1 Z-7.5 I0.2
N2015 G1 X8.3 F400
N2020 G17 G3 X8.5 Y120.382 J0.2
N2025 X7 I-0.75 F600
N2030 X8.5 I0.75
N2035 X8.3 Y120.582 I-0.2
N2040 G1 X8.1
N2045 G18 G3 X7.9 Z-7.3 K0.2
N2050 G0 Z15
N2055 G17
N2060 M9
N2065 G28
N2070 M30
%
