%
(1001)
(T1 D=2 CR=0 - ZMIN=-9.1 - flat end mill)
N10 G90 G94
N15 G17
N20 G21
N25 M9
N30 G28

(2D ??23)
N35 T1 M6
(0)
N40 S23873 M3
N45 G54
N50 M8
N55 G0 X-1.6 Y-0.2
N60 G43 Z15
N65 Z5
N70 G1 Z3 F600
N75 Z-1.8
N80 G18 G2 X-1.4 Z-2 I0.2
N85 G1 X-1.2 F400
N90 G17 G3 X-1 Y0 J0.2
N95 G1 Y127.864 F600
N100 G2 X0 Y128.864 I1
N105 G1 X3.5
N110 G2 X4.5 Y127.864 J-1
N115 G1 Y124.864
N120 X16.25
N125 G2 X17.25 Y123.864 J-1
N130 G1 Y120.864
N135 G2 X16.25 Y119.864 I-1
N140 G1 X14.25
N145 Y115.932
N150 G2 X13.25 Y114.932 I-1
N155 G1 X4.5
N160 Y12.932
N165 X13.25
N170 G2 X14.25 Y11.932 J-1
N175 G1 Y8
N180 X16.25
N185 G2 X17.25 Y7 J-1
N190 G1 Y4
N195 G2 X16.25 Y3 I-1
N200 G1 X4.5
N205 Y0
N210 G2 X3.5 Y-1 I-1
N215 G1 X0
N220 G2 X-1 Y0 J1
N225 G3 X-1.2 Y0.2 I-0.2
N230 G1 X-1.4
N235 G18 G3 X-1.6 Z-1.8 K0.2
N240 G0 Z5
N245 Y-0.2
N250 G1 Z1 F600
N255 Z-3.8
N260 G2 X-1.4 Z-4 I0.2
N265 G1 X-1.2 F400
N270 G17 G3 X-1 Y0 J0.2
N275 G1 Y127.864 F600
N280 G2 X0 Y128.864 I1
N285 G1 X3.5
N290 G2 X4.5 Y127.864 J-1
N295 G1 Y124.864
N300 X16.25
N305 G2 X17.25 Y123.864 J-1
N310 G1 Y120.864
N315 G2 X16.25 Y119.864 I-1
N320 G1 X14.25
N325 Y115.932
N330 G2 X13.25 Y114.932 I-1
N335 G1 X4.5
N340 Y12.932
N345 X13.25
N350 G2 X14.25 Y11.932 J-1
N355 G1 Y8
N360 X16.25
N365 G2 X17.25 Y7 J-1
N370 G1 Y4
N375 G2 X16.25 Y3 I-1
N380 G1 X4.5
N385 Y0
N390 G2 X3.5 Y-1 I-1
N395 G1 X0
N400 G2 X-1 Y0 J1
N405 G3 X-1.2 Y0.2 I-0.2
N410 G1 X-1.4
N415 G18 G3 X-1.6 Z-3.8 K0.2
N420 G0 Z5
N425 Y-0.2
N430 G1 Z-1 F600
N435 Z-5.8
N440 G2 X-1.4 Z-6 I0.2
N445 G1 X-1.2 F400
N450 G17 G3 X-1 Y0 J0.2
N455 G1 Y127.864 F600
N460 G2 X0 Y128.864 I1
N465 G1 X3.5
N470 G2 X4.5 Y127.864 J-1
N475 G1 Y124.864
N480 X16.25
N485 G2 X17.25 Y123.864 J-1
N490 G1 Y120.864
N495 G2 X16.25 Y119.864 I-1
N500 G1 X14.25
N505 Y115.932
N510 G2 X13.25 Y114.932 I-1
N515 G1 X4.5
N520 Y12.932
N525 X13.25
N530 G2 X14.25 Y11.932 J-1
N535 G1 Y8
N540 X16.25
N545 G2 X17.25 Y7 J-1
N550 G1 Y4
N555 G2 X16.25 Y3 I-1
N560 G1 X4.5
N565 Y0
N570 G2 X3.5 Y-1 I-1
N575 G1 X0
N580 G2 X-1 Y0 J1
N585 G3 X-1.2 Y0.2 I-0.2
N590 G1 X-1.4
N595 G18 G3 X-1.6 Z-5.8 K0.2
N600 G0 Z5
N605 Y-0.2
N610 G1 Z-3 F600
N615 Z-7.8
N620 G2 X-1.4 Z-8 I0.2
N625 G1 X-1.2 F400
N630 G17 G3 X-1 Y0 J0.2
N635 G1 Y127.864 F600
N640 G2 X0 Y128.864 I1
N645 G1 X3.5
N650 G2 X4.5 Y127.864 J-1
N655 G1 Y124.864
N660 X16.25
N665 G2 X17.25 Y123.864 J-1
N670 G1 Y120.864
N675 G2 X16.25 Y119.864 I-1
N680 G1 X14.25
N685 Y115.932
N690 G2 X13.25 Y114.932 I-1
N695 G1 X4.5
N700 Y12.932
N705 X13.25
N710 G2 X14.25 Y11.932 J-1
N715 G1 Y8
N720 X16.25
N725 G2 X17.25 Y7 J-1
N730 G1 Y4
N735 G2 X16.25 Y3 I-1
N740 G1 X4.5
N745 Y0
N750 G2 X3.5 Y-1 I-1
N755 G1 X0
N760 G2 X-1 Y0 J1
N765 G3 X-1.2 Y0.2 I-0.2
N770 G1 X-1.4
N775 G18 G3 X-1.6 Z-7.8 K0.2
N780 G0 Z5
N785 Y-0.2
N790 G1 Z-5 F600
N795 Z-8.9
N800 G2 X-1.4 Z-9.1 I0.2
N805 G1 X-1.2 F400
N810 G17 G3 X-1 Y0 J0.2
N815 G1 Y127.864 F600
N820 G2 X0 Y128.864 I1
N825 G1 X3.5
N830 G2 X4.5 Y127.864 J-1
N835 G1 Y124.864
N840 X16.25
N845 G2 X17.25 Y123.864 J-1
N850 G1 Y120.864
N855 G2 X16.25 Y119.864 I-1
N860 G1 X14.25
N865 Y115.932
N870 G2 X13.25 Y114.932 I-1
N875 G1 X4.5
N880 Y12.932
N885 X13.25
N890 G2 X14.25 Y11.932 J-1
N895 G1 Y8
N900 X16.25
N905 G2 X17.25 Y7 J-1
N910 G1 Y4
N915 G2 X16.25 Y3 I-1
N920 G1 X4.5
N925 Y0
N930 G2 X3.5 Y-1 I-1
N935 G1 X0
N940 G2 X-1 Y0 J1
N945 G3 X-1.2 Y0.2 I-0.2
N950 G1 X-1.4
N955 G18 G3 X-1.6 Z-8.9 K0.2
N960 G0 Z15
N965 G17
N970 M9
N975 G28
N980 M30
%
