%
(1001)
(T1 D=2 CR=0 - ZMIN=-4.1 - flat end mill)
N10 G90 G94
N15 G17
N20 G21
N25 M9
N30 G28

(2D ????6)
N35 T1 M6
(0)
N40 S23873 M3
N45 G54
N50 M8
N55 G0 X7.759 Y41.896
N60 G43 Z15
N65 Z5
N70 G1 Z2.7 F400
N75 X7.785 Y41.894 Z2.602 F600
N80 X7.855 Y41.89 Z2.529
N85 X7.952 Y41.894 Z2.5
N90 G3 X7.788 Y43.786 Z2.396 I-0.082 J0.946
N95 X7.952 Y41.894 Z2.292 I0.082 J-0.946
N100 X7.788 Y43.786 Z2.187 I-0.082 J0.946
N105 X7.952 Y41.894 Z2.083 I0.082 J-0.946
N110 X7.788 Y43.786 Z1.979 I-0.082 J0.946
N115 X7.952 Y41.894 Z1.875 I0.082 J-0.946
N120 X7.788 Y43.786 Z1.77 I-0.082 J0.946
N125 X7.952 Y41.894 Z1.666 I0.082 J-0.946
N130 X7.788 Y43.786 Z1.562 I-0.082 J0.946
N135 X7.952 Y41.894 Z1.458 I0.082 J-0.946
N140 X7.788 Y43.786 Z1.354 I-0.082 J0.946
N145 X7.952 Y41.894 Z1.249 I0.082 J-0.946
N150 X7.788 Y43.786 Z1.145 I-0.082 J0.946
N155 X7.952 Y41.894 Z1.041 I0.082 J-0.946
N160 X7.788 Y43.786 Z0.937 I-0.082 J0.946
N165 X7.952 Y41.894 Z0.832 I0.082 J-0.946
N170 X7.788 Y43.786 Z0.728 I-0.082 J0.946
N175 X7.952 Y41.894 Z0.624 I0.082 J-0.946
N180 X7.788 Y43.786 Z0.52 I-0.082 J0.946
N185 X7.952 Y41.894 Z0.416 I0.082 J-0.946
N190 X7.788 Y43.786 Z0.311 I-0.082 J0.946
N195 X7.952 Y41.894 Z0.207 I0.082 J-0.946
N200 X7.788 Y43.786 Z0.103 I-0.082 J0.946
N205 X7.952 Y41.894 Z-0.001 I0.082 J-0.946
N210 X7.788 Y43.786 Z-0.106 I-0.082 J0.946
N215 X7.952 Y41.894 Z-0.21 I0.082 J-0.946
N220 X7.788 Y43.786 Z-0.314 I-0.082 J0.946
N225 X7.952 Y41.894 Z-0.418 I0.082 J-0.946
N230 X7.788 Y43.786 Z-0.522 I-0.082 J0.946
N235 X7.952 Y41.894 Z-0.627 I0.082 J-0.946
N240 X7.788 Y43.786 Z-0.731 I-0.082 J0.946
N245 X7.952 Y41.894 Z-0.835 I0.082 J-0.946
N250 X7.788 Y43.786 Z-0.939 I-0.082 J0.946
N255 X7.952 Y41.894 Z-1.044 I0.082 J-0.946
N260 X7.788 Y43.786 Z-1.148 I-0.082 J0.946
N265 X7.952 Y41.894 Z-1.252 I0.082 J-0.946
N270 X7.788 Y43.786 Z-1.356 I-0.082 J0.946
N275 X7.952 Y41.894 Z-1.46 I0.082 J-0.946
N280 X7.788 Y43.786 Z-1.565 I-0.082 J0.946
N285 X7.952 Y41.894 Z-1.669 I0.082 J-0.946
N290 X7.788 Y43.786 Z-1.773 I-0.082 J0.946
N295 X7.952 Y41.894 Z-1.877 I0.082 J-0.946
N300 X7.788 Y43.786 Z-1.982 I-0.082 J0.946
N305 X7.3 Y43.6 Z-2 I0.082 J-0.946
N310 X9.7 Y40.4 I1.2 J-1.6
N315 X7.3 Y43.6 I-1.2 J1.6
N320 X9.7 Y40.4 Z-2.219 I1.2 J-1.6
N325 X7.3 Y43.6 Z-2.439 I-1.2 J1.6
N330 X6.503 Y42.103 Z-2.5 I1.2 J-1.6
N335 X10.497 Y41.897 I1.997 J-0.103
N340 X6.503 Y42.103 I-1.997 J0.103
N345 G1 X6.506 Y42.053 Z-2.487
N350 X6.522 Y42.006 Z-2.473
N355 X6.541 Y41.974 Z-2.437
N360 X6.565 Y41.947 Z-2.4
N365 X6.586 Y41.93 Z-2.3
N370 G0 Z15
N375 X7.759 Y64.896
N380 Z5
N385 G1 Z2.7 F400
N390 X7.785 Y64.894 Z2.602 F600
N395 X7.855 Y64.89 Z2.529
N400 X7.952 Y64.894 Z2.5
N405 G3 X7.788 Y66.786 Z2.396 I-0.082 J0.946
N410 X7.952 Y64.894 Z2.292 I0.082 J-0.946
N415 X7.788 Y66.786 Z2.187 I-0.082 J0.946
N420 X7.952 Y64.894 Z2.083 I0.082 J-0.946
N425 X7.788 Y66.786 Z1.979 I-0.082 J0.946
N430 X7.952 Y64.894 Z1.875 I0.082 J-0.946
N435 X7.788 Y66.786 Z1.77 I-0.082 J0.946
N440 X7.952 Y64.894 Z1.666 I0.082 J-0.946
N445 X7.788 Y66.786 Z1.562 I-0.082 J0.946
N450 X7.952 Y64.894 Z1.458 I0.082 J-0.946
N455 X7.788 Y66.786 Z1.354 I-0.082 J0.946
N460 X7.952 Y64.894 Z1.249 I0.082 J-0.946
N465 X7.788 Y66.786 Z1.145 I-0.082 J0.946
N470 X7.952 Y64.894 Z1.041 I0.082 J-0.946
N475 X7.788 Y66.786 Z0.937 I-0.082 J0.946
N480 X7.952 Y64.894 Z0.832 I0.082 J-0.946
N485 X7.788 Y66.786 Z0.728 I-0.082 J0.946
N490 X7.952 Y64.894 Z0.624 I0.082 J-0.946
N495 X7.788 Y66.786 Z0.52 I-0.082 J0.946
N500 X7.952 Y64.894 Z0.416 I0.082 J-0.946
N505 X7.788 Y66.786 Z0.311 I-0.082 J0.946
N510 X7.952 Y64.894 Z0.207 I0.082 J-0.946
N515 X7.788 Y66.786 Z0.103 I-0.082 J0.946
N520 X7.952 Y64.894 Z-0.001 I0.082 J-0.946
N525 X7.788 Y66.786 Z-0.106 I-0.082 J0.946
N530 X7.952 Y64.894 Z-0.21 I0.082 J-0.946
N535 X7.788 Y66.786 Z-0.314 I-0.082 J0.946
N540 X7.952 Y64.894 Z-0.418 I0.082 J-0.946
N545 X7.788 Y66.786 Z-0.522 I-0.082 J0.946
N550 X7.952 Y64.894 Z-0.627 I0.082 J-0.946
N555 X7.788 Y66.786 Z-0.731 I-0.082 J0.946
N560 X7.952 Y64.894 Z-0.835 I0.082 J-0.946
N565 X7.788 Y66.786 Z-0.939 I-0.082 J0.946
N570 X7.952 Y64.894 Z-1.044 I0.082 J-0.946
N575 X7.788 Y66.786 Z-1.148 I-0.082 J0.946
N580 X7.952 Y64.894 Z-1.252 I0.082 J-0.946
N585 X7.788 Y66.786 Z-1.356 I-0.082 J0.946
N590 X7.952 Y64.894 Z-1.46 I0.082 J-0.946
N595 X7.788 Y66.786 Z-1.565 I-0.082 J0.946
N600 X7.952 Y64.894 Z-1.669 I0.082 J-0.946
N605 X7.788 Y66.786 Z-1.773 I-0.082 J0.946
N610 X7.952 Y64.894 Z-1.877 I0.082 J-0.946
N615 X7.788 Y66.786 Z-1.982 I-0.082 J0.946
N620 X7.3 Y66.6 Z-2 I0.082 J-0.946
N625 X9.7 Y63.4 I1.2 J-1.6
N630 X7.3 Y66.6 I-1.2 J1.6
N635 X9.7 Y63.4 Z-2.219 I1.2 J-1.6
N640 X7.3 Y66.6 Z-2.439 I-1.2 J1.6
N645 X6.503 Y65.103 Z-2.5 I1.2 J-1.6
N650 X10.497 Y64.897 I1.997 J-0.103
N655 X6.503 Y65.103 I-1.997 J0.103
N660 G1 X6.506 Y65.053 Z-2.487
N665 X6.522 Y65.006 Z-2.473
N670 X6.541 Y64.974 Z-2.437
N675 X6.565 Y64.947 Z-2.4
N680 X6.586 Y64.93 Z-2.3
N685 G0 Z15
N690 X44.759 Y56.346
N695 Z5
N700 G1 Z2.7 F400
N705 X44.785 Y56.344 Z2.602 F600
N710 X44.855 Y56.34 Z2.529
N715 X44.952 Y56.344 Z2.5
N720 G3 X44.788 Y58.236 Z2.396 I-0.082 J0.946
N725 X44.952 Y56.344 Z2.292 I0.082 J-0.946
N730 X44.788 Y58.236 Z2.187 I-0.082 J0.946
N735 X44.952 Y56.344 Z2.083 I0.082 J-0.946
N740 X44.788 Y58.236 Z1.979 I-0.082 J0.946
N745 X44.952 Y56.344 Z1.875 I0.082 J-0.946
N750 X44.788 Y58.236 Z1.77 I-0.082 J0.946
N755 X44.952 Y56.344 Z1.666 I0.082 J-0.946
N760 X44.788 Y58.236 Z1.562 I-0.082 J0.946
N765 X44.952 Y56.344 Z1.458 I0.082 J-0.946
N770 X44.788 Y58.236 Z1.354 I-0.082 J0.946
N775 X44.952 Y56.344 Z1.249 I0.082 J-0.946
N780 X44.788 Y58.236 Z1.145 I-0.082 J0.946
N785 X44.952 Y56.344 Z1.041 I0.082 J-0.946
N790 X44.788 Y58.236 Z0.937 I-0.082 J0.946
N795 X44.952 Y56.344 Z0.832 I0.082 J-0.946
N800 X44.788 Y58.236 Z0.728 I-0.082 J0.946
N805 X44.952 Y56.344 Z0.624 I0.082 J-0.946
N810 X44.788 Y58.236 Z0.52 I-0.082 J0.946
N815 X44.952 Y56.344 Z0.416 I0.082 J-0.946
N820 X44.788 Y58.236 Z0.311 I-0.082 J0.946
N825 X44.952 Y56.344 Z0.207 I0.082 J-0.946
N830 X44.788 Y58.236 Z0.103 I-0.082 J0.946
N835 X44.952 Y56.344 Z-0.001 I0.082 J-0.946
N840 X44.788 Y58.236 Z-0.106 I-0.082 J0.946
N845 X44.952 Y56.344 Z-0.21 I0.082 J-0.946
N850 X44.788 Y58.236 Z-0.314 I-0.082 J0.946
N855 X44.952 Y56.344 Z-0.418 I0.082 J-0.946
N860 X44.788 Y58.236 Z-0.522 I-0.082 J0.946
N865 X44.952 Y56.344 Z-0.627 I0.082 J-0.946
N870 X44.788 Y58.236 Z-0.731 I-0.082 J0.946
N875 X44.952 Y56.344 Z-0.835 I0.082 J-0.946
N880 X44.788 Y58.236 Z-0.939 I-0.082 J0.946
N885 X44.952 Y56.344 Z-1.044 I0.082 J-0.946
N890 X44.788 Y58.236 Z-1.148 I-0.082 J0.946
N895 X44.952 Y56.344 Z-1.252 I0.082 J-0.946
N900 X44.788 Y58.236 Z-1.356 I-0.082 J0.946
N905 X44.952 Y56.344 Z-1.46 I0.082 J-0.946
N910 X44.788 Y58.236 Z-1.565 I-0.082 J0.946
N915 X44.952 Y56.344 Z-1.669 I0.082 J-0.946
N920 X44.788 Y58.236 Z-1.773 I-0.082 J0.946
N925 X44.952 Y56.344 Z-1.877 I0.082 J-0.946
N930 X44.788 Y58.236 Z-1.982 I-0.082 J0.946
N935 X44.3 Y58.05 Z-2 I0.082 J-0.946
N940 X46.7 Y54.85 I1.2 J-1.6
N945 X44.3 Y58.05 I-1.2 J1.6
N950 X46.7 Y54.85 Z-2.219 I1.2 J-1.6
N955 X44.3 Y58.05 Z-2.439 I-1.2 J1.6
N960 X43.503 Y56.553 Z-2.5 I1.2 J-1.6
N965 X47.497 Y56.347 I1.997 J-0.103
N970 X43.503 Y56.553 I-1.997 J0.103
N975 G1 X43.506 Y56.503 Z-2.487
N980 X43.522 Y56.456 Z-2.473
N985 X43.541 Y56.424 Z-2.437
N990 X43.565 Y56.397 Z-2.4
N995 X43.586 Y56.38 Z-2.3
N1000 G0 Z15
N1005 X47.759 Y88.896
N1010 Z5
N1015 G1 Z2.7 F400
N1020 X47.785 Y88.894 Z2.602 F600
N1025 X47.855 Y88.89 Z2.529
N1030 X47.952 Y88.894 Z2.5
N1035 G3 X47.788 Y90.786 Z2.396 I-0.082 J0.946
N1040 X47.952 Y88.894 Z2.292 I0.082 J-0.946
N1045 X47.788 Y90.786 Z2.187 I-0.082 J0.946
N1050 X47.952 Y88.894 Z2.083 I0.082 J-0.946
N1055 X47.788 Y90.786 Z1.979 I-0.082 J0.946
N1060 X47.952 Y88.894 Z1.875 I0.082 J-0.946
N1065 X47.788 Y90.786 Z1.77 I-0.082 J0.946
N1070 X47.952 Y88.894 Z1.666 I0.082 J-0.946
N1075 X47.788 Y90.786 Z1.562 I-0.082 J0.946
N1080 X47.952 Y88.894 Z1.458 I0.082 J-0.946
N1085 X47.788 Y90.786 Z1.354 I-0.082 J0.946
N1090 X47.952 Y88.894 Z1.249 I0.082 J-0.946
N1095 X47.788 Y90.786 Z1.145 I-0.082 J0.946
N1100 X47.952 Y88.894 Z1.041 I0.082 J-0.946
N1105 X47.788 Y90.786 Z0.937 I-0.082 J0.946
N1110 X47.952 Y88.894 Z0.832 I0.082 J-0.946
N1115 X47.788 Y90.786 Z0.728 I-0.082 J0.946
N1120 X47.952 Y88.894 Z0.624 I0.082 J-0.946
N1125 X47.788 Y90.786 Z0.52 I-0.082 J0.946
N1130 X47.952 Y88.894 Z0.416 I0.082 J-0.946
N1135 X47.788 Y90.786 Z0.311 I-0.082 J0.946
N1140 X47.952 Y88.894 Z0.207 I0.082 J-0.946
N1145 X47.788 Y90.786 Z0.103 I-0.082 J0.946
N1150 X47.952 Y88.894 Z-0.001 I0.082 J-0.946
N1155 X47.788 Y90.786 Z-0.106 I-0.082 J0.946
N1160 X47.952 Y88.894 Z-0.21 I0.082 J-0.946
N1165 X47.788 Y90.786 Z-0.314 I-0.082 J0.946
N1170 X47.952 Y88.894 Z-0.418 I0.082 J-0.946
N1175 X47.788 Y90.786 Z-0.522 I-0.082 J0.946
N1180 X47.952 Y88.894 Z-0.627 I0.082 J-0.946
N1185 X47.788 Y90.786 Z-0.731 I-0.082 J0.946
N1190 X47.952 Y88.894 Z-0.835 I0.082 J-0.946
N1195 X47.788 Y90.786 Z-0.939 I-0.082 J0.946
N1200 X47.952 Y88.894 Z-1.044 I0.082 J-0.946
N1205 X47.788 Y90.786 Z-1.148 I-0.082 J0.946
N1210 X47.952 Y88.894 Z-1.252 I0.082 J-0.946
N1215 X47.788 Y90.786 Z-1.356 I-0.082 J0.946
N1220 X47.952 Y88.894 Z-1.46 I0.082 J-0.946
N1225 X47.788 Y90.786 Z-1.565 I-0.082 J0.946
N1230 X47.952 Y88.894 Z-1.669 I0.082 J-0.946
N1235 X47.788 Y90.786 Z-1.773 I-0.082 J0.946
N1240 X47.952 Y88.894 Z-1.877 I0.082 J-0.946
N1245 X47.788 Y90.786 Z-1.982 I-0.082 J0.946
N1250 X47.3 Y90.6 Z-2 I0.082 J-0.946
N1255 X49.7 Y87.4 I1.2 J-1.6
N1260 X47.3 Y90.6 I-1.2 J1.6
N1265 X49.7 Y87.4 Z-2.219 I1.2 J-1.6
N1270 X47.3 Y90.6 Z-2.439 I-1.2 J1.6
N1275 X46.503 Y89.103 Z-2.5 I1.2 J-1.6
N1280 X50.497 Y88.897 I1.997 J-0.103
N1285 X46.503 Y89.103 I-1.997 J0.103
N1290 G1 X46.506 Y89.053 Z-2.487
N1295 X46.522 Y89.006 Z-2.473
N1300 X46.541 Y88.974 Z-2.437
N1305 X46.565 Y88.947 Z-2.4
N1310 X46.586 Y88.93 Z-2.3
N1315 G0 Z15
N1320 X45.563 Y143.904
N1325 Z5
N1330 G1 Z2.7 F400
N1335 X45.588 Y143.902 Z2.602 F600
N1340 X45.659 Y143.898 Z2.529
N1345 X45.756 Y143.902 Z2.5
N1350 G3 X45.591 Y145.794 Z2.396 I-0.082 J0.946
N1355 X45.756 Y143.902 Z2.292 I0.082 J-0.946
N1360 X45.591 Y145.794 Z2.187 I-0.082 J0.946
N1365 X45.756 Y143.902 Z2.083 I0.082 J-0.946
N1370 X45.591 Y145.794 Z1.979 I-0.082 J0.946
N1375 X45.756 Y143.902 Z1.875 I0.082 J-0.946
N1380 X45.591 Y145.794 Z1.77 I-0.082 J0.946
N1385 X45.756 Y143.902 Z1.666 I0.082 J-0.946
N1390 X45.591 Y145.794 Z1.562 I-0.082 J0.946
N1395 X45.756 Y143.902 Z1.458 I0.082 J-0.946
N1400 X45.591 Y145.794 Z1.354 I-0.082 J0.946
N1405 X45.756 Y143.902 Z1.249 I0.082 J-0.946
N1410 X45.591 Y145.794 Z1.145 I-0.082 J0.946
N1415 X45.756 Y143.902 Z1.041 I0.082 J-0.946
N1420 X45.591 Y145.794 Z0.937 I-0.082 J0.946
N1425 X45.756 Y143.902 Z0.832 I0.082 J-0.946
N1430 X45.591 Y145.794 Z0.728 I-0.082 J0.946
N1435 X45.756 Y143.902 Z0.624 I0.082 J-0.946
N1440 X45.591 Y145.794 Z0.52 I-0.082 J0.946
N1445 X45.756 Y143.902 Z0.416 I0.082 J-0.946
N1450 X45.591 Y145.794 Z0.311 I-0.082 J0.946
N1455 X45.756 Y143.902 Z0.207 I0.082 J-0.946
N1460 X45.591 Y145.794 Z0.103 I-0.082 J0.946
N1465 X45.756 Y143.902 Z-0.001 I0.082 J-0.946
N1470 X45.591 Y145.794 Z-0.106 I-0.082 J0.946
N1475 X45.756 Y143.902 Z-0.21 I0.082 J-0.946
N1480 X45.591 Y145.794 Z-0.314 I-0.082 J0.946
N1485 X45.756 Y143.902 Z-0.418 I0.082 J-0.946
N1490 X45.591 Y145.794 Z-0.522 I-0.082 J0.946
N1495 X45.756 Y143.902 Z-0.627 I0.082 J-0.946
N1500 X45.591 Y145.794 Z-0.731 I-0.082 J0.946
N1505 X45.756 Y143.902 Z-0.835 I0.082 J-0.946
N1510 X45.591 Y145.794 Z-0.939 I-0.082 J0.946
N1515 X45.756 Y143.902 Z-1.044 I0.082 J-0.946
N1520 X45.591 Y145.794 Z-1.148 I-0.082 J0.946
N1525 X45.756 Y143.902 Z-1.252 I0.082 J-0.946
N1530 X45.591 Y145.794 Z-1.356 I-0.082 J0.946
N1535 X45.756 Y143.902 Z-1.46 I0.082 J-0.946
N1540 X45.591 Y145.794 Z-1.565 I-0.082 J0.946
N1545 X45.756 Y143.902 Z-1.669 I0.082 J-0.946
N1550 X45.591 Y145.794 Z-1.773 I-0.082 J0.946
N1555 X45.756 Y143.902 Z-1.877 I0.082 J-0.946
N1560 X45.591 Y145.794 Z-1.982 I-0.082 J0.946
N1565 X45.104 Y145.608 Z-2 I0.082 J-0.946
N1570 X47.504 Y142.408 I1.2 J-1.6
N1575 X45.104 Y145.608 I-1.2 J1.6
N1580 X47.504 Y142.408 Z-2.219 I1.2 J-1.6
N1585 X45.104 Y145.608 Z-2.439 I-1.2 J1.6
N1590 X44.306 Y144.111 Z-2.5 I1.2 J-1.6
N1595 X48.301 Y143.905 I1.997 J-0.103
N1600 X44.306 Y144.111 I-1.997 J0.103
N1605 G1 X44.31 Y144.061 Z-2.487
N1610 X44.326 Y144.014 Z-2.473
N1615 X44.344 Y143.982 Z-2.437
N1620 X44.369 Y143.955 Z-2.4
N1625 X44.389 Y143.938 Z-2.3
N1630 G0 Z15

(2D ??7)
N1635 X21.846 Y66.043
N1640 Z15
N1645 Z5
N1650 G1 Z3 F600
N1655 Z-1.8
N1660 X21.839 Y66.044 Z-1.852
N1665 X21.82 Y66.05 Z-1.9
N1670 X21.789 Y66.058 Z-1.941
N1675 X21.749 Y66.068 Z-1.973
N1680 X21.703 Y66.081 Z-1.993
N1685 X21.653 Y66.094 Z-2
N1690 X21.46 Y66.146 F400
N1695 G3 X21.215 Y66.005 I-0.052 J-0.193
N1700 G1 X21.155 Y65.782 F600
N1705 X29.848 Y63.453
N1710 X29.978 Y63.936
N1715 X21.284 Y66.265
N1720 X21.215 Y66.005
N1725 G3 X21.356 Y65.76 I0.193 J-0.052
N1730 G1 X21.549 Y65.708
N1735 X21.599 Y65.695 Z-1.993
N1740 X21.646 Y65.682 Z-1.973
N1745 X21.686 Y65.671 Z-1.941
N1750 X21.717 Y65.663 Z-1.9
N1755 X21.736 Y65.658 Z-1.852
N1760 X21.742 Y65.656 Z-1.8
N1765 G0 Z5
N1770 X21.846 Y66.043
N1775 G1 Z1 F600
N1780 Z-2.85
N1785 X21.839 Y66.044 Z-2.902
N1790 X21.82 Y66.05 Z-2.95
N1795 X21.789 Y66.058 Z-2.991
N1800 X21.749 Y66.068 Z-3.023
N1805 X21.703 Y66.081 Z-3.043
N1810 X21.653 Y66.094 Z-3.05
N1815 X21.46 Y66.146 F400
N1820 G3 X21.215 Y66.005 I-0.052 J-0.193
N1825 G1 X21.155 Y65.782 F600
N1830 X29.848 Y63.453
N1835 X29.978 Y63.936
N1840 X21.284 Y66.265
N1845 X21.215 Y66.005
N1850 G3 X21.356 Y65.76 I0.193 J-0.052
N1855 G1 X21.549 Y65.708
N1860 X21.599 Y65.695 Z-3.043
N1865 X21.646 Y65.682 Z-3.023
N1870 X21.686 Y65.671 Z-2.991
N1875 X21.717 Y65.663 Z-2.95
N1880 X21.736 Y65.658 Z-2.902
N1885 X21.742 Y65.656 Z-2.85
N1890 G0 Z5
N1895 X21.846 Y66.043
N1900 G1 Z-0.05 F600
N1905 Z-3.9
N1910 X21.839 Y66.044 Z-3.952
N1915 X21.82 Y66.05 Z-4
N1920 X21.789 Y66.058 Z-4.041
N1925 X21.749 Y66.068 Z-4.073
N1930 X21.703 Y66.081 Z-4.093
N1935 X21.653 Y66.094 Z-4.1
N1940 X21.46 Y66.146 F400
N1945 G3 X21.215 Y66.005 I-0.052 J-0.193
N1950 G1 X21.155 Y65.782 F600
N1955 X29.848 Y63.453
N1960 X29.978 Y63.936
N1965 X21.284 Y66.265
N1970 X21.215 Y66.005
N1975 G3 X21.356 Y65.76 I0.193 J-0.052
N1980 G1 X21.549 Y65.708
N1985 X21.599 Y65.695 Z-4.093
N1990 X21.646 Y65.682 Z-4.073
N1995 X21.686 Y65.671 Z-4.041
N2000 X21.717 Y65.663 Z-4
N2005 X21.736 Y65.658 Z-3.952
N2010 X21.742 Y65.656 Z-3.9
N2015 G0 Z5
N2020 X8.7 Y58.4
N2025 G1 Z3 F600
N2030 Z-1.8
N2035 G19 G3 Y58.6 Z-2 J0.2
N2040 G1 Y58.8 F400
N2045 G17 G3 X8.5 Y59 I-0.2
N2050 G1 X6.5 F600
N2055 G3 X4.5 Y57.041 J-2
N2060 G1 Y52.959
N2065 G3 X6.502 Y51 I2 J0.041
N2070 G1 X6.503
N2075 X10.5
N2080 G2 X14.5 Y47 J-4
N2085 G1 Y37.959
N2090 G3 X16.502 Y36 I2 J0.041
N2095 G1 X16.503
N2100 X37.5
N2105 G3 X39.5 Y38 J2
N2110 G1 Y57
N2115 G3 X37.5 Y59 I-2
N2120 G1 X8.5
N2125 G3 X8.3 Y58.8 J-0.2
N2130 G1 Y58.6
N2135 G19 G2 Y58.4 Z-1.8 K0.2
N2140 G0 Z5
N2145 X8.7
N2150 G1 Z1 F600
N2155 Z-2.85
N2160 G3 Y58.6 Z-3.05 J0.2
N2165 G1 Y58.8 F400
N2170 G17 G3 X8.5 Y59 I-0.2
N2175 G1 X6.5 F600
N2180 G3 X4.5 Y57.041 J-2
N2185 G1 Y52.959
N2190 G3 X6.502 Y51 I2 J0.041
N2195 G1 X6.503
N2200 X10.5
N2205 G2 X14.5 Y47 J-4
N2210 G1 Y37.959
N2215 G3 X16.502 Y36 I2 J0.041
N2220 G1 X16.503
N2225 X37.5
N2230 G3 X39.5 Y38 J2
N2235 G1 Y57
N2240 G3 X37.5 Y59 I-2
N2245 G1 X8.5
N2250 G3 X8.3 Y58.8 J-0.2
N2255 G1 Y58.6
N2260 G19 G2 Y58.4 Z-2.85 K0.2
N2265 G0 Z5
N2270 X8.7
N2275 G1 Z-0.05 F600
N2280 Z-3.9
N2285 G3 Y58.6 Z-4.1 J0.2
N2290 G1 Y58.8 F400
N2295 G17 G3 X8.5 Y59 I-0.2
N2300 G1 X6.5 F600
N2305 G3 X4.5 Y57.041 J-2
N2310 G1 Y52.959
N2315 G3 X6.502 Y51 I2 J0.041
N2320 G1 X6.503
N2325 X10.5
N2330 G2 X14.5 Y47 J-4
N2335 G1 Y37.959
N2340 G3 X16.502 Y36 I2 J0.041
N2345 G1 X16.503
N2350 X37.5
N2355 G3 X39.5 Y38 J2
N2360 G1 Y57
N2365 G3 X37.5 Y59 I-2
N2370 G1 X8.5
N2375 G3 X8.3 Y58.8 J-0.2
N2380 G1 Y58.6
N2385 G19 G2 Y58.4 Z-3.9 K0.2
N2390 G0 Z5
N2395 X8.655 Y64.804
N2400 G1 Z3 F600
N2405 Z-1.8
N2410 X8.662 Z-1.852
N2415 X8.682 Z-1.9
N2420 X8.713 Y64.805 Z-1.941
N2425 X8.755 Y64.806 Z-1.973
N2430 X8.803 Y64.807 Z-1.993
N2435 X8.855 Y64.809 Z-2
N2440 X9.055 Y64.814 F400
N2445 G17 G3 X9.25 Y65.018 I-0.005 J0.2
N2450 X7.75 Y64.982 I-0.75 J-0.018 F600
N2455 X9.25 Y65.018 I0.75 J0.018
N2460 X9.045 Y65.213 I-0.2 J-0.005
N2465 G1 X8.845 Y65.209
N2470 X8.793 Y65.207 Z-1.993
N2475 X8.745 Y65.206 Z-1.973
N2480 X8.704 Y65.205 Z-1.941
N2485 X8.672 Y65.204 Z-1.9
N2490 X8.652 Z-1.852
N2495 X8.645 Z-1.8
N2500 G0 Z5
N2505 X8.655 Y64.804
N2510 G1 Z1 F600
N2515 Z-2.85
N2520 X8.662 Z-2.902
N2525 X8.682 Z-2.95
N2530 X8.713 Y64.805 Z-2.991
N2535 X8.755 Y64.806 Z-3.023
N2540 X8.803 Y64.807 Z-3.043
N2545 X8.855 Y64.809 Z-3.05
N2550 X9.055 Y64.814 F400
N2555 G3 X9.25 Y65.018 I-0.005 J0.2
N2560 X7.75 Y64.982 I-0.75 J-0.018 F600
N2565 X9.25 Y65.018 I0.75 J0.018
N2570 X9.045 Y65.213 I-0.2 J-0.005
N2575 G1 X8.845 Y65.209
N2580 X8.793 Y65.207 Z-3.043
N2585 X8.745 Y65.206 Z-3.023
N2590 X8.704 Y65.205 Z-2.991
N2595 X8.672 Y65.204 Z-2.95
N2600 X8.652 Z-2.902
N2605 X8.645 Z-2.85
N2610 G0 Z5
N2615 X8.655 Y64.804
N2620 G1 Z-0.05 F600
N2625 Z-3.9
N2630 X8.662 Z-3.952
N2635 X8.682 Z-4
N2640 X8.713 Y64.805 Z-4.041
N2645 X8.755 Y64.806 Z-4.073
N2650 X8.803 Y64.807 Z-4.093
N2655 X8.855 Y64.809 Z-4.1
N2660 X9.055 Y64.814 F400
N2665 G3 X9.25 Y65.018 I-0.005 J0.2
N2670 X7.75 Y64.982 I-0.75 J-0.018 F600
N2675 X9.25 Y65.018 I0.75 J0.018
N2680 X9.045 Y65.213 I-0.2 J-0.005
N2685 G1 X8.845 Y65.209
N2690 X8.793 Y65.207 Z-4.093
N2695 X8.745 Y65.206 Z-4.073
N2700 X8.704 Y65.205 Z-4.041
N2705 X8.672 Y65.204 Z-4
N2710 X8.652 Z-3.952
N2715 X8.645 Z-3.9
N2720 G0 Z5
N2725 X8.65 Y41.8
N2730 G1 Z3 F600
N2735 Z-1.8
N2740 G18 G2 X8.85 Z-2 I0.2
N2745 G1 X9.05 F400
N2750 G17 G3 X9.25 Y42 J0.2
N2755 X7.75 I-0.75 F600
N2760 X9.25 I0.75
N2765 X9.05 Y42.2 I-0.2
N2770 G1 X8.85
N2775 G18 G3 X8.65 Z-1.8 K0.2
N2780 G0 Z5
N2785 Y41.8
N2790 G1 Z1 F600
N2795 Z-2.85
N2800 G2 X8.85 Z-3.05 I0.2
N2805 G1 X9.05 F400
N2810 G17 G3 X9.25 Y42 J0.2
N2815 X7.75 I-0.75 F600
N2820 X9.25 I0.75
N2825 X9.05 Y42.2 I-0.2
N2830 G1 X8.85
N2835 G18 G3 X8.65 Z-2.85 K0.2
N2840 G0 Z5
N2845 Y41.8
N2850 G1 Z-0.05 F600
N2855 Z-3.9
N2860 G2 X8.85 Z-4.1 I0.2
N2865 G1 X9.05 F400
N2870 G17 G3 X9.25 Y42 J0.2
N2875 X7.75 I-0.75 F600
N2880 X9.25 I0.75
N2885 X9.05 Y42.2 I-0.2
N2890 G1 X8.85
N2895 G18 G3 X8.65 Z-3.9 K0.2
N2900 G0 Z5
N2905 X25.65 Y25
N2910 G1 Z3 F600
N2915 Z-1.8
N2920 G2 X25.85 Z-2 I0.2
N2925 G1 X26.05 F400
N2930 G17 G3 X26.25 Y25.2 J0.2
N2935 X24.75 I-0.75 F600
N2940 X26.25 I0.75
N2945 X26.05 Y25.4 I-0.2
N2950 G1 X25.85
N2955 G18 G3 X25.65 Z-1.8 K0.2
N2960 G0 Z5
N2965 Y25
N2970 G1 Z1 F600
N2975 Z-2.85
N2980 G2 X25.85 Z-3.05 I0.2
N2985 G1 X26.05 F400
N2990 G17 G3 X26.25 Y25.2 J0.2
N2995 X24.75 I-0.75 F600
N3000 X26.25 I0.75
N3005 X26.05 Y25.4 I-0.2
N3010 G1 X25.85
N3015 G18 G3 X25.65 Z-2.85 K0.2
N3020 G0 Z5
N3025 Y25
N3030 G1 Z-0.05 F600
N3035 Z-3.9
N3040 G2 X25.85 Z-4.1 I0.2
N3045 G1 X26.05 F400
N3050 G17 G3 X26.25 Y25.2 J0.2
N3055 X24.75 I-0.75 F600
N3060 X26.25 I0.75
N3065 X26.05 Y25.4 I-0.2
N3070 G1 X25.85
N3075 G18 G3 X25.65 Z-3.9 K0.2
N3080 G0 Z5
N3085 X34.65 Y25
N3090 G1 Z3 F600
N3095 Z-1.8
N3100 G2 X34.85 Z-2 I0.2
N3105 G1 X35.05 F400
N3110 G17 G3 X35.25 Y25.2 J0.2
N3115 X33.75 I-0.75 F600
N3120 X35.25 I0.75
N3125 X35.05 Y25.4 I-0.2
N3130 G1 X34.85
N3135 G18 G3 X34.65 Z-1.8 K0.2
N3140 G0 Z5
N3145 Y25
N3150 G1 Z1 F600
N3155 Z-2.85
N3160 G2 X34.85 Z-3.05 I0.2
N3165 G1 X35.05 F400
N3170 G17 G3 X35.25 Y25.2 J0.2
N3175 X33.75 I-0.75 F600
N3180 X35.25 I0.75
N3185 X35.05 Y25.4 I-0.2
N3190 G1 X34.85
N3195 G18 G3 X34.65 Z-2.85 K0.2
N3200 G0 Z5
N3205 Y25
N3210 G1 Z-0.05 F600
N3215 Z-3.9
N3220 G2 X34.85 Z-4.1 I0.2
N3225 G1 X35.05 F400
N3230 G17 G3 X35.25 Y25.2 J0.2
N3235 X33.75 I-0.75 F600
N3240 X35.25 I0.75
N3245 X35.05 Y25.4 I-0.2
N3250 G1 X34.85
N3255 G18 G3 X34.65 Z-3.9 K0.2
N3260 G0 Z5
N3265 X45.655 Y56.254
N3270 G1 Z3 F600
N3275 Z-1.8
N3280 X45.662 Z-1.852
N3285 X45.682 Z-1.9
N3290 X45.713 Y56.255 Z-1.941
N3295 X45.755 Y56.256 Z-1.973
N3300 X45.803 Y56.257 Z-1.993
N3305 X45.855 Y56.259 Z-2
N3310 X46.055 Y56.264 F400
N3315 G17 G3 X46.25 Y56.468 I-0.005 J0.2
N3320 X44.75 Y56.432 I-0.75 J-0.018 F600
N3325 X46.25 Y56.468 I0.75 J0.018
N3330 X46.045 Y56.663 I-0.2 J-0.005
N3335 G1 X45.845 Y56.659
N3340 X45.793 Y56.657 Z-1.993
N3345 X45.745 Y56.656 Z-1.973
N3350 X45.704 Y56.655 Z-1.941
N3355 X45.672 Y56.654 Z-1.9
N3360 X45.652 Z-1.852
N3365 X45.645 Z-1.8
N3370 G0 Z5
N3375 X45.655 Y56.254
N3380 G1 Z1 F600
N3385 Z-2.85
N3390 X45.662 Z-2.902
N3395 X45.682 Z-2.95
N3400 X45.713 Y56.255 Z-2.991
N3405 X45.755 Y56.256 Z-3.023
N3410 X45.803 Y56.257 Z-3.043
N3415 X45.855 Y56.259 Z-3.05
N3420 X46.055 Y56.264 F400
N3425 G3 X46.25 Y56.468 I-0.005 J0.2
N3430 X44.75 Y56.432 I-0.75 J-0.018 F600
N3435 X46.25 Y56.468 I0.75 J0.018
N3440 X46.045 Y56.663 I-0.2 J-0.005
N3445 G1 X45.845 Y56.659
N3450 X45.793 Y56.657 Z-3.043
N3455 X45.745 Y56.656 Z-3.023
N3460 X45.704 Y56.655 Z-2.991
N3465 X45.672 Y56.654 Z-2.95
N3470 X45.652 Z-2.902
N3475 X45.645 Z-2.85
N3480 G0 Z5
N3485 X45.655 Y56.254
N3490 G1 Z-0.05 F600
N3495 Z-3.9
N3500 X45.662 Z-3.952
N3505 X45.682 Z-4
N3510 X45.713 Y56.255 Z-4.041
N3515 X45.755 Y56.256 Z-4.073
N3520 X45.803 Y56.257 Z-4.093
N3525 X45.855 Y56.259 Z-4.1
N3530 X46.055 Y56.264 F400
N3535 G3 X46.25 Y56.468 I-0.005 J0.2
N3540 X44.75 Y56.432 I-0.75 J-0.018 F600
N3545 X46.25 Y56.468 I0.75 J0.018
N3550 X46.045 Y56.663 I-0.2 J-0.005
N3555 G1 X45.845 Y56.659
N3560 X45.793 Y56.657 Z-4.093
N3565 X45.745 Y56.656 Z-4.073
N3570 X45.704 Y56.655 Z-4.041
N3575 X45.672 Y56.654 Z-4
N3580 X45.652 Z-3.952
N3585 X45.645 Z-3.9
N3590 G0 Z5
N3595 X48.65 Y88.8
N3600 G1 Z3 F600
N3605 Z-1.8
N3610 G18 G2 X48.85 Z-2 I0.2
N3615 G1 X49.05 F400
N3620 G17 G3 X49.25 Y89 J0.2
N3625 X47.75 I-0.75 F600
N3630 X49.25 I0.75
N3635 X49.05 Y89.2 I-0.2
N3640 G1 X48.85
N3645 G18 G3 X48.65 Z-1.8 K0.2
N3650 G0 Z5
N3655 Y88.8
N3660 G1 Z1 F600
N3665 Z-2.85
N3670 G2 X48.85 Z-3.05 I0.2
N3675 G1 X49.05 F400
N3680 G17 G3 X49.25 Y89 J0.2
N3685 X47.75 I-0.75 F600
N3690 X49.25 I0.75
N3695 X49.05 Y89.2 I-0.2
N3700 G1 X48.85
N3705 G18 G3 X48.65 Z-2.85 K0.2
N3710 G0 Z5
N3715 Y88.8
N3720 G1 Z-0.05 F600
N3725 Z-3.9
N3730 G2 X48.85 Z-4.1 I0.2
N3735 G1 X49.05 F400
N3740 G17 G3 X49.25 Y89 J0.2
N3745 X47.75 I-0.75 F600
N3750 X49.25 I0.75
N3755 X49.05 Y89.2 I-0.2
N3760 G1 X48.85
N3765 G18 G3 X48.65 Z-3.9 K0.2
N3770 G0 Z5
N3775 X46.453 Y143.808
N3780 G1 Z3 F600
N3785 Z-1.8
N3790 G2 X46.653 Z-2 I0.2
N3795 G1 X46.854 F400
N3800 G17 G3 X47.054 Y144.008 J0.2
N3805 X45.554 I-0.75 F600
N3810 X47.054 I0.75
N3815 X46.854 Y144.208 I-0.2
N3820 G1 X46.653
N3825 G18 G3 X46.453 Z-1.8 K0.2
N3830 G0 Z5
N3835 Y143.808
N3840 G1 Z1 F600
N3845 Z-2.85
N3850 G2 X46.653 Z-3.05 I0.2
N3855 G1 X46.854 F400
N3860 G17 G3 X47.054 Y144.008 J0.2
N3865 X45.554 I-0.75 F600
N3870 X47.054 I0.75
N3875 X46.854 Y144.208 I-0.2
N3880 G1 X46.653
N3885 G18 G3 X46.453 Z-2.85 K0.2
N3890 G0 Z5
N3895 Y143.808
N3900 G1 Z-0.05 F600
N3905 Z-3.9
N3910 G2 X46.653 Z-4.1 I0.2
N3915 G1 X46.854 F400
N3920 G17 G3 X47.054 Y144.008 J0.2
N3925 X45.554 I-0.75 F600
N3930 X47.054 I0.75
N3935 X46.854 Y144.208 I-0.2
N3940 G1 X46.653
N3945 G18 G3 X46.453 Z-3.9 K0.2
N3950 G0 Z15
N3955 G17

(2D ??8)
N3960 G0 X39.551 Y-1.612
N3965 Z15
N3970 Z5
N3975 G1 Z3 F600
N3980 Z-1.8
N3985 Y-1.605 Z-1.852
N3990 X39.553 Y-1.585 Z-1.9
N3995 X39.556 Y-1.553 Z-1.941
N4000 X39.56 Y-1.512 Z-1.973
N4005 X39.564 Y-1.464 Z-1.993
N4010 X39.569 Y-1.413 Z-2
N4015 X39.588 Y-1.213 F400
N4020 G3 X39.407 Y-0.996 I-0.199 J0.019
N4025 G2 X38.5 Y0 I0.093 J0.996 F600
N4030 G1 Y20
N4035 X19.5
N4040 Y0
N4045 G2 X18.5 Y-1 I-1
N4050 G1 X0
N4055 G2 X-1 Y0 J1
N4060 G1 Y58.134
N4065 G2 X-0.966 Y58.393 I1
N4070 G1 X19.593 Y135.118
N4075 G2 X48.374 Y151.735 I22.699 J-6.082
N4080 X64.991 Y122.953 I-6.082 J-22.699
N4085 G1 X55 Y85.666
N4090 Y0
N4095 G2 X54 Y-1 I-1
N4100 G1 X39.5
N4105 X39.407 Y-0.996
N4110 G3 X39.189 Y-1.176 I-0.019 J-0.199
N4115 G1 X39.171 Y-1.375
N4120 X39.166 Y-1.427 Z-1.993
N4125 X39.162 Y-1.475 Z-1.973
N4130 X39.158 Y-1.516 Z-1.941
N4135 X39.155 Y-1.548 Z-1.9
N4140 X39.153 Y-1.568 Z-1.852
N4145 X39.152 Y-1.575 Z-1.8
N4150 G0 Z5
N4155 X39.551 Y-1.612
N4160 G1 Z1 F600
N4165 Z-2.85
N4170 Y-1.605 Z-2.902
N4175 X39.553 Y-1.585 Z-2.95
N4180 X39.556 Y-1.553 Z-2.991
N4185 X39.56 Y-1.512 Z-3.023
N4190 X39.564 Y-1.464 Z-3.043
N4195 X39.569 Y-1.413 Z-3.05
N4200 X39.588 Y-1.213 F400
N4205 G3 X39.407 Y-0.996 I-0.199 J0.019
N4210 G2 X38.5 Y0 I0.093 J0.996 F600
N4215 G1 Y20
N4220 X19.5
N4225 Y0
N4230 G2 X18.5 Y-1 I-1
N4235 G1 X0
N4240 G2 X-1 Y0 J1
N4245 G1 Y58.134
N4250 G2 X-0.966 Y58.393 I1
N4255 G1 X19.593 Y135.118
N4260 G2 X48.374 Y151.735 I22.699 J-6.082
N4265 X64.991 Y122.953 I-6.082 J-22.699
N4270 G1 X55 Y85.666
N4275 Y0
N4280 G2 X54 Y-1 I-1
N4285 G1 X39.5
N4290 X39.407 Y-0.996
N4295 G3 X39.189 Y-1.176 I-0.019 J-0.199
N4300 G1 X39.171 Y-1.375
N4305 X39.166 Y-1.427 Z-3.043
N4310 X39.162 Y-1.475 Z-3.023
N4315 X39.158 Y-1.516 Z-2.991
N4320 X39.155 Y-1.548 Z-2.95
N4325 X39.153 Y-1.568 Z-2.902
N4330 X39.152 Y-1.575 Z-2.85
N4335 G0 Z5
N4340 X39.551 Y-1.612
N4345 G1 Z-0.05 F600
N4350 Z-3.9
N4355 Y-1.605 Z-3.952
N4360 X39.553 Y-1.585 Z-4
N4365 X39.556 Y-1.553 Z-4.041
N4370 X39.56 Y-1.512 Z-4.073
N4375 X39.564 Y-1.464 Z-4.093
N4380 X39.569 Y-1.413 Z-4.1
N4385 X39.588 Y-1.213 F400
N4390 G3 X39.407 Y-0.996 I-0.199 J0.019
N4395 G2 X38.5 Y0 I0.093 J0.996 F600
N4400 G1 Y20
N4405 X19.5
N4410 Y0
N4415 G2 X18.5 Y-1 I-1
N4420 G1 X0
N4425 G2 X-1 Y0 J1
N4430 G1 Y58.134
N4435 G2 X-0.966 Y58.393 I1
N4440 G1 X19.593 Y135.118
N4445 G2 X48.374 Y151.735 I22.699 J-6.082
N4450 X64.991 Y122.953 I-6.082 J-22.699
N4455 G1 X55 Y85.666
N4460 Y0
N4465 G2 X54 Y-1 I-1
N4470 G1 X39.5
N4475 X39.407 Y-0.996
N4480 G3 X39.189 Y-1.176 I-0.019 J-0.199
N4485 G1 X39.171 Y-1.375
N4490 X39.166 Y-1.427 Z-4.093
N4495 X39.162 Y-1.475 Z-4.073
N4500 X39.158 Y-1.516 Z-4.041
N4505 X39.155 Y-1.548 Z-4
N4510 X39.153 Y-1.568 Z-3.952
N4515 X39.152 Y-1.575 Z-3.9
N4520 G0 Z15
N4525 M9
N4530 G28
N4535 M30
%
