%
(1001)
(T1 D=2 CR=0 - ZMIN=-9.1 - flat end mill)
N10 G90 G94
N15 G17
N20 G21
N25 M9
N30 G28

(2D ????17)
N35 T1 M6
(0)
N40 S23873 M3
N45 G54
N50 M8
N55 G0 X5.595 Y77.549
N60 G43 Z15
N65 Z5
N70 G1 Z-1.8 F400
N75 X5.602 Z-1.852
N80 X5.622 Z-1.9
N85 X5.654 Z-1.941
N90 X5.695 Z-1.973
N95 X5.743 Y77.55 Z-1.993
N100 X5.795 Z-2
N105 X8.61 Y77.56
N110 X13 Y77.576 F600
N115 X13.899 Y77.572
N120 G3 X14.1 Y77.776 I0.001 J0.2
N125 G1 X14.09 Y78.273
N130 G3 X13.89 Y78.469 I-0.2 J-0.004
N135 G1 X8.605
N140 G3 X8.405 Y78.269 J-0.2
N145 G1 X8.402 Y76.77
N150 G3 X8.602 Y76.569 I0.2
N155 G1 X13.887
N160 G3 X14.087 Y76.769 J0.2
N165 G1 X14.098 Y79.23
N170 G3 X13.898 Y79.431 I-0.2 J0.001
N175 G1 X8.613
N180 G3 X8.413 Y79.231 J-0.2
N185 G1 X8.406 Y75.2
N190 G3 X8.606 Y75 I0.2
N195 G1 X13.899
N200 G3 X14.099 Y75.2 J0.2
N205 G1 X14.094 Y80.8
N210 G3 X13.894 Y81 I-0.2
N215 G1 X8.601
N220 G3 X8.403 Y80.827 J-0.2
N225 G1 X7.995 Y77.785
N230 G3 X8.194 Y77.559 I0.198 J-0.027
N235 G1 X8.246 Z-2.007 F400
N240 X8.294 Z-2.027
N245 X8.336 Z-2.059
N250 X8.368 Z-2.1
N255 X8.388 Z-2.148
N260 X8.394 Z-2.2
N265 Z-3.8
N270 X8.401 Z-3.852
N275 X8.421 Z-3.9
N280 X8.453 Y77.56 Z-3.941
N285 X8.494 Z-3.973
N290 X8.543 Z-3.993
N295 X8.594 Z-4
N300 X8.61
N305 X13 Y77.576 F600
N310 X13.899 Y77.572
N315 G3 X14.1 Y77.776 I0.001 J0.2
N320 G1 X14.09 Y78.273
N325 G3 X13.89 Y78.469 I-0.2 J-0.004
N330 G1 X8.605
N335 G3 X8.405 Y78.269 J-0.2
N340 G1 X8.402 Y76.77
N345 G3 X8.602 Y76.569 I0.2
N350 G1 X13.887
N355 G3 X14.087 Y76.769 J0.2
N360 G1 X14.098 Y79.23
N365 G3 X13.898 Y79.431 I-0.2 J0.001
N370 G1 X8.613
N375 G3 X8.413 Y79.231 J-0.2
N380 G1 X8.406 Y75.2
N385 G3 X8.606 Y75 I0.2
N390 G1 X13.899
N395 G3 X14.099 Y75.2 J0.2
N400 G1 X14.094 Y80.8
N405 G3 X13.894 Y81 I-0.2
N410 G1 X8.601
N415 G3 X8.403 Y80.827 J-0.2
N420 G1 X7.995 Y77.785
N425 G3 X8.194 Y77.559 I0.198 J-0.027
N430 G1 X8.246 Z-4.007 F400
N435 X8.294 Z-4.027
N440 X8.336 Z-4.059
N445 X8.368 Z-4.1
N450 X8.388 Z-4.148
N455 X8.394 Z-4.2
N460 Z-5.8
N465 X8.401 Z-5.852
N470 X8.421 Z-5.9
N475 X8.453 Y77.56 Z-5.941
N480 X8.494 Z-5.973
N485 X8.543 Z-5.993
N490 X8.594 Z-6
N495 X8.61
N500 X13 Y77.576 F600
N505 X13.899 Y77.572
N510 G3 X14.1 Y77.776 I0.001 J0.2
N515 G1 X14.09 Y78.273
N520 G3 X13.89 Y78.469 I-0.2 J-0.004
N525 G1 X8.605
N530 G3 X8.405 Y78.269 J-0.2
N535 G1 X8.402 Y76.77
N540 G3 X8.602 Y76.569 I0.2
N545 G1 X13.887
N550 G3 X14.087 Y76.769 J0.2
N555 G1 X14.098 Y79.23
N560 G3 X13.898 Y79.431 I-0.2 J0.001
N565 G1 X8.613
N570 G3 X8.413 Y79.231 J-0.2
N575 G1 X8.406 Y75.2
N580 G3 X8.606 Y75 I0.2
N585 G1 X13.899
N590 G3 X14.099 Y75.2 J0.2
N595 G1 X14.094 Y80.8
N600 G3 X13.894 Y81 I-0.2
N605 G1 X8.601
N610 G3 X8.403 Y80.827 J-0.2
N615 G1 X7.995 Y77.785
N620 G3 X8.194 Y77.559 I0.198 J-0.027
N625 G1 X8.246 Z-6.007 F400
N630 X8.294 Z-6.027
N635 X8.336 Z-6.059
N640 X8.368 Z-6.1
N645 X8.388 Z-6.148
N650 X8.394 Z-6.2
N655 Z-7.8
N660 X8.401 Z-7.852
N665 X8.421 Z-7.9
N670 X8.453 Y77.56 Z-7.941
N675 X8.494 Z-7.973
N680 X8.543 Z-7.993
N685 X8.594 Z-8
N690 X8.61
N695 X13 Y77.576 F600
N700 X13.899 Y77.572
N705 G3 X14.1 Y77.776 I0.001 J0.2
N710 G1 X14.09 Y78.273
N715 G3 X13.89 Y78.469 I-0.2 J-0.004
N720 G1 X8.605
N725 G3 X8.405 Y78.269 J-0.2
N730 G1 X8.402 Y76.77
N735 G3 X8.602 Y76.569 I0.2
N740 G1 X13.887
N745 G3 X14.087 Y76.769 J0.2
N750 G1 X14.098 Y79.23
N755 G3 X13.898 Y79.431 I-0.2 J0.001
N760 G1 X8.613
N765 G3 X8.413 Y79.231 J-0.2
N770 G1 X8.406 Y75.2
N775 G3 X8.606 Y75 I0.2
N780 G1 X13.899
N785 G3 X14.099 Y75.2 J0.2
N790 G1 X14.094 Y80.8
N795 G3 X13.894 Y81 I-0.2
N800 G1 X8.601
N805 G3 X8.403 Y80.827 J-0.2
N810 G1 X7.995 Y77.785
N815 G3 X8.194 Y77.559 I0.198 J-0.027
N820 G1 X8.246 Z-8.007 F400
N825 X8.294 Z-8.027
N830 X8.336 Z-8.059
N835 X8.368 Z-8.1
N840 X8.388 Z-8.148
N845 X8.394 Z-8.2
N850 Z-8.9
N855 X8.401 Z-8.952
N860 X8.421 Z-9
N865 X8.453 Y77.56 Z-9.041
N870 X8.494 Z-9.073
N875 X8.543 Z-9.093
N880 X8.594 Z-9.1
N885 X8.61
N890 X13 Y77.576 F600
N895 X13.899 Y77.572
N900 G3 X14.1 Y77.776 I0.001 J0.2
N905 G1 X14.09 Y78.273
N910 G3 X13.89 Y78.469 I-0.2 J-0.004
N915 G1 X8.605
N920 G3 X8.405 Y78.269 J-0.2
N925 G1 X8.402 Y76.77
N930 G3 X8.602 Y76.569 I0.2
N935 G1 X13.887
N940 G3 X14.087 Y76.769 J0.2
N945 G1 X14.098 Y79.23
N950 G3 X13.898 Y79.431 I-0.2 J0.001
N955 G1 X8.613
N960 G3 X8.413 Y79.231 J-0.2
N965 G1 X8.406 Y75.2
N970 G3 X8.606 Y75 I0.2
N975 G1 X13.899
N980 G3 X14.099 Y75.2 J0.2
N985 G1 X14.094 Y80.8
N990 G3 X13.894 Y81 I-0.2
N995 G1 X8.601
N1000 X8.57 Y80.998
N1005 X7.582 Y80.841
N1010 X7.531 Y80.833 Z-9.093
N1015 X7.483 Y80.825 Z-9.073
N1020 X7.442 Y80.819 Z-9.041
N1025 X7.411 Y80.814 Z-9
N1030 X7.391 Y80.811 Z-8.952
N1035 X7.384 Y80.81 Z-8.9
N1040 G0 Z15

(2D ??25)
N1045 X13.994 Y120.607
N1050 Z15
N1055 Z5
N1060 G1 Z3 F600
N1065 Z-1.8
N1070 X13.987 Y120.606 Z-1.852
N1075 X13.968 Y120.6 Z-1.9
N1080 X13.937 Y120.592 Z-1.941
N1085 X13.897 Y120.581 Z-1.973
N1090 X13.851 Y120.569 Z-1.993
N1095 X13.801 Y120.556 Z-2
N1100 X13.607 Y120.504 F400
N1105 G3 X13.466 Y120.259 I0.052 J-0.193
N1110 G1 X13.966 Y118.393 F600
N1115 G2 X14 Y118.134 I-0.966 J-0.259
N1120 G1 Y1.866
N1125 G2 X13.966 Y1.607 I-1
N1130 G1 X13.466 Y-0.259
N1135 G2 X12.5 Y-1 I-0.966 J0.259
N1140 G1 X0
N1145 G2 X-1 Y0 J1
N1150 G1 Y22
N1155 G2 X0 Y23 I1
N1160 G1 X8.5
N1165 Y97
N1170 X0
N1175 G2 X-1 Y98 J1
N1180 G1 Y120
N1185 G2 X0 Y121 I1
N1190 G1 X12.5
N1195 G2 X13.466 Y120.259 J-1
N1200 G3 X13.711 Y120.117 I0.193 J0.052
N1205 G1 X13.904 Y120.169
N1210 X13.954 Y120.183 Z-1.993
N1215 X14.001 Y120.195 Z-1.973
N1220 X14.041 Y120.206 Z-1.941
N1225 X14.071 Y120.214 Z-1.9
N1230 X14.091 Y120.219 Z-1.852
N1235 X14.097 Y120.221 Z-1.8
N1240 G0 Z5
N1245 X13.994 Y120.607
N1250 G1 Z1 F600
N1255 Z-3.8
N1260 X13.987 Y120.606 Z-3.852
N1265 X13.968 Y120.6 Z-3.9
N1270 X13.937 Y120.592 Z-3.941
N1275 X13.897 Y120.581 Z-3.973
N1280 X13.851 Y120.569 Z-3.993
N1285 X13.801 Y120.556 Z-4
N1290 X13.607 Y120.504 F400
N1295 G3 X13.466 Y120.259 I0.052 J-0.193
N1300 G1 X13.966 Y118.393 F600
N1305 G2 X14 Y118.134 I-0.966 J-0.259
N1310 G1 Y1.866
N1315 G2 X13.966 Y1.607 I-1
N1320 G1 X13.466 Y-0.259
N1325 G2 X12.5 Y-1 I-0.966 J0.259
N1330 G1 X0
N1335 G2 X-1 Y0 J1
N1340 G1 Y22
N1345 G2 X0 Y23 I1
N1350 G1 X8.5
N1355 Y97
N1360 X0
N1365 G2 X-1 Y98 J1
N1370 G1 Y120
N1375 G2 X0 Y121 I1
N1380 G1 X12.5
N1385 G2 X13.466 Y120.259 J-1
N1390 G3 X13.711 Y120.117 I0.193 J0.052
N1395 G1 X13.904 Y120.169
N1400 X13.954 Y120.183 Z-3.993
N1405 X14.001 Y120.195 Z-3.973
N1410 X14.041 Y120.206 Z-3.941
N1415 X14.071 Y120.214 Z-3.9
N1420 X14.091 Y120.219 Z-3.852
N1425 X14.097 Y120.221 Z-3.8
N1430 G0 Z5
N1435 X13.994 Y120.607
N1440 G1 Z-1 F600
N1445 Z-5.8
N1450 X13.987 Y120.606 Z-5.852
N1455 X13.968 Y120.6 Z-5.9
N1460 X13.937 Y120.592 Z-5.941
N1465 X13.897 Y120.581 Z-5.973
N1470 X13.851 Y120.569 Z-5.993
N1475 X13.801 Y120.556 Z-6
N1480 X13.607 Y120.504 F400
N1485 G3 X13.466 Y120.259 I0.052 J-0.193
N1490 G1 X13.966 Y118.393 F600
N1495 G2 X14 Y118.134 I-0.966 J-0.259
N1500 G1 Y1.866
N1505 G2 X13.966 Y1.607 I-1
N1510 G1 X13.466 Y-0.259
N1515 G2 X12.5 Y-1 I-0.966 J0.259
N1520 G1 X0
N1525 G2 X-1 Y0 J1
N1530 G1 Y22
N1535 G2 X0 Y23 I1
N1540 G1 X8.5
N1545 Y97
N1550 X0
N1555 G2 X-1 Y98 J1
N1560 G1 Y120
N1565 G2 X0 Y121 I1
N1570 G1 X12.5
N1575 G2 X13.466 Y120.259 J-1
N1580 G3 X13.711 Y120.117 I0.193 J0.052
N1585 G1 X13.904 Y120.169
N1590 X13.954 Y120.183 Z-5.993
N1595 X14.001 Y120.195 Z-5.973
N1600 X14.041 Y120.206 Z-5.941
N1605 X14.071 Y120.214 Z-5.9
N1610 X14.091 Y120.219 Z-5.852
N1615 X14.097 Y120.221 Z-5.8
N1620 G0 Z5
N1625 X13.994 Y120.607
N1630 G1 Z-3 F600
N1635 Z-7.8
N1640 X13.987 Y120.606 Z-7.852
N1645 X13.968 Y120.6 Z-7.9
N1650 X13.937 Y120.592 Z-7.941
N1655 X13.897 Y120.581 Z-7.973
N1660 X13.851 Y120.569 Z-7.993
N1665 X13.801 Y120.556 Z-8
N1670 X13.607 Y120.504 F400
N1675 G3 X13.466 Y120.259 I0.052 J-0.193
N1680 G1 X13.966 Y118.393 F600
N1685 G2 X14 Y118.134 I-0.966 J-0.259
N1690 G1 Y1.866
N1695 G2 X13.966 Y1.607 I-1
N1700 G1 X13.466 Y-0.259
N1705 G2 X12.5 Y-1 I-0.966 J0.259
N1710 G1 X0
N1715 G2 X-1 Y0 J1
N1720 G1 Y22
N1725 G2 X0 Y23 I1
N1730 G1 X8.5
N1735 Y97
N1740 X0
N1745 G2 X-1 Y98 J1
N1750 G1 Y120
N1755 G2 X0 Y121 I1
N1760 G1 X12.5
N1765 G2 X13.466 Y120.259 J-1
N1770 G3 X13.711 Y120.117 I0.193 J0.052
N1775 G1 X13.904 Y120.169
N1780 X13.954 Y120.183 Z-7.993
N1785 X14.001 Y120.195 Z-7.973
N1790 X14.041 Y120.206 Z-7.941
N1795 X14.071 Y120.214 Z-7.9
N1800 X14.091 Y120.219 Z-7.852
N1805 X14.097 Y120.221 Z-7.8
N1810 G0 Z5
N1815 X13.994 Y120.607
N1820 G1 Z-5 F600
N1825 Z-8.9
N1830 X13.987 Y120.606 Z-8.952
N1835 X13.968 Y120.6 Z-9
N1840 X13.937 Y120.592 Z-9.041
N1845 X13.897 Y120.581 Z-9.073
N1850 X13.851 Y120.569 Z-9.093
N1855 X13.801 Y120.556 Z-9.1
N1860 X13.607 Y120.504 F400
N1865 G3 X13.466 Y120.259 I0.052 J-0.193
N1870 G1 X13.966 Y118.393 F600
N1875 G2 X14 Y118.134 I-0.966 J-0.259
N1880 G1 Y1.866
N1885 G2 X13.966 Y1.607 I-1
N1890 G1 X13.466 Y-0.259
N1895 G2 X12.5 Y-1 I-0.966 J0.259
N1900 G1 X0
N1905 G2 X-1 Y0 J1
N1910 G1 Y22
N1915 G2 X0 Y23 I1
N1920 G1 X8.5
N1925 Y97
N1930 X0
N1935 G2 X-1 Y98 J1
N1940 G1 Y120
N1945 G2 X0 Y121 I1
N1950 G1 X12.5
N1955 G2 X13.466 Y120.259 J-1
N1960 G3 X13.711 Y120.117 I0.193 J0.052
N1965 G1 X13.904 Y120.169
N1970 X13.954 Y120.183 Z-9.093
N1975 X14.001 Y120.195 Z-9.073
N1980 X14.041 Y120.206 Z-9.041
N1985 X14.071 Y120.214 Z-9
N1990 X14.091 Y120.219 Z-8.952
N1995 X14.097 Y120.221 Z-8.9
N2000 G0 Z15
N2005 M9
N2010 G28
N2015 M30
%
