%
(1001)
(T1 D=2 CR=0 - ZMIN=-9.1 - flat end mill)
N10 G90 G94
N15 G17
N20 G21
N25 M9
N30 G28

(2D ??22)
N35 T1 M6
(0)
N40 S23873 M3
N45 G54
N50 M8
N55 G0 X13.994 Y120.607
N60 G43 Z15
N65 Z5
N70 G1 Z3 F600
N75 Z-1.8
N80 X13.987 Y120.606 Z-1.852
N85 X13.968 Y120.6 Z-1.9
N90 X13.937 Y120.592 Z-1.941
N95 X13.897 Y120.581 Z-1.973
N100 X13.851 Y120.569 Z-1.993
N105 X13.801 Y120.556 Z-2
N110 X13.607 Y120.504 F400
N115 G3 X13.466 Y120.259 I0.052 J-0.193
N120 G1 X13.966 Y118.393 F600
N125 G2 X14 Y118.134 I-0.966 J-0.259
N130 G1 Y1.866
N135 G2 X13.966 Y1.607 I-1
N140 G1 X13.466 Y-0.259
N145 G2 X12.5 Y-1 I-0.966 J0.259
N150 G1 X0
N155 G2 X-1 Y0 J1
N160 G1 Y22
N165 G2 X0 Y23 I1
N170 G1 X8.5
N175 Y97
N180 X0
N185 G2 X-1 Y98 J1
N190 G1 Y120
N195 G2 X0 Y121 I1
N200 G1 X12.5
N205 G2 X13.466 Y120.259 J-1
N210 G3 X13.711 Y120.117 I0.193 J0.052
N215 G1 X13.904 Y120.169
N220 X13.954 Y120.183 Z-1.993
N225 X14.001 Y120.195 Z-1.973
N230 X14.041 Y120.206 Z-1.941
N235 X14.071 Y120.214 Z-1.9
N240 X14.091 Y120.219 Z-1.852
N245 X14.097 Y120.221 Z-1.8
N250 G0 Z5
N255 X13.994 Y120.607
N260 G1 Z1 F600
N265 Z-3.8
N270 X13.987 Y120.606 Z-3.852
N275 X13.968 Y120.6 Z-3.9
N280 X13.937 Y120.592 Z-3.941
N285 X13.897 Y120.581 Z-3.973
N290 X13.851 Y120.569 Z-3.993
N295 X13.801 Y120.556 Z-4
N300 X13.607 Y120.504 F400
N305 G3 X13.466 Y120.259 I0.052 J-0.193
N310 G1 X13.966 Y118.393 F600
N315 G2 X14 Y118.134 I-0.966 J-0.259
N320 G1 Y1.866
N325 G2 X13.966 Y1.607 I-1
N330 G1 X13.466 Y-0.259
N335 G2 X12.5 Y-1 I-0.966 J0.259
N340 G1 X0
N345 G2 X-1 Y0 J1
N350 G1 Y22
N355 G2 X0 Y23 I1
N360 G1 X8.5
N365 Y97
N370 X0
N375 G2 X-1 Y98 J1
N380 G1 Y120
N385 G2 X0 Y121 I1
N390 G1 X12.5
N395 G2 X13.466 Y120.259 J-1
N400 G3 X13.711 Y120.117 I0.193 J0.052
N405 G1 X13.904 Y120.169
N410 X13.954 Y120.183 Z-3.993
N415 X14.001 Y120.195 Z-3.973
N420 X14.041 Y120.206 Z-3.941
N425 X14.071 Y120.214 Z-3.9
N430 X14.091 Y120.219 Z-3.852
N435 X14.097 Y120.221 Z-3.8
N440 G0 Z5
N445 X13.994 Y120.607
N450 G1 Z-1 F600
N455 Z-5.8
N460 X13.987 Y120.606 Z-5.852
N465 X13.968 Y120.6 Z-5.9
N470 X13.937 Y120.592 Z-5.941
N475 X13.897 Y120.581 Z-5.973
N480 X13.851 Y120.569 Z-5.993
N485 X13.801 Y120.556 Z-6
N490 X13.607 Y120.504 F400
N495 G3 X13.466 Y120.259 I0.052 J-0.193
N500 G1 X13.966 Y118.393 F600
N505 G2 X14 Y118.134 I-0.966 J-0.259
N510 G1 Y1.866
N515 G2 X13.966 Y1.607 I-1
N520 G1 X13.466 Y-0.259
N525 G2 X12.5 Y-1 I-0.966 J0.259
N530 G1 X0
N535 G2 X-1 Y0 J1
N540 G1 Y22
N545 G2 X0 Y23 I1
N550 G1 X8.5
N555 Y97
N560 X0
N565 G2 X-1 Y98 J1
N570 G1 Y120
N575 G2 X0 Y121 I1
N580 G1 X12.5
N585 G2 X13.466 Y120.259 J-1
N590 G3 X13.711 Y120.117 I0.193 J0.052
N595 G1 X13.904 Y120.169
N600 X13.954 Y120.183 Z-5.993
N605 X14.001 Y120.195 Z-5.973
N610 X14.041 Y120.206 Z-5.941
N615 X14.071 Y120.214 Z-5.9
N620 X14.091 Y120.219 Z-5.852
N625 X14.097 Y120.221 Z-5.8
N630 G0 Z5
N635 X13.994 Y120.607
N640 G1 Z-3 F600
N645 Z-7.8
N650 X13.987 Y120.606 Z-7.852
N655 X13.968 Y120.6 Z-7.9
N660 X13.937 Y120.592 Z-7.941
N665 X13.897 Y120.581 Z-7.973
N670 X13.851 Y120.569 Z-7.993
N675 X13.801 Y120.556 Z-8
N680 X13.607 Y120.504 F400
N685 G3 X13.466 Y120.259 I0.052 J-0.193
N690 G1 X13.966 Y118.393 F600
N695 G2 X14 Y118.134 I-0.966 J-0.259
N700 G1 Y1.866
N705 G2 X13.966 Y1.607 I-1
N710 G1 X13.466 Y-0.259
N715 G2 X12.5 Y-1 I-0.966 J0.259
N720 G1 X0
N725 G2 X-1 Y0 J1
N730 G1 Y22
N735 G2 X0 Y23 I1
N740 G1 X8.5
N745 Y97
N750 X0
N755 G2 X-1 Y98 J1
N760 G1 Y120
N765 G2 X0 Y121 I1
N770 G1 X12.5
N775 G2 X13.466 Y120.259 J-1
N780 G3 X13.711 Y120.117 I0.193 J0.052
N785 G1 X13.904 Y120.169
N790 X13.954 Y120.183 Z-7.993
N795 X14.001 Y120.195 Z-7.973
N800 X14.041 Y120.206 Z-7.941
N805 X14.071 Y120.214 Z-7.9
N810 X14.091 Y120.219 Z-7.852
N815 X14.097 Y120.221 Z-7.8
N820 G0 Z5
N825 X13.994 Y120.607
N830 G1 Z-5 F600
N835 Z-8.9
N840 X13.987 Y120.606 Z-8.952
N845 X13.968 Y120.6 Z-9
N850 X13.937 Y120.592 Z-9.041
N855 X13.897 Y120.581 Z-9.073
N860 X13.851 Y120.569 Z-9.093
N865 X13.801 Y120.556 Z-9.1
N870 X13.607 Y120.504 F400
N875 G3 X13.466 Y120.259 I0.052 J-0.193
N880 G1 X13.966 Y118.393 F600
N885 G2 X14 Y118.134 I-0.966 J-0.259
N890 G1 Y1.866
N895 G2 X13.966 Y1.607 I-1
N900 G1 X13.466 Y-0.259
N905 G2 X12.5 Y-1 I-0.966 J0.259
N910 G1 X0
N915 G2 X-1 Y0 J1
N920 G1 Y22
N925 G2 X0 Y23 I1
N930 G1 X8.5
N935 Y97
N940 X0
N945 G2 X-1 Y98 J1
N950 G1 Y120
N955 G2 X0 Y121 I1
N960 G1 X12.5
N965 G2 X13.466 Y120.259 J-1
N970 G3 X13.711 Y120.117 I0.193 J0.052
N975 G1 X13.904 Y120.169
N980 X13.954 Y120.183 Z-9.093
N985 X14.001 Y120.195 Z-9.073
N990 X14.041 Y120.206 Z-9.041
N995 X14.071 Y120.214 Z-9
N1000 X14.091 Y120.219 Z-8.952
N1005 X14.097 Y120.221 Z-8.9
N1010 G0 Z15
N1015 M9
N1020 G28
N1025 M30
%
