%
(1001)
(T1 D=2 CR=0 - ZMIN=-7 - flat end mill)
N10 G90 G94
N15 G17
N20 G21
N25 M9
N30 G28

(2D ????10)
N35 T1 M6
(0)
N40 S23873 M3
N45 G54
N50 M8
N55 G0 X4.507 Y3.918
N60 G43 Z15
N65 Z5
N70 G1 Z2.7 F400
N75 X4.502 Y3.943 Z2.602 F600
N80 X4.486 Y4.012 Z2.529
N85 X4.456 Y4.104 Z2.5
N90 G3 X2.684 Y3.416 Z2.396 I-0.886 J-0.344
N95 X4.456 Y4.104 Z2.292 I0.886 J0.344
N100 X2.684 Y3.416 Z2.187 I-0.886 J-0.344
N105 X4.456 Y4.104 Z2.083 I0.886 J0.344
N110 X2.684 Y3.416 Z1.979 I-0.886 J-0.344
N115 X4.456 Y4.104 Z1.875 I0.886 J0.344
N120 X2.684 Y3.416 Z1.77 I-0.886 J-0.344
N125 X4.456 Y4.104 Z1.666 I0.886 J0.344
N130 X2.684 Y3.416 Z1.562 I-0.886 J-0.344
N135 X4.456 Y4.104 Z1.458 I0.886 J0.344
N140 X2.684 Y3.416 Z1.354 I-0.886 J-0.344
N145 X4.456 Y4.104 Z1.249 I0.886 J0.344
N150 X2.684 Y3.416 Z1.145 I-0.886 J-0.344
N155 X4.456 Y4.104 Z1.041 I0.886 J0.344
N160 X2.684 Y3.416 Z0.937 I-0.886 J-0.344
N165 X4.456 Y4.104 Z0.832 I0.886 J0.344
N170 X2.684 Y3.416 Z0.728 I-0.886 J-0.344
N175 X4.456 Y4.104 Z0.624 I0.886 J0.344
N180 X2.684 Y3.416 Z0.52 I-0.886 J-0.344
N185 X4.456 Y4.104 Z0.416 I0.886 J0.344
N190 X2.684 Y3.416 Z0.311 I-0.886 J-0.344
N195 X4.456 Y4.104 Z0.207 I0.886 J0.344
N200 X2.684 Y3.416 Z0.103 I-0.886 J-0.344
N205 X4.456 Y4.104 Z-0.001 I0.886 J0.344
N210 X2.684 Y3.416 Z-0.106 I-0.886 J-0.344
N215 X4.456 Y4.104 Z-0.21 I0.886 J0.344
N220 X2.684 Y3.416 Z-0.314 I-0.886 J-0.344
N225 X4.456 Y4.104 Z-0.418 I0.886 J0.344
N230 X2.684 Y3.416 Z-0.522 I-0.886 J-0.344
N235 X4.456 Y4.104 Z-0.627 I0.886 J0.344
N240 X2.684 Y3.416 Z-0.731 I-0.886 J-0.344
N245 X4.456 Y4.104 Z-0.835 I0.886 J0.344
N250 X2.684 Y3.416 Z-0.939 I-0.886 J-0.344
N255 X4.456 Y4.104 Z-1.044 I0.886 J0.344
N260 X2.684 Y3.416 Z-1.148 I-0.886 J-0.344
N265 X4.456 Y4.104 Z-1.252 I0.886 J0.344
N270 X2.684 Y3.416 Z-1.356 I-0.886 J-0.344
N275 X4.456 Y4.104 Z-1.46 I0.886 J0.344
N280 X2.684 Y3.416 Z-1.565 I-0.886 J-0.344
N285 X4.456 Y4.104 Z-1.669 I0.886 J0.344
N290 X2.684 Y3.416 Z-1.773 I-0.886 J-0.344
N295 X4.456 Y4.104 Z-1.877 I0.886 J0.344
N300 X2.684 Y3.416 Z-1.982 I-0.886 J-0.344
N305 X3 Y3 Z-2 I0.886 J0.344
N310 X6 Y7 I1.5 J2
N315 X3 Y3 I-1.5 J-2
N320 X6 Y7 Z-2.274 I1.5 J2
N325 X3 Y3 Z-2.549 I-1.5 J-2
N330 X6 Y7 Z-2.823 I1.5 J2
N335 X2.042 Y5.459 Z-3 I-1.5 J-2
N340 X6.958 Y4.541 I2.458 J-0.459
N345 X2.042 Y5.459 I-2.458 J0.459
N350 G1 X2.039 Y5.409 Z-2.987
N355 X2.049 Y5.36 Z-2.973
N360 X2.063 Y5.327 Z-2.937
N365 X2.084 Y5.296 Z-2.9
N370 X2.102 Y5.277 Z-2.8
N375 G0 Z15
N380 X4.507 Y113.918
N385 Z5
N390 G1 Z2.7 F400
N395 X4.502 Y113.943 Z2.602 F600
N400 X4.486 Y114.012 Z2.529
N405 X4.456 Y114.104 Z2.5
N410 G3 X2.684 Y113.416 Z2.396 I-0.886 J-0.344
N415 X4.456 Y114.104 Z2.292 I0.886 J0.344
N420 X2.684 Y113.416 Z2.187 I-0.886 J-0.344
N425 X4.456 Y114.104 Z2.083 I0.886 J0.344
N430 X2.684 Y113.416 Z1.979 I-0.886 J-0.344
N435 X4.456 Y114.104 Z1.875 I0.886 J0.344
N440 X2.684 Y113.416 Z1.77 I-0.886 J-0.344
N445 X4.456 Y114.104 Z1.666 I0.886 J0.344
N450 X2.684 Y113.416 Z1.562 I-0.886 J-0.344
N455 X4.456 Y114.104 Z1.458 I0.886 J0.344
N460 X2.684 Y113.416 Z1.354 I-0.886 J-0.344
N465 X4.456 Y114.104 Z1.249 I0.886 J0.344
N470 X2.684 Y113.416 Z1.145 I-0.886 J-0.344
N475 X4.456 Y114.104 Z1.041 I0.886 J0.344
N480 X2.684 Y113.416 Z0.937 I-0.886 J-0.344
N485 X4.456 Y114.104 Z0.832 I0.886 J0.344
N490 X2.684 Y113.416 Z0.728 I-0.886 J-0.344
N495 X4.456 Y114.104 Z0.624 I0.886 J0.344
N500 X2.684 Y113.416 Z0.52 I-0.886 J-0.344
N505 X4.456 Y114.104 Z0.416 I0.886 J0.344
N510 X2.684 Y113.416 Z0.311 I-0.886 J-0.344
N515 X4.456 Y114.104 Z0.207 I0.886 J0.344
N520 X2.684 Y113.416 Z0.103 I-0.886 J-0.344
N525 X4.456 Y114.104 Z-0.001 I0.886 J0.344
N530 X2.684 Y113.416 Z-0.106 I-0.886 J-0.344
N535 X4.456 Y114.104 Z-0.21 I0.886 J0.344
N540 X2.684 Y113.416 Z-0.314 I-0.886 J-0.344
N545 X4.456 Y114.104 Z-0.418 I0.886 J0.344
N550 X2.684 Y113.416 Z-0.522 I-0.886 J-0.344
N555 X4.456 Y114.104 Z-0.627 I0.886 J0.344
N560 X2.684 Y113.416 Z-0.731 I-0.886 J-0.344
N565 X4.456 Y114.104 Z-0.835 I0.886 J0.344
N570 X2.684 Y113.416 Z-0.939 I-0.886 J-0.344
N575 X4.456 Y114.104 Z-1.044 I0.886 J0.344
N580 X2.684 Y113.416 Z-1.148 I-0.886 J-0.344
N585 X4.456 Y114.104 Z-1.252 I0.886 J0.344
N590 X2.684 Y113.416 Z-1.356 I-0.886 J-0.344
N595 X4.456 Y114.104 Z-1.46 I0.886 J0.344
N600 X2.684 Y113.416 Z-1.565 I-0.886 J-0.344
N605 X4.456 Y114.104 Z-1.669 I0.886 J0.344
N610 X2.684 Y113.416 Z-1.773 I-0.886 J-0.344
N615 X4.456 Y114.104 Z-1.877 I0.886 J0.344
N620 X2.684 Y113.416 Z-1.982 I-0.886 J-0.344
N625 X3 Y113 Z-2 I0.886 J0.344
N630 X6 Y117 I1.5 J2
N635 X3 Y113 I-1.5 J-2
N640 X6 Y117 Z-2.274 I1.5 J2
N645 X3 Y113 Z-2.549 I-1.5 J-2
N650 X6 Y117 Z-2.823 I1.5 J2
N655 X2.042 Y115.459 Z-3 I-1.5 J-2
N660 X6.958 Y114.541 I2.458 J-0.459
N665 X2.042 Y115.459 I-2.458 J0.459
N670 G1 X2.039 Y115.409 Z-2.987
N675 X2.049 Y115.36 Z-2.973
N680 X2.063 Y115.327 Z-2.937
N685 X2.084 Y115.296 Z-2.9
N690 X2.102 Y115.277 Z-2.8
N695 G0 Z15

(2D ??15)
N700 X4.62 Y17.781
N705 Z15
N710 Z5
N715 G1 Z3 F600
N720 Z-1.8
N725 X4.627 Y17.78 Z-1.852
N730 X4.646 Y17.777 Z-1.9
N735 X4.678 Y17.772 Z-1.941
N740 X4.719 Y17.766 Z-1.973
N745 X4.767 Y17.759 Z-1.993
N750 X4.818 Y17.752 Z-2
N755 X5.016 Y17.723 F400
N760 G3 X5.242 Y17.893 I0.029 J0.198
N765 X3.758 Y18.107 I-0.742 J0.107 F600
N770 X5.242 Y17.893 I0.742 J-0.107
N775 X5.073 Y18.119 I-0.198 J0.029
N780 G1 X4.875 Y18.148
N785 X4.824 Y18.155 Z-1.993
N790 X4.776 Y18.162 Z-1.973
N795 X4.735 Y18.168 Z-1.941
N800 X4.704 Y18.173 Z-1.9
N805 X4.684 Y18.176 Z-1.852
N810 X4.677 Y18.177 Z-1.8
N815 G0 Z5
N820 X4.62 Y17.781
N825 G1 Z1 F600
N830 Z-3.8
N835 X4.627 Y17.78 Z-3.852
N840 X4.646 Y17.777 Z-3.9
N845 X4.678 Y17.772 Z-3.941
N850 X4.719 Y17.766 Z-3.973
N855 X4.767 Y17.759 Z-3.993
N860 X4.818 Y17.752 Z-4
N865 X5.016 Y17.723 F400
N870 G3 X5.242 Y17.893 I0.029 J0.198
N875 X3.758 Y18.107 I-0.742 J0.107 F600
N880 X5.242 Y17.893 I0.742 J-0.107
N885 X5.073 Y18.119 I-0.198 J0.029
N890 G1 X4.875 Y18.148
N895 X4.824 Y18.155 Z-3.993
N900 X4.776 Y18.162 Z-3.973
N905 X4.735 Y18.168 Z-3.941
N910 X4.704 Y18.173 Z-3.9
N915 X4.684 Y18.176 Z-3.852
N920 X4.677 Y18.177 Z-3.8
N925 G0 Z5
N930 X4.62 Y101.781
N935 G1 Z3 F600
N940 Z-1.8
N945 X4.627 Y101.78 Z-1.852
N950 X4.646 Y101.777 Z-1.9
N955 X4.678 Y101.772 Z-1.941
N960 X4.719 Y101.766 Z-1.973
N965 X4.767 Y101.759 Z-1.993
N970 X4.818 Y101.752 Z-2
N975 X5.016 Y101.723 F400
N980 G3 X5.242 Y101.893 I0.029 J0.198
N985 X3.758 Y102.107 I-0.742 J0.107 F600
N990 X5.242 Y101.893 I0.742 J-0.107
N995 X5.073 Y102.119 I-0.198 J0.029
N1000 G1 X4.875 Y102.148
N1005 X4.824 Y102.155 Z-1.993
N1010 X4.776 Y102.162 Z-1.973
N1015 X4.735 Y102.168 Z-1.941
N1020 X4.704 Y102.173 Z-1.9
N1025 X4.684 Y102.176 Z-1.852
N1030 X4.677 Y102.177 Z-1.8
N1035 G0 Z5
N1040 X4.62 Y101.781
N1045 G1 Z1 F600
N1050 Z-3.8
N1055 X4.627 Y101.78 Z-3.852
N1060 X4.646 Y101.777 Z-3.9
N1065 X4.678 Y101.772 Z-3.941
N1070 X4.719 Y101.766 Z-3.973
N1075 X4.767 Y101.759 Z-3.993
N1080 X4.818 Y101.752 Z-4
N1085 X5.016 Y101.723 F400
N1090 G3 X5.242 Y101.893 I0.029 J0.198
N1095 X3.758 Y102.107 I-0.742 J0.107 F600
N1100 X5.242 Y101.893 I0.742 J-0.107
N1105 X5.073 Y102.119 I-0.198 J0.029
N1110 G1 X4.875 Y102.148
N1115 X4.824 Y102.155 Z-3.993
N1120 X4.776 Y102.162 Z-3.973
N1125 X4.735 Y102.168 Z-3.941
N1130 X4.704 Y102.173 Z-3.9
N1135 X4.684 Y102.176 Z-3.852
N1140 X4.677 Y102.177 Z-3.8
N1145 G0 Z15
N1150 X4.65 Y4.8
N1155 Z5
N1160 G1 Z3 F600
N1165 Z-1.8
N1170 G18 G2 X4.85 Z-2 I0.2
N1175 G1 X5.05 F400
N1180 G17 G3 X5.25 Y5 J0.2
N1185 X3.75 I-0.75 F600
N1190 X5.25 I0.75
N1195 X5.05 Y5.2 I-0.2
N1200 G1 X4.85
N1205 G18 G3 X4.65 Z-1.8 K0.2
N1210 G0 Z5
N1215 Y4.8
N1220 G1 Z1 F600
N1225 Z-3.8
N1230 G2 X4.85 Z-4 I0.2
N1235 G1 X5.05 F400
N1240 G17 G3 X5.25 Y5 J0.2
N1245 X3.75 I-0.75 F600
N1250 X5.25 I0.75
N1255 X5.05 Y5.2 I-0.2
N1260 G1 X4.85
N1265 G18 G3 X4.65 Z-3.8 K0.2
N1270 G0 Z5
N1275 Y4.8
N1280 G1 Z-1 F600
N1285 Z-5.8
N1290 G2 X4.85 Z-6 I0.2
N1295 G1 X5.05 F400
N1300 G17 G3 X5.25 Y5 J0.2
N1305 X3.75 I-0.75 F600
N1310 X5.25 I0.75
N1315 X5.05 Y5.2 I-0.2
N1320 G1 X4.85
N1325 G18 G3 X4.65 Z-5.8 K0.2
N1330 G0 Z5
N1335 Y4.8
N1340 G1 Z-3 F600
N1345 Z-6.8
N1350 G2 X4.85 Z-7 I0.2
N1355 G1 X5.05 F400
N1360 G17 G3 X5.25 Y5 J0.2
N1365 X3.75 I-0.75 F600
N1370 X5.25 I0.75
N1375 X5.05 Y5.2 I-0.2
N1380 G1 X4.85
N1385 G18 G3 X4.65 Z-6.8 K0.2
N1390 G0 Z5
N1395 Y114.8
N1400 G1 Z3 F600
N1405 Z-1.8
N1410 G2 X4.85 Z-2 I0.2
N1415 G1 X5.05 F400
N1420 G17 G3 X5.25 Y115 J0.2
N1425 X3.75 I-0.75 F600
N1430 X5.25 I0.75
N1435 X5.05 Y115.2 I-0.2
N1440 G1 X4.85
N1445 G18 G3 X4.65 Z-1.8 K0.2
N1450 G0 Z5
N1455 Y114.8
N1460 G1 Z1 F600
N1465 Z-3.8
N1470 G2 X4.85 Z-4 I0.2
N1475 G1 X5.05 F400
N1480 G17 G3 X5.25 Y115 J0.2
N1485 X3.75 I-0.75 F600
N1490 X5.25 I0.75
N1495 X5.05 Y115.2 I-0.2
N1500 G1 X4.85
N1505 G18 G3 X4.65 Z-3.8 K0.2
N1510 G0 Z5
N1515 Y114.8
N1520 G1 Z-1 F600
N1525 Z-5.8
N1530 G2 X4.85 Z-6 I0.2
N1535 G1 X5.05 F400
N1540 G17 G3 X5.25 Y115 J0.2
N1545 X3.75 I-0.75 F600
N1550 X5.25 I0.75
N1555 X5.05 Y115.2 I-0.2
N1560 G1 X4.85
N1565 G18 G3 X4.65 Z-5.8 K0.2
N1570 G0 Z5
N1575 Y114.8
N1580 G1 Z-3 F600
N1585 Z-6.8
N1590 G2 X4.85 Z-7 I0.2
N1595 G1 X5.05 F400
N1600 G17 G3 X5.25 Y115 J0.2
N1605 X3.75 I-0.75 F600
N1610 X5.25 I0.75
N1615 X5.05 Y115.2 I-0.2
N1620 G1 X4.85
N1625 G18 G3 X4.65 Z-6.8 K0.2
N1630 G0 Z15
N1635 G17
N1640 M9
N1645 G28
N1650 M30
%
