%
(1001)
(T1 D=2 CR=0 - ZMIN=-4.1 - flat end mill)
N10 G90 G94
N15 G17
N20 G21
N25 M9
N30 G28

(2D ????5)
N35 T1 M6
(0)
N40 S23873 M3
N45 G54
N50 M8
N55 G0 X55.551 Y41.896
N60 G43 Z15
N65 Z5
N70 G1 Z2.7 F400
N75 X55.577 Y41.894 Z2.602 F600
N80 X55.647 Y41.89 Z2.529
N85 X55.744 Y41.894 Z2.5
N90 G3 X55.58 Y43.786 Z2.396 I-0.082 J0.946
N95 X55.744 Y41.894 Z2.292 I0.082 J-0.946
N100 X55.58 Y43.786 Z2.187 I-0.082 J0.946
N105 X55.744 Y41.894 Z2.083 I0.082 J-0.946
N110 X55.58 Y43.786 Z1.979 I-0.082 J0.946
N115 X55.744 Y41.894 Z1.875 I0.082 J-0.946
N120 X55.58 Y43.786 Z1.77 I-0.082 J0.946
N125 X55.744 Y41.894 Z1.666 I0.082 J-0.946
N130 X55.58 Y43.786 Z1.562 I-0.082 J0.946
N135 X55.744 Y41.894 Z1.458 I0.082 J-0.946
N140 X55.58 Y43.786 Z1.354 I-0.082 J0.946
N145 X55.744 Y41.894 Z1.249 I0.082 J-0.946
N150 X55.58 Y43.786 Z1.145 I-0.082 J0.946
N155 X55.744 Y41.894 Z1.041 I0.082 J-0.946
N160 X55.58 Y43.786 Z0.937 I-0.082 J0.946
N165 X55.744 Y41.894 Z0.832 I0.082 J-0.946
N170 X55.58 Y43.786 Z0.728 I-0.082 J0.946
N175 X55.744 Y41.894 Z0.624 I0.082 J-0.946
N180 X55.58 Y43.786 Z0.52 I-0.082 J0.946
N185 X55.744 Y41.894 Z0.416 I0.082 J-0.946
N190 X55.58 Y43.786 Z0.311 I-0.082 J0.946
N195 X55.744 Y41.894 Z0.207 I0.082 J-0.946
N200 X55.58 Y43.786 Z0.103 I-0.082 J0.946
N205 X55.744 Y41.894 Z-0.001 I0.082 J-0.946
N210 X55.58 Y43.786 Z-0.106 I-0.082 J0.946
N215 X55.744 Y41.894 Z-0.21 I0.082 J-0.946
N220 X55.58 Y43.786 Z-0.314 I-0.082 J0.946
N225 X55.744 Y41.894 Z-0.418 I0.082 J-0.946
N230 X55.58 Y43.786 Z-0.522 I-0.082 J0.946
N235 X55.744 Y41.894 Z-0.627 I0.082 J-0.946
N240 X55.58 Y43.786 Z-0.731 I-0.082 J0.946
N245 X55.744 Y41.894 Z-0.835 I0.082 J-0.946
N250 X55.58 Y43.786 Z-0.939 I-0.082 J0.946
N255 X55.744 Y41.894 Z-1.044 I0.082 J-0.946
N260 X55.58 Y43.786 Z-1.148 I-0.082 J0.946
N265 X55.744 Y41.894 Z-1.252 I0.082 J-0.946
N270 X55.58 Y43.786 Z-1.356 I-0.082 J0.946
N275 X55.744 Y41.894 Z-1.46 I0.082 J-0.946
N280 X55.58 Y43.786 Z-1.565 I-0.082 J0.946
N285 X55.744 Y41.894 Z-1.669 I0.082 J-0.946
N290 X55.58 Y43.786 Z-1.773 I-0.082 J0.946
N295 X55.744 Y41.894 Z-1.877 I0.082 J-0.946
N300 X55.58 Y43.786 Z-1.982 I-0.082 J0.946
N305 X55.092 Y43.6 Z-2 I0.082 J-0.946
N310 X57.492 Y40.4 I1.2 J-1.6
N315 X55.092 Y43.6 I-1.2 J1.6
N320 X57.492 Y40.4 Z-2.219 I1.2 J-1.6
N325 X55.092 Y43.6 Z-2.439 I-1.2 J1.6
N330 X54.294 Y42.103 Z-2.5 I1.2 J-1.6
N335 X58.289 Y41.897 I1.997 J-0.103
N340 X54.294 Y42.103 I-1.997 J0.103
N345 G1 X54.298 Y42.053 Z-2.487
N350 X54.314 Y42.006 Z-2.473
N355 X54.333 Y41.974 Z-2.437
N360 X54.357 Y41.947 Z-2.4
N365 X54.378 Y41.93 Z-2.3
N370 G0 Z15
N375 X55.551 Y64.896
N380 Z5
N385 G1 Z2.7 F400
N390 X55.577 Y64.894 Z2.602 F600
N395 X55.647 Y64.89 Z2.529
N400 X55.744 Y64.894 Z2.5
N405 G3 X55.58 Y66.786 Z2.396 I-0.082 J0.946
N410 X55.744 Y64.894 Z2.292 I0.082 J-0.946
N415 X55.58 Y66.786 Z2.187 I-0.082 J0.946
N420 X55.744 Y64.894 Z2.083 I0.082 J-0.946
N425 X55.58 Y66.786 Z1.979 I-0.082 J0.946
N430 X55.744 Y64.894 Z1.875 I0.082 J-0.946
N435 X55.58 Y66.786 Z1.77 I-0.082 J0.946
N440 X55.744 Y64.894 Z1.666 I0.082 J-0.946
N445 X55.58 Y66.786 Z1.562 I-0.082 J0.946
N450 X55.744 Y64.894 Z1.458 I0.082 J-0.946
N455 X55.58 Y66.786 Z1.354 I-0.082 J0.946
N460 X55.744 Y64.894 Z1.249 I0.082 J-0.946
N465 X55.58 Y66.786 Z1.145 I-0.082 J0.946
N470 X55.744 Y64.894 Z1.041 I0.082 J-0.946
N475 X55.58 Y66.786 Z0.937 I-0.082 J0.946
N480 X55.744 Y64.894 Z0.832 I0.082 J-0.946
N485 X55.58 Y66.786 Z0.728 I-0.082 J0.946
N490 X55.744 Y64.894 Z0.624 I0.082 J-0.946
N495 X55.58 Y66.786 Z0.52 I-0.082 J0.946
N500 X55.744 Y64.894 Z0.416 I0.082 J-0.946
N505 X55.58 Y66.786 Z0.311 I-0.082 J0.946
N510 X55.744 Y64.894 Z0.207 I0.082 J-0.946
N515 X55.58 Y66.786 Z0.103 I-0.082 J0.946
N520 X55.744 Y64.894 Z-0.001 I0.082 J-0.946
N525 X55.58 Y66.786 Z-0.106 I-0.082 J0.946
N530 X55.744 Y64.894 Z-0.21 I0.082 J-0.946
N535 X55.58 Y66.786 Z-0.314 I-0.082 J0.946
N540 X55.744 Y64.894 Z-0.418 I0.082 J-0.946
N545 X55.58 Y66.786 Z-0.522 I-0.082 J0.946
N550 X55.744 Y64.894 Z-0.627 I0.082 J-0.946
N555 X55.58 Y66.786 Z-0.731 I-0.082 J0.946
N560 X55.744 Y64.894 Z-0.835 I0.082 J-0.946
N565 X55.58 Y66.786 Z-0.939 I-0.082 J0.946
N570 X55.744 Y64.894 Z-1.044 I0.082 J-0.946
N575 X55.58 Y66.786 Z-1.148 I-0.082 J0.946
N580 X55.744 Y64.894 Z-1.252 I0.082 J-0.946
N585 X55.58 Y66.786 Z-1.356 I-0.082 J0.946
N590 X55.744 Y64.894 Z-1.46 I0.082 J-0.946
N595 X55.58 Y66.786 Z-1.565 I-0.082 J0.946
N600 X55.744 Y64.894 Z-1.669 I0.082 J-0.946
N605 X55.58 Y66.786 Z-1.773 I-0.082 J0.946
N610 X55.744 Y64.894 Z-1.877 I0.082 J-0.946
N615 X55.58 Y66.786 Z-1.982 I-0.082 J0.946
N620 X55.092 Y66.6 Z-2 I0.082 J-0.946
N625 X57.492 Y63.4 I1.2 J-1.6
N630 X55.092 Y66.6 I-1.2 J1.6
N635 X57.492 Y63.4 Z-2.219 I1.2 J-1.6
N640 X55.092 Y66.6 Z-2.439 I-1.2 J1.6
N645 X54.294 Y65.103 Z-2.5 I1.2 J-1.6
N650 X58.289 Y64.897 I1.997 J-0.103
N655 X54.294 Y65.103 I-1.997 J0.103
N660 G1 X54.298 Y65.053 Z-2.487
N665 X54.314 Y65.006 Z-2.473
N670 X54.333 Y64.974 Z-2.437
N675 X54.357 Y64.947 Z-2.4
N680 X54.378 Y64.93 Z-2.3
N685 G0 Z15
N690 X18.551 Y56.346
N695 Z5
N700 G1 Z2.7 F400
N705 X18.577 Y56.344 Z2.602 F600
N710 X18.647 Y56.34 Z2.529
N715 X18.744 Y56.344 Z2.5
N720 G3 X18.58 Y58.236 Z2.396 I-0.082 J0.946
N725 X18.744 Y56.344 Z2.292 I0.082 J-0.946
N730 X18.58 Y58.236 Z2.187 I-0.082 J0.946
N735 X18.744 Y56.344 Z2.083 I0.082 J-0.946
N740 X18.58 Y58.236 Z1.979 I-0.082 J0.946
N745 X18.744 Y56.344 Z1.875 I0.082 J-0.946
N750 X18.58 Y58.236 Z1.77 I-0.082 J0.946
N755 X18.744 Y56.344 Z1.666 I0.082 J-0.946
N760 X18.58 Y58.236 Z1.562 I-0.082 J0.946
N765 X18.744 Y56.344 Z1.458 I0.082 J-0.946
N770 X18.58 Y58.236 Z1.354 I-0.082 J0.946
N775 X18.744 Y56.344 Z1.249 I0.082 J-0.946
N780 X18.58 Y58.236 Z1.145 I-0.082 J0.946
N785 X18.744 Y56.344 Z1.041 I0.082 J-0.946
N790 X18.58 Y58.236 Z0.937 I-0.082 J0.946
N795 X18.744 Y56.344 Z0.832 I0.082 J-0.946
N800 X18.58 Y58.236 Z0.728 I-0.082 J0.946
N805 X18.744 Y56.344 Z0.624 I0.082 J-0.946
N810 X18.58 Y58.236 Z0.52 I-0.082 J0.946
N815 X18.744 Y56.344 Z0.416 I0.082 J-0.946
N820 X18.58 Y58.236 Z0.311 I-0.082 J0.946
N825 X18.744 Y56.344 Z0.207 I0.082 J-0.946
N830 X18.58 Y58.236 Z0.103 I-0.082 J0.946
N835 X18.744 Y56.344 Z-0.001 I0.082 J-0.946
N840 X18.58 Y58.236 Z-0.106 I-0.082 J0.946
N845 X18.744 Y56.344 Z-0.21 I0.082 J-0.946
N850 X18.58 Y58.236 Z-0.314 I-0.082 J0.946
N855 X18.744 Y56.344 Z-0.418 I0.082 J-0.946
N860 X18.58 Y58.236 Z-0.522 I-0.082 J0.946
N865 X18.744 Y56.344 Z-0.627 I0.082 J-0.946
N870 X18.58 Y58.236 Z-0.731 I-0.082 J0.946
N875 X18.744 Y56.344 Z-0.835 I0.082 J-0.946
N880 X18.58 Y58.236 Z-0.939 I-0.082 J0.946
N885 X18.744 Y56.344 Z-1.044 I0.082 J-0.946
N890 X18.58 Y58.236 Z-1.148 I-0.082 J0.946
N895 X18.744 Y56.344 Z-1.252 I0.082 J-0.946
N900 X18.58 Y58.236 Z-1.356 I-0.082 J0.946
N905 X18.744 Y56.344 Z-1.46 I0.082 J-0.946
N910 X18.58 Y58.236 Z-1.565 I-0.082 J0.946
N915 X18.744 Y56.344 Z-1.669 I0.082 J-0.946
N920 X18.58 Y58.236 Z-1.773 I-0.082 J0.946
N925 X18.744 Y56.344 Z-1.877 I0.082 J-0.946
N930 X18.58 Y58.236 Z-1.982 I-0.082 J0.946
N935 X18.092 Y58.05 Z-2 I0.082 J-0.946
N940 X20.492 Y54.85 I1.2 J-1.6
N945 X18.092 Y58.05 I-1.2 J1.6
N950 X20.492 Y54.85 Z-2.219 I1.2 J-1.6
N955 X18.092 Y58.05 Z-2.439 I-1.2 J1.6
N960 X17.294 Y56.553 Z-2.5 I1.2 J-1.6
N965 X21.289 Y56.347 I1.997 J-0.103
N970 X17.294 Y56.553 I-1.997 J0.103
N975 G1 X17.298 Y56.503 Z-2.487
N980 X17.314 Y56.456 Z-2.473
N985 X17.333 Y56.424 Z-2.437
N990 X17.357 Y56.397 Z-2.4
N995 X17.378 Y56.38 Z-2.3
N1000 G0 Z15
N1005 X15.551 Y88.896
N1010 Z5
N1015 G1 Z2.7 F400
N1020 X15.577 Y88.894 Z2.602 F600
N1025 X15.647 Y88.89 Z2.529
N1030 X15.744 Y88.894 Z2.5
N1035 G3 X15.58 Y90.786 Z2.396 I-0.082 J0.946
N1040 X15.744 Y88.894 Z2.292 I0.082 J-0.946
N1045 X15.58 Y90.786 Z2.187 I-0.082 J0.946
N1050 X15.744 Y88.894 Z2.083 I0.082 J-0.946
N1055 X15.58 Y90.786 Z1.979 I-0.082 J0.946
N1060 X15.744 Y88.894 Z1.875 I0.082 J-0.946
N1065 X15.58 Y90.786 Z1.77 I-0.082 J0.946
N1070 X15.744 Y88.894 Z1.666 I0.082 J-0.946
N1075 X15.58 Y90.786 Z1.562 I-0.082 J0.946
N1080 X15.744 Y88.894 Z1.458 I0.082 J-0.946
N1085 X15.58 Y90.786 Z1.354 I-0.082 J0.946
N1090 X15.744 Y88.894 Z1.249 I0.082 J-0.946
N1095 X15.58 Y90.786 Z1.145 I-0.082 J0.946
N1100 X15.744 Y88.894 Z1.041 I0.082 J-0.946
N1105 X15.58 Y90.786 Z0.937 I-0.082 J0.946
N1110 X15.744 Y88.894 Z0.832 I0.082 J-0.946
N1115 X15.58 Y90.786 Z0.728 I-0.082 J0.946
N1120 X15.744 Y88.894 Z0.624 I0.082 J-0.946
N1125 X15.58 Y90.786 Z0.52 I-0.082 J0.946
N1130 X15.744 Y88.894 Z0.416 I0.082 J-0.946
N1135 X15.58 Y90.786 Z0.311 I-0.082 J0.946
N1140 X15.744 Y88.894 Z0.207 I0.082 J-0.946
N1145 X15.58 Y90.786 Z0.103 I-0.082 J0.946
N1150 X15.744 Y88.894 Z-0.001 I0.082 J-0.946
N1155 X15.58 Y90.786 Z-0.106 I-0.082 J0.946
N1160 X15.744 Y88.894 Z-0.21 I0.082 J-0.946
N1165 X15.58 Y90.786 Z-0.314 I-0.082 J0.946
N1170 X15.744 Y88.894 Z-0.418 I0.082 J-0.946
N1175 X15.58 Y90.786 Z-0.522 I-0.082 J0.946
N1180 X15.744 Y88.894 Z-0.627 I0.082 J-0.946
N1185 X15.58 Y90.786 Z-0.731 I-0.082 J0.946
N1190 X15.744 Y88.894 Z-0.835 I0.082 J-0.946
N1195 X15.58 Y90.786 Z-0.939 I-0.082 J0.946
N1200 X15.744 Y88.894 Z-1.044 I0.082 J-0.946
N1205 X15.58 Y90.786 Z-1.148 I-0.082 J0.946
N1210 X15.744 Y88.894 Z-1.252 I0.082 J-0.946
N1215 X15.58 Y90.786 Z-1.356 I-0.082 J0.946
N1220 X15.744 Y88.894 Z-1.46 I0.082 J-0.946
N1225 X15.58 Y90.786 Z-1.565 I-0.082 J0.946
N1230 X15.744 Y88.894 Z-1.669 I0.082 J-0.946
N1235 X15.58 Y90.786 Z-1.773 I-0.082 J0.946
N1240 X15.744 Y88.894 Z-1.877 I0.082 J-0.946
N1245 X15.58 Y90.786 Z-1.982 I-0.082 J0.946
N1250 X15.092 Y90.6 Z-2 I0.082 J-0.946
N1255 X17.492 Y87.4 I1.2 J-1.6
N1260 X15.092 Y90.6 I-1.2 J1.6
N1265 X17.492 Y87.4 Z-2.219 I1.2 J-1.6
N1270 X15.092 Y90.6 Z-2.439 I-1.2 J1.6
N1275 X14.294 Y89.103 Z-2.5 I1.2 J-1.6
N1280 X18.289 Y88.897 I1.997 J-0.103
N1285 X14.294 Y89.103 I-1.997 J0.103
N1290 G1 X14.298 Y89.053 Z-2.487
N1295 X14.314 Y89.006 Z-2.473
N1300 X14.333 Y88.974 Z-2.437
N1305 X14.357 Y88.947 Z-2.4
N1310 X14.378 Y88.93 Z-2.3
N1315 G0 Z15
N1320 X17.748 Y143.904
N1325 Z5
N1330 G1 Z2.7 F400
N1335 X17.773 Y143.902 Z2.602 F600
N1340 X17.844 Y143.898 Z2.529
N1345 X17.94 Y143.902 Z2.5
N1350 G3 X17.776 Y145.794 Z2.396 I-0.082 J0.946
N1355 X17.94 Y143.902 Z2.292 I0.082 J-0.946
N1360 X17.776 Y145.794 Z2.187 I-0.082 J0.946
N1365 X17.94 Y143.902 Z2.083 I0.082 J-0.946
N1370 X17.776 Y145.794 Z1.979 I-0.082 J0.946
N1375 X17.94 Y143.902 Z1.875 I0.082 J-0.946
N1380 X17.776 Y145.794 Z1.77 I-0.082 J0.946
N1385 X17.94 Y143.902 Z1.666 I0.082 J-0.946
N1390 X17.776 Y145.794 Z1.562 I-0.082 J0.946
N1395 X17.94 Y143.902 Z1.458 I0.082 J-0.946
N1400 X17.776 Y145.794 Z1.354 I-0.082 J0.946
N1405 X17.94 Y143.902 Z1.249 I0.082 J-0.946
N1410 X17.776 Y145.794 Z1.145 I-0.082 J0.946
N1415 X17.94 Y143.902 Z1.041 I0.082 J-0.946
N1420 X17.776 Y145.794 Z0.937 I-0.082 J0.946
N1425 X17.94 Y143.902 Z0.832 I0.082 J-0.946
N1430 X17.776 Y145.794 Z0.728 I-0.082 J0.946
N1435 X17.94 Y143.902 Z0.624 I0.082 J-0.946
N1440 X17.776 Y145.794 Z0.52 I-0.082 J0.946
N1445 X17.94 Y143.902 Z0.416 I0.082 J-0.946
N1450 X17.776 Y145.794 Z0.311 I-0.082 J0.946
N1455 X17.94 Y143.902 Z0.207 I0.082 J-0.946
N1460 X17.776 Y145.794 Z0.103 I-0.082 J0.946
N1465 X17.94 Y143.902 Z-0.001 I0.082 J-0.946
N1470 X17.776 Y145.794 Z-0.106 I-0.082 J0.946
N1475 X17.94 Y143.902 Z-0.21 I0.082 J-0.946
N1480 X17.776 Y145.794 Z-0.314 I-0.082 J0.946
N1485 X17.94 Y143.902 Z-0.418 I0.082 J-0.946
N1490 X17.776 Y145.794 Z-0.522 I-0.082 J0.946
N1495 X17.94 Y143.902 Z-0.627 I0.082 J-0.946
N1500 X17.776 Y145.794 Z-0.731 I-0.082 J0.946
N1505 X17.94 Y143.902 Z-0.835 I0.082 J-0.946
N1510 X17.776 Y145.794 Z-0.939 I-0.082 J0.946
N1515 X17.94 Y143.902 Z-1.044 I0.082 J-0.946
N1520 X17.776 Y145.794 Z-1.148 I-0.082 J0.946
N1525 X17.94 Y143.902 Z-1.252 I0.082 J-0.946
N1530 X17.776 Y145.794 Z-1.356 I-0.082 J0.946
N1535 X17.94 Y143.902 Z-1.46 I0.082 J-0.946
N1540 X17.776 Y145.794 Z-1.565 I-0.082 J0.946
N1545 X17.94 Y143.902 Z-1.669 I0.082 J-0.946
N1550 X17.776 Y145.794 Z-1.773 I-0.082 J0.946
N1555 X17.94 Y143.902 Z-1.877 I0.082 J-0.946
N1560 X17.776 Y145.794 Z-1.982 I-0.082 J0.946
N1565 X17.288 Y145.608 Z-2 I0.082 J-0.946
N1570 X19.688 Y142.408 I1.2 J-1.6
N1575 X17.288 Y145.608 I-1.2 J1.6
N1580 X19.688 Y142.408 Z-2.219 I1.2 J-1.6
N1585 X17.288 Y145.608 Z-2.439 I-1.2 J1.6
N1590 X16.491 Y144.111 Z-2.5 I1.2 J-1.6
N1595 X20.486 Y143.905 I1.997 J-0.103
N1600 X16.491 Y144.111 I-1.997 J0.103
N1605 G1 X16.495 Y144.061 Z-2.487
N1610 X16.51 Y144.014 Z-2.473
N1615 X16.529 Y143.982 Z-2.437
N1620 X16.553 Y143.955 Z-2.4
N1625 X16.574 Y143.938 Z-2.3
N1630 G0 Z15

(2D ??5)
N1635 X43.044 Y65.675
N1640 Z15
N1645 Z5
N1650 G1 Z3 F600
N1655 Z-1.8
N1660 X43.051 Y65.677 Z-1.852
N1665 X43.07 Y65.682 Z-1.9
N1670 X43.101 Y65.69 Z-1.941
N1675 X43.141 Y65.701 Z-1.973
N1680 X43.188 Y65.713 Z-1.993
N1685 X43.238 Y65.727 Z-2
N1690 X43.431 Y65.779 F400
N1695 G3 X43.572 Y66.024 I-0.052 J0.193
N1700 G1 X43.507 Y66.265 F600
N1705 X34.814 Y63.936
N1710 X34.944 Y63.453
N1715 X43.637 Y65.782
N1720 X43.572 Y66.024
N1725 G3 X43.327 Y66.165 I-0.193 J-0.052
N1730 G1 X43.134 Y66.113
N1735 X43.084 Y66.1 Z-1.993
N1740 X43.037 Y66.087 Z-1.973
N1745 X42.997 Y66.077 Z-1.941
N1750 X42.967 Y66.068 Z-1.9
N1755 X42.947 Y66.063 Z-1.852
N1760 X42.941 Y66.061 Z-1.8
N1765 G0 Z5
N1770 X43.044 Y65.675
N1775 G1 Z1 F600
N1780 Z-2.85
N1785 X43.051 Y65.677 Z-2.902
N1790 X43.07 Y65.682 Z-2.95
N1795 X43.101 Y65.69 Z-2.991
N1800 X43.141 Y65.701 Z-3.023
N1805 X43.188 Y65.713 Z-3.043
N1810 X43.238 Y65.727 Z-3.05
N1815 X43.431 Y65.779 F400
N1820 G3 X43.572 Y66.024 I-0.052 J0.193
N1825 G1 X43.507 Y66.265 F600
N1830 X34.814 Y63.936
N1835 X34.944 Y63.453
N1840 X43.637 Y65.782
N1845 X43.572 Y66.024
N1850 G3 X43.327 Y66.165 I-0.193 J-0.052
N1855 G1 X43.134 Y66.113
N1860 X43.084 Y66.1 Z-3.043
N1865 X43.037 Y66.087 Z-3.023
N1870 X42.997 Y66.077 Z-2.991
N1875 X42.967 Y66.068 Z-2.95
N1880 X42.947 Y66.063 Z-2.902
N1885 X42.941 Y66.061 Z-2.85
N1890 G0 Z5
N1895 X43.044 Y65.675
N1900 G1 Z-0.05 F600
N1905 Z-3.9
N1910 X43.051 Y65.677 Z-3.952
N1915 X43.07 Y65.682 Z-4
N1920 X43.101 Y65.69 Z-4.041
N1925 X43.141 Y65.701 Z-4.073
N1930 X43.188 Y65.713 Z-4.093
N1935 X43.238 Y65.727 Z-4.1
N1940 X43.431 Y65.779 F400
N1945 G3 X43.572 Y66.024 I-0.052 J0.193
N1950 G1 X43.507 Y66.265 F600
N1955 X34.814 Y63.936
N1960 X34.944 Y63.453
N1965 X43.637 Y65.782
N1970 X43.572 Y66.024
N1975 G3 X43.327 Y66.165 I-0.193 J-0.052
N1980 G1 X43.134 Y66.113
N1985 X43.084 Y66.1 Z-4.093
N1990 X43.037 Y66.087 Z-4.073
N1995 X42.997 Y66.077 Z-4.041
N2000 X42.967 Y66.068 Z-4
N2005 X42.947 Y66.063 Z-3.952
N2010 X42.941 Y66.061 Z-3.9
N2015 G0 Z5
N2020 X54.492 Y58.4
N2025 G1 Z3 F600
N2030 Z-1.8
N2035 G19 G3 Y58.6 Z-2 J0.2
N2040 G1 Y58.8 F400
N2045 G17 G3 X54.292 Y59 I-0.2
N2050 G1 X27.292 F600
N2055 G3 X25.292 Y57 J-2
N2060 G1 Y38
N2065 G3 X27.292 Y36 I2
N2070 G1 X48.289
N2075 X48.29
N2080 G3 X50.292 Y37.959 I0.002 J2
N2085 G1 Y47
N2090 G2 X54.292 Y51 I4
N2095 G1 X58.289
N2100 X58.29
N2105 G3 X60.292 Y52.959 I0.002 J2
N2110 G1 Y57.041
N2115 G3 X58.292 Y59 I-2 J-0.041
N2120 G1 X54.292
N2125 G3 X54.092 Y58.8 J-0.2
N2130 G1 Y58.6
N2135 G19 G2 Y58.4 Z-1.8 K0.2
N2140 G0 Z5
N2145 X54.492
N2150 G1 Z1 F600
N2155 Z-2.85
N2160 G3 Y58.6 Z-3.05 J0.2
N2165 G1 Y58.8 F400
N2170 G17 G3 X54.292 Y59 I-0.2
N2175 G1 X27.292 F600
N2180 G3 X25.292 Y57 J-2
N2185 G1 Y38
N2190 G3 X27.292 Y36 I2
N2195 G1 X48.289
N2200 X48.29
N2205 G3 X50.292 Y37.959 I0.002 J2
N2210 G1 Y47
N2215 G2 X54.292 Y51 I4
N2220 G1 X58.289
N2225 X58.29
N2230 G3 X60.292 Y52.959 I0.002 J2
N2235 G1 Y57.041
N2240 G3 X58.292 Y59 I-2 J-0.041
N2245 G1 X54.292
N2250 G3 X54.092 Y58.8 J-0.2
N2255 G1 Y58.6
N2260 G19 G2 Y58.4 Z-2.85 K0.2
N2265 G0 Z5
N2270 X54.492
N2275 G1 Z-0.05 F600
N2280 Z-3.9
N2285 G3 Y58.6 Z-4.1 J0.2
N2290 G1 Y58.8 F400
N2295 G17 G3 X54.292 Y59 I-0.2
N2300 G1 X27.292 F600
N2305 G3 X25.292 Y57 J-2
N2310 G1 Y38
N2315 G3 X27.292 Y36 I2
N2320 G1 X48.289
N2325 X48.29
N2330 G3 X50.292 Y37.959 I0.002 J2
N2335 G1 Y47
N2340 G2 X54.292 Y51 I4
N2345 G1 X58.289
N2350 X58.29
N2355 G3 X60.292 Y52.959 I0.002 J2
N2360 G1 Y57.041
N2365 G3 X58.292 Y59 I-2 J-0.041
N2370 G1 X54.292
N2375 G3 X54.092 Y58.8 J-0.2
N2380 G1 Y58.6
N2385 G19 G2 Y58.4 Z-3.9 K0.2
N2390 G0 Z5
N2395 X56.442 Y64.8
N2400 G1 Z3 F600
N2405 Z-1.8
N2410 G18 G2 X56.642 Z-2 I0.2
N2415 G1 X56.842 F400
N2420 G17 G3 X57.042 Y65 J0.2
N2425 X55.542 I-0.75 F600
N2430 X57.042 I0.75
N2435 X56.842 Y65.2 I-0.2
N2440 G1 X56.642
N2445 G18 G3 X56.442 Z-1.8 K0.2
N2450 G0 Z5
N2455 Y64.8
N2460 G1 Z1 F600
N2465 Z-2.85
N2470 G2 X56.642 Z-3.05 I0.2
N2475 G1 X56.842 F400
N2480 G17 G3 X57.042 Y65 J0.2
N2485 X55.542 I-0.75 F600
N2490 X57.042 I0.75
N2495 X56.842 Y65.2 I-0.2
N2500 G1 X56.642
N2505 G18 G3 X56.442 Z-2.85 K0.2
N2510 G0 Z5
N2515 Y64.8
N2520 G1 Z-0.05 F600
N2525 Z-3.9
N2530 G2 X56.642 Z-4.1 I0.2
N2535 G1 X56.842 F400
N2540 G17 G3 X57.042 Y65 J0.2
N2545 X55.542 I-0.75 F600
N2550 X57.042 I0.75
N2555 X56.842 Y65.2 I-0.2
N2560 G1 X56.642
N2565 G18 G3 X56.442 Z-3.9 K0.2
N2570 G0 Z5
N2575 X56.447 Y41.804
N2580 G1 Z3 F600
N2585 Z-1.8
N2590 X56.453 Z-1.852
N2595 X56.473 Z-1.9
N2600 X56.505 Y41.805 Z-1.941
N2605 X56.547 Y41.806 Z-1.973
N2610 X56.595 Y41.807 Z-1.993
N2615 X56.647 Y41.809 Z-2
N2620 X56.847 Y41.814 F400
N2625 G17 G3 X57.042 Y42.018 I-0.005 J0.2
N2630 X55.542 Y41.982 I-0.75 J-0.018 F600
N2635 X57.042 Y42.018 I0.75 J0.018
N2640 X56.837 Y42.213 I-0.2 J-0.005
N2645 G1 X56.637 Y42.209
N2650 X56.585 Y42.207 Z-1.993
N2655 X56.537 Y42.206 Z-1.973
N2660 X56.495 Y42.205 Z-1.941
N2665 X56.464 Y42.204 Z-1.9
N2670 X56.444 Z-1.852
N2675 X56.437 Z-1.8
N2680 G0 Z5
N2685 X56.447 Y41.804
N2690 G1 Z1 F600
N2695 Z-2.85
N2700 X56.453 Z-2.902
N2705 X56.473 Z-2.95
N2710 X56.505 Y41.805 Z-2.991
N2715 X56.547 Y41.806 Z-3.023
N2720 X56.595 Y41.807 Z-3.043
N2725 X56.647 Y41.809 Z-3.05
N2730 X56.847 Y41.814 F400
N2735 G3 X57.042 Y42.018 I-0.005 J0.2
N2740 X55.542 Y41.982 I-0.75 J-0.018 F600
N2745 X57.042 Y42.018 I0.75 J0.018
N2750 X56.837 Y42.213 I-0.2 J-0.005
N2755 G1 X56.637 Y42.209
N2760 X56.585 Y42.207 Z-3.043
N2765 X56.537 Y42.206 Z-3.023
N2770 X56.495 Y42.205 Z-2.991
N2775 X56.464 Y42.204 Z-2.95
N2780 X56.444 Z-2.902
N2785 X56.437 Z-2.85
N2790 G0 Z5
N2795 X56.447 Y41.804
N2800 G1 Z-0.05 F600
N2805 Z-3.9
N2810 X56.453 Z-3.952
N2815 X56.473 Z-4
N2820 X56.505 Y41.805 Z-4.041
N2825 X56.547 Y41.806 Z-4.073
N2830 X56.595 Y41.807 Z-4.093
N2835 X56.647 Y41.809 Z-4.1
N2840 X56.847 Y41.814 F400
N2845 G3 X57.042 Y42.018 I-0.005 J0.2
N2850 X55.542 Y41.982 I-0.75 J-0.018 F600
N2855 X57.042 Y42.018 I0.75 J0.018
N2860 X56.837 Y42.213 I-0.2 J-0.005
N2865 G1 X56.637 Y42.209
N2870 X56.585 Y42.207 Z-4.093
N2875 X56.537 Y42.206 Z-4.073
N2880 X56.495 Y42.205 Z-4.041
N2885 X56.464 Y42.204 Z-4
N2890 X56.444 Z-3.952
N2895 X56.437 Z-3.9
N2900 G0 Z5
N2905 X39.447 Y25.004
N2910 G1 Z3 F600
N2915 Z-1.8
N2920 X39.453 Z-1.852
N2925 X39.473 Z-1.9
N2930 X39.505 Y25.005 Z-1.941
N2935 X39.547 Y25.006 Z-1.973
N2940 X39.595 Y25.007 Z-1.993
N2945 X39.647 Y25.009 Z-2
N2950 X39.847 Y25.014 F400
N2955 G3 X40.042 Y25.218 I-0.005 J0.2
N2960 X38.542 Y25.182 I-0.75 J-0.018 F600
N2965 X40.042 Y25.218 I0.75 J0.018
N2970 X39.837 Y25.413 I-0.2 J-0.005
N2975 G1 X39.637 Y25.409
N2980 X39.585 Y25.407 Z-1.993
N2985 X39.537 Y25.406 Z-1.973
N2990 X39.495 Y25.405 Z-1.941
N2995 X39.464 Y25.404 Z-1.9
N3000 X39.444 Z-1.852
N3005 X39.437 Z-1.8
N3010 G0 Z5
N3015 X39.447 Y25.004
N3020 G1 Z1 F600
N3025 Z-2.85
N3030 X39.453 Z-2.902
N3035 X39.473 Z-2.95
N3040 X39.505 Y25.005 Z-2.991
N3045 X39.547 Y25.006 Z-3.023
N3050 X39.595 Y25.007 Z-3.043
N3055 X39.647 Y25.009 Z-3.05
N3060 X39.847 Y25.014 F400
N3065 G3 X40.042 Y25.218 I-0.005 J0.2
N3070 X38.542 Y25.182 I-0.75 J-0.018 F600
N3075 X40.042 Y25.218 I0.75 J0.018
N3080 X39.837 Y25.413 I-0.2 J-0.005
N3085 G1 X39.637 Y25.409
N3090 X39.585 Y25.407 Z-3.043
N3095 X39.537 Y25.406 Z-3.023
N3100 X39.495 Y25.405 Z-2.991
N3105 X39.464 Y25.404 Z-2.95
N3110 X39.444 Z-2.902
N3115 X39.437 Z-2.85
N3120 G0 Z5
N3125 X39.447 Y25.004
N3130 G1 Z-0.05 F600
N3135 Z-3.9
N3140 X39.453 Z-3.952
N3145 X39.473 Z-4
N3150 X39.505 Y25.005 Z-4.041
N3155 X39.547 Y25.006 Z-4.073
N3160 X39.595 Y25.007 Z-4.093
N3165 X39.647 Y25.009 Z-4.1
N3170 X39.847 Y25.014 F400
N3175 G3 X40.042 Y25.218 I-0.005 J0.2
N3180 X38.542 Y25.182 I-0.75 J-0.018 F600
N3185 X40.042 Y25.218 I0.75 J0.018
N3190 X39.837 Y25.413 I-0.2 J-0.005
N3195 G1 X39.637 Y25.409
N3200 X39.585 Y25.407 Z-4.093
N3205 X39.537 Y25.406 Z-4.073
N3210 X39.495 Y25.405 Z-4.041
N3215 X39.464 Y25.404 Z-4
N3220 X39.444 Z-3.952
N3225 X39.437 Z-3.9
N3230 G0 Z5
N3235 X30.442 Y25
N3240 G1 Z3 F600
N3245 Z-1.8
N3250 G18 G2 X30.642 Z-2 I0.2
N3255 G1 X30.842 F400
N3260 G17 G3 X31.042 Y25.2 J0.2
N3265 X29.542 I-0.75 F600
N3270 X31.042 I0.75
N3275 X30.842 Y25.4 I-0.2
N3280 G1 X30.642
N3285 G18 G3 X30.442 Z-1.8 K0.2
N3290 G0 Z5
N3295 Y25
N3300 G1 Z1 F600
N3305 Z-2.85
N3310 G2 X30.642 Z-3.05 I0.2
N3315 G1 X30.842 F400
N3320 G17 G3 X31.042 Y25.2 J0.2
N3325 X29.542 I-0.75 F600
N3330 X31.042 I0.75
N3335 X30.842 Y25.4 I-0.2
N3340 G1 X30.642
N3345 G18 G3 X30.442 Z-2.85 K0.2
N3350 G0 Z5
N3355 Y25
N3360 G1 Z-0.05 F600
N3365 Z-3.9
N3370 G2 X30.642 Z-4.1 I0.2
N3375 G1 X30.842 F400
N3380 G17 G3 X31.042 Y25.2 J0.2
N3385 X29.542 I-0.75 F600
N3390 X31.042 I0.75
N3395 X30.842 Y25.4 I-0.2
N3400 G1 X30.642
N3405 G18 G3 X30.442 Z-3.9 K0.2
N3410 G0 Z5
N3415 X19.447 Y56.254
N3420 G1 Z3 F600
N3425 Z-1.8
N3430 X19.453 Z-1.852
N3435 X19.473 Z-1.9
N3440 X19.505 Y56.255 Z-1.941
N3445 X19.547 Y56.256 Z-1.973
N3450 X19.595 Y56.257 Z-1.993
N3455 X19.647 Y56.259 Z-2
N3460 X19.847 Y56.264 F400
N3465 G17 G3 X20.042 Y56.468 I-0.005 J0.2
N3470 X18.542 Y56.432 I-0.75 J-0.018 F600
N3475 X20.042 Y56.468 I0.75 J0.018
N3480 X19.837 Y56.663 I-0.2 J-0.005
N3485 G1 X19.637 Y56.659
N3490 X19.585 Y56.657 Z-1.993
N3495 X19.537 Y56.656 Z-1.973
N3500 X19.495 Y56.655 Z-1.941
N3505 X19.464 Y56.654 Z-1.9
N3510 X19.444 Z-1.852
N3515 X19.437 Z-1.8
N3520 G0 Z5
N3525 X19.447 Y56.254
N3530 G1 Z1 F600
N3535 Z-2.85
N3540 X19.453 Z-2.902
N3545 X19.473 Z-2.95
N3550 X19.505 Y56.255 Z-2.991
N3555 X19.547 Y56.256 Z-3.023
N3560 X19.595 Y56.257 Z-3.043
N3565 X19.647 Y56.259 Z-3.05
N3570 X19.847 Y56.264 F400
N3575 G3 X20.042 Y56.468 I-0.005 J0.2
N3580 X18.542 Y56.432 I-0.75 J-0.018 F600
N3585 X20.042 Y56.468 I0.75 J0.018
N3590 X19.837 Y56.663 I-0.2 J-0.005
N3595 G1 X19.637 Y56.659
N3600 X19.585 Y56.657 Z-3.043
N3605 X19.537 Y56.656 Z-3.023
N3610 X19.495 Y56.655 Z-2.991
N3615 X19.464 Y56.654 Z-2.95
N3620 X19.444 Z-2.902
N3625 X19.437 Z-2.85
N3630 G0 Z5
N3635 X19.447 Y56.254
N3640 G1 Z-0.05 F600
N3645 Z-3.9
N3650 X19.453 Z-3.952
N3655 X19.473 Z-4
N3660 X19.505 Y56.255 Z-4.041
N3665 X19.547 Y56.256 Z-4.073
N3670 X19.595 Y56.257 Z-4.093
N3675 X19.647 Y56.259 Z-4.1
N3680 X19.847 Y56.264 F400
N3685 G3 X20.042 Y56.468 I-0.005 J0.2
N3690 X18.542 Y56.432 I-0.75 J-0.018 F600
N3695 X20.042 Y56.468 I0.75 J0.018
N3700 X19.837 Y56.663 I-0.2 J-0.005
N3705 G1 X19.637 Y56.659
N3710 X19.585 Y56.657 Z-4.093
N3715 X19.537 Y56.656 Z-4.073
N3720 X19.495 Y56.655 Z-4.041
N3725 X19.464 Y56.654 Z-4
N3730 X19.444 Z-3.952
N3735 X19.437 Z-3.9
N3740 G0 Z5
N3745 X16.493 Y88.851
N3750 G1 Z3 F600
N3755 Z-1.8
N3760 X16.499 Y88.853 Z-1.852
N3765 X16.518 Y88.859 Z-1.9
N3770 X16.549 Y88.868 Z-1.941
N3775 X16.589 Y88.88 Z-1.973
N3780 X16.635 Y88.894 Z-1.993
N3785 X16.684 Y88.908 Z-2
N3790 X16.876 Y88.965 F400
N3795 G3 X17.011 Y89.214 I-0.057 J0.192
N3800 X15.573 Y88.786 I-0.719 J-0.214 F600
N3805 X17.011 Y89.214 I0.719 J0.214
N3810 X16.762 Y89.349 I-0.192 J-0.057
N3815 G1 X16.57 Y89.292
N3820 X16.521 Y89.277 Z-1.993
N3825 X16.474 Y89.263 Z-1.973
N3830 X16.435 Y89.251 Z-1.941
N3835 X16.404 Y89.242 Z-1.9
N3840 X16.385 Y89.236 Z-1.852
N3845 X16.378 Y89.235 Z-1.8
N3850 G0 Z5
N3855 X16.493 Y88.851
N3860 G1 Z1 F600
N3865 Z-2.85
N3870 X16.499 Y88.853 Z-2.902
N3875 X16.518 Y88.859 Z-2.95
N3880 X16.549 Y88.868 Z-2.991
N3885 X16.589 Y88.88 Z-3.023
N3890 X16.635 Y88.894 Z-3.043
N3895 X16.684 Y88.908 Z-3.05
N3900 X16.876 Y88.965 F400
N3905 G3 X17.011 Y89.214 I-0.057 J0.192
N3910 X15.573 Y88.786 I-0.719 J-0.214 F600
N3915 X17.011 Y89.214 I0.719 J0.214
N3920 X16.762 Y89.349 I-0.192 J-0.057
N3925 G1 X16.57 Y89.292
N3930 X16.521 Y89.277 Z-3.043
N3935 X16.474 Y89.263 Z-3.023
N3940 X16.435 Y89.251 Z-2.991
N3945 X16.404 Y89.242 Z-2.95
N3950 X16.385 Y89.236 Z-2.902
N3955 X16.378 Y89.235 Z-2.85
N3960 G0 Z5
N3965 X16.493 Y88.851
N3970 G1 Z-0.05 F600
N3975 Z-3.9
N3980 X16.499 Y88.853 Z-3.952
N3985 X16.518 Y88.859 Z-4
N3990 X16.549 Y88.868 Z-4.041
N3995 X16.589 Y88.88 Z-4.073
N4000 X16.635 Y88.894 Z-4.093
N4005 X16.684 Y88.908 Z-4.1
N4010 X16.876 Y88.965 F400
N4015 G3 X17.011 Y89.214 I-0.057 J0.192
N4020 X15.573 Y88.786 I-0.719 J-0.214 F600
N4025 X17.011 Y89.214 I0.719 J0.214
N4030 X16.762 Y89.349 I-0.192 J-0.057
N4035 G1 X16.57 Y89.292
N4040 X16.521 Y89.277 Z-4.093
N4045 X16.474 Y89.263 Z-4.073
N4050 X16.435 Y89.251 Z-4.041
N4055 X16.404 Y89.242 Z-4
N4060 X16.385 Y89.236 Z-3.952
N4065 X16.378 Y89.235 Z-3.9
N4070 G0 Z5
N4075 X18.638 Y143.808
N4080 G1 Z3 F600
N4085 Z-1.8
N4090 G18 G2 X18.838 Z-2 I0.2
N4095 G1 X19.038 F400
N4100 G17 G3 X19.238 Y144.008 J0.2
N4105 X17.738 I-0.75 F600
N4110 X19.238 I0.75
N4115 X19.038 Y144.208 I-0.2
N4120 G1 X18.838
N4125 G18 G3 X18.638 Z-1.8 K0.2
N4130 G0 Z5
N4135 Y143.808
N4140 G1 Z1 F600
N4145 Z-2.85
N4150 G2 X18.838 Z-3.05 I0.2
N4155 G1 X19.038 F400
N4160 G17 G3 X19.238 Y144.008 J0.2
N4165 X17.738 I-0.75 F600
N4170 X19.238 I0.75
N4175 X19.038 Y144.208 I-0.2
N4180 G1 X18.838
N4185 G18 G3 X18.638 Z-2.85 K0.2
N4190 G0 Z5
N4195 Y143.808
N4200 G1 Z-0.05 F600
N4205 Z-3.9
N4210 G2 X18.838 Z-4.1 I0.2
N4215 G1 X19.038 F400
N4220 G17 G3 X19.238 Y144.008 J0.2
N4225 X17.738 I-0.75 F600
N4230 X19.238 I0.75
N4235 X19.038 Y144.208 I-0.2
N4240 G1 X18.838
N4245 G18 G3 X18.638 Z-3.9 K0.2
N4250 G0 Z15
N4255 G17

(2D ??6)
N4260 G0 X44.692 Y-0.2
N4265 Z15
N4270 Z5
N4275 G1 Z3 F600
N4280 Z-1.8
N4285 G18 G2 X44.892 Z-2 I0.2
N4290 G1 X45.092 F400
N4295 G17 G3 X45.292 Y0 J0.2
N4300 G1 Y20 F600
N4305 X26.292
N4310 Y0
N4315 G2 X25.292 Y-1 I-1
N4320 G1 X10.792
N4325 G2 X9.792 Y0 J1
N4330 G1 Y85.666
N4335 X-0.199 Y122.953
N4340 G2 X16.418 Y151.735 I22.699 J6.083
N4345 X45.199 Y135.118 I6.082 J-22.699
N4350 G1 X65.758 Y58.393
N4355 G2 X65.792 Y58.134 I-0.966 J-0.259
N4360 G1 Y0
N4365 G2 X64.792 Y-1 I-1
N4370 G1 X46.292
N4375 G2 X45.292 Y0 J1
N4380 G3 X45.092 Y0.2 I-0.2
N4385 G1 X44.892
N4390 G18 G3 X44.692 Z-1.8 K0.2
N4395 G0 Z5
N4400 Y-0.2
N4405 G1 Z1 F600
N4410 Z-2.85
N4415 G2 X44.892 Z-3.05 I0.2
N4420 G1 X45.092 F400
N4425 G17 G3 X45.292 Y0 J0.2
N4430 G1 Y20 F600
N4435 X26.292
N4440 Y0
N4445 G2 X25.292 Y-1 I-1
N4450 G1 X10.792
N4455 G2 X9.792 Y0 J1
N4460 G1 Y85.666
N4465 X-0.199 Y122.953
N4470 G2 X16.418 Y151.735 I22.699 J6.083
N4475 X45.199 Y135.118 I6.082 J-22.699
N4480 G1 X65.758 Y58.393
N4485 G2 X65.792 Y58.134 I-0.966 J-0.259
N4490 G1 Y0
N4495 G2 X64.792 Y-1 I-1
N4500 G1 X46.292
N4505 G2 X45.292 Y0 J1
N4510 G3 X45.092 Y0.2 I-0.2
N4515 G1 X44.892
N4520 G18 G3 X44.692 Z-2.85 K0.2
N4525 G0 Z5
N4530 Y-0.2
N4535 G1 Z-0.05 F600
N4540 Z-3.9
N4545 G2 X44.892 Z-4.1 I0.2
N4550 G1 X45.092 F400
N4555 G17 G3 X45.292 Y0 J0.2
N4560 G1 Y20 F600
N4565 X26.292
N4570 Y0
N4575 G2 X25.292 Y-1 I-1
N4580 G1 X10.792
N4585 G2 X9.792 Y0 J1
N4590 G1 Y85.666
N4595 X-0.199 Y122.953
N4600 G2 X16.418 Y151.735 I22.699 J6.083
N4605 X45.199 Y135.118 I6.082 J-22.699
N4610 G1 X65.758 Y58.393
N4615 G2 X65.792 Y58.134 I-0.966 J-0.259
N4620 G1 Y0
N4625 G2 X64.792 Y-1 I-1
N4630 G1 X46.292
N4635 G2 X45.292 Y0 J1
N4640 G3 X45.092 Y0.2 I-0.2
N4645 G1 X44.892
N4650 G18 G3 X44.692 Z-3.9 K0.2
N4655 G0 Z15
N4660 G17
N4665 M9
N4670 G28
N4675 M30
%
