%
(1001)
(T1 D=2 CR=0 - ZMIN=-4 - flat end mill)
N10 G90 G94
N15 G17
N20 G21
N25 M9
N30 G28

(2D ??14)
N35 T1 M6
(0)
N40 S23873 M3
N45 G54
N50 M8
N55 G0 X16.378 Y28.765
N60 G43 Z15
N65 Z5
N70 G1 Z3 F600
N75 Z-1.8
N80 X16.385 Y28.764 Z-1.852
N85 X16.404 Y28.758 Z-1.9
N90 X16.435 Y28.749 Z-1.941
N95 X16.474 Y28.737 Z-1.973
N100 X16.521 Y28.723 Z-1.993
N105 X16.57 Y28.708 Z-2
N110 X16.762 Y28.651 F400
N115 G3 X17.011 Y28.786 I0.057 J0.192
N120 X15.573 Y29.214 I-0.719 J0.214 F600
N125 X17.011 Y28.786 I0.719 J-0.214
N130 X16.876 Y29.035 I-0.192 J0.057
N135 G1 X16.684 Y29.092
N140 X16.635 Y29.106 Z-1.993
N145 X16.589 Y29.12 Z-1.973
N150 X16.549 Y29.132 Z-1.941
N155 X16.518 Y29.141 Z-1.9
N160 X16.499 Y29.147 Z-1.852
N165 X16.493 Y29.149 Z-1.8
N170 G0 Z5
N175 X16.378 Y28.765
N180 G1 Z1 F600
N185 Z-3.8
N190 X16.385 Y28.764 Z-3.852
N195 X16.404 Y28.758 Z-3.9
N200 X16.435 Y28.749 Z-3.941
N205 X16.474 Y28.737 Z-3.973
N210 X16.521 Y28.723 Z-3.993
N215 X16.57 Y28.708 Z-4
N220 X16.762 Y28.651 F400
N225 G3 X17.011 Y28.786 I0.057 J0.192
N230 X15.573 Y29.214 I-0.719 J0.214 F600
N235 X17.011 Y28.786 I0.719 J-0.214
N240 X16.876 Y29.035 I-0.192 J0.057
N245 G1 X16.684 Y29.092
N250 X16.635 Y29.106 Z-3.993
N255 X16.589 Y29.12 Z-3.973
N260 X16.549 Y29.132 Z-3.941
N265 X16.518 Y29.141 Z-3.9
N270 X16.499 Y29.147 Z-3.852
N275 X16.493 Y29.149 Z-3.8
N280 G0 Z5
N285 X56.447 Y4.804
N290 G1 Z3 F600
N295 Z-1.8
N300 X56.453 Z-1.852
N305 X56.473 Z-1.9
N310 X56.505 Y4.805 Z-1.941
N315 X56.547 Y4.806 Z-1.973
N320 X56.595 Y4.807 Z-1.993
N325 X56.647 Y4.809 Z-2
N330 X56.847 Y4.814 F400
N335 G3 X57.042 Y5.018 I-0.005 J0.2
N340 X55.542 Y4.982 I-0.75 J-0.018 F600
N345 X57.042 Y5.018 I0.75 J0.018
N350 X56.837 Y5.213 I-0.2 J-0.005
N355 G1 X56.637 Y5.209
N360 X56.585 Y5.207 Z-1.993
N365 X56.537 Y5.206 Z-1.973
N370 X56.495 Y5.205 Z-1.941
N375 X56.464 Y5.204 Z-1.9
N380 X56.444 Z-1.852
N385 X56.437 Z-1.8
N390 G0 Z5
N395 X56.447 Y4.804
N400 G1 Z1 F600
N405 Z-3.8
N410 X56.453 Z-3.852
N415 X56.473 Z-3.9
N420 X56.505 Y4.805 Z-3.941
N425 X56.547 Y4.806 Z-3.973
N430 X56.595 Y4.807 Z-3.993
N435 X56.647 Y4.809 Z-4
N440 X56.847 Y4.814 F400
N445 G3 X57.042 Y5.018 I-0.005 J0.2
N450 X55.542 Y4.982 I-0.75 J-0.018 F600
N455 X57.042 Y5.018 I0.75 J0.018
N460 X56.837 Y5.213 I-0.2 J-0.005
N465 G1 X56.637 Y5.209
N470 X56.585 Y5.207 Z-3.993
N475 X56.537 Y5.206 Z-3.973
N480 X56.495 Y5.205 Z-3.941
N485 X56.464 Y5.204 Z-3.9
N490 X56.444 Z-3.852
N495 X56.437 Z-3.8
N500 G0 Z5
N505 X18.638 Y83.808
N510 G1 Z3 F600
N515 Z-1.8
N520 G18 G2 X18.838 Z-2 I0.2
N525 G1 X19.038 F400
N530 G17 G3 X19.238 Y84.008 J0.2
N535 X17.738 I-0.75 F600
N540 X19.238 I0.75
N545 X19.038 Y84.208 I-0.2
N550 G1 X18.838
N555 G18 G3 X18.638 Z-1.8 K0.2
N560 G0 Z5
N565 Y83.808
N570 G1 Z1 F600
N575 Z-3.8
N580 G2 X18.838 Z-4 I0.2
N585 G1 X19.038 F400
N590 G17 G3 X19.238 Y84.008 J0.2
N595 X17.738 I-0.75 F600
N600 X19.238 I0.75
N605 X19.038 Y84.208 I-0.2
N610 G1 X18.838
N615 G18 G3 X18.638 Z-3.8 K0.2
N620 G0 Z15
N625 G17
N630 M9
N635 G28
N640 M30
%
