%
(1001)
(T2 D=4 CR=0 - ZMIN=-9.1 - flat end mill)
N10 G90 G94
N15 G17
N20 G21
N25 M9
N30 G28

(2D ??20)
N35 T2 M6
N40 S10000 M3
N45 G54
N50 M8
N55 G0 X39.194 Y65.848
N60 G43 Z15
N65 Z5
N70 G1 Z3 F600
N75 Z-1.6
N80 X39.201 Y65.85 Z-1.678
N85 X39.223 Y65.856 Z-1.753
N90 X39.259 Y65.865 Z-1.822
N95 X39.307 Y65.878 Z-1.883
N100 X39.366 Y65.894 Z-1.933
N105 X39.432 Y65.912 Z-1.97
N110 X39.505 Y65.931 Z-1.992
N115 X39.58 Y65.951 Z-2
N120 X39.967 Y66.055 F400
N125 G3 X40.249 Y66.545 I-0.104 J0.386
N130 G1 X38.438 Y73.306 F600
N135 G3 X25.394 Y85.28 I-15.938 J-4.271
N140 G1 X26.285 Y81.956
N145 G2 X24.871 Y79.506 I-1.932 J-0.518
N150 G1 X15.212 Y76.918
N155 G2 X12.762 Y78.332 I-0.518 J1.932
N160 G1 X11.871 Y81.657
N165 G3 X6.562 Y64.765 I10.629 J-12.621
N170 G1 X14.538 Y35
N175 X21.292
N180 G2 X23.292 Y33 J-2
N185 G1 Y23.932
N190 G2 X21.292 Y21.932 I-2
N195 G1 X16.292
N200 Y3.932
N205 G2 X14.292 Y1.932 I-2
N210 G1 X10.792
N215 G2 X8.792 Y3.932 J2
N220 G1 Y25.535
N225 X-1.165 Y62.695
N230 G2 X46.165 Y75.377 I23.665 J6.341
N235 G1 X66.224 Y0.518
N240 G2 X64.292 Y-2 I-1.932 J-0.518
N245 G1 X51.792
N250 G2 X49.792 Y0 J2
N255 G1 Y10
N260 G2 X51.792 Y12 I2
N265 G1 X54.865
N270 X40.249 Y66.545
N275 G3 X39.76 Y66.828 I-0.386 J-0.104
N280 G1 X39.373 Y66.724
N285 X39.298 Y66.704 Z-1.992
N290 X39.225 Y66.685 Z-1.97
N295 X39.159 Y66.667 Z-1.933
N300 X39.1 Y66.651 Z-1.883
N305 X39.052 Y66.638 Z-1.822
N310 X39.016 Y66.629 Z-1.753
N315 X38.994 Y66.623 Z-1.678
N320 X38.987 Y66.621 Z-1.6
N325 G0 Z5
N330 X39.194 Y65.848
N335 G1 Z1 F600
N340 Z-3.6
N345 X39.201 Y65.85 Z-3.678
N350 X39.223 Y65.856 Z-3.753
N355 X39.259 Y65.865 Z-3.822
N360 X39.307 Y65.878 Z-3.883
N365 X39.366 Y65.894 Z-3.933
N370 X39.432 Y65.912 Z-3.97
N375 X39.505 Y65.931 Z-3.992
N380 X39.58 Y65.951 Z-4
N385 X39.967 Y66.055 F400
N390 G3 X40.249 Y66.545 I-0.104 J0.386
N395 G1 X38.438 Y73.306 F600
N400 G3 X25.394 Y85.28 I-15.938 J-4.271
N405 G1 X26.285 Y81.956
N410 G2 X24.871 Y79.506 I-1.932 J-0.518
N415 G1 X15.212 Y76.918
N420 G2 X12.762 Y78.332 I-0.518 J1.932
N425 G1 X11.871 Y81.657
N430 G3 X6.562 Y64.765 I10.629 J-12.621
N435 G1 X14.538 Y35
N440 X21.292
N445 G2 X23.292 Y33 J-2
N450 G1 Y23.932
N455 G2 X21.292 Y21.932 I-2
N460 G1 X16.292
N465 Y3.932
N470 G2 X14.292 Y1.932 I-2
N475 G1 X10.792
N480 G2 X8.792 Y3.932 J2
N485 G1 Y25.535
N490 X-1.165 Y62.695
N495 G2 X46.165 Y75.377 I23.665 J6.341
N500 G1 X66.224 Y0.518
N505 G2 X64.292 Y-2 I-1.932 J-0.518
N510 G1 X51.792
N515 G2 X49.792 Y0 J2
N520 G1 Y10
N525 G2 X51.792 Y12 I2
N530 G1 X54.865
N535 X40.249 Y66.545
N540 G3 X39.76 Y66.828 I-0.386 J-0.104
N545 G1 X39.373 Y66.724
N550 X39.298 Y66.704 Z-3.992
N555 X39.225 Y66.685 Z-3.97
N560 X39.159 Y66.667 Z-3.933
N565 X39.1 Y66.651 Z-3.883
N570 X39.052 Y66.638 Z-3.822
N575 X39.016 Y66.629 Z-3.753
N580 X38.994 Y66.623 Z-3.678
N585 X38.987 Y66.621 Z-3.6
N590 G0 Z5
N595 X39.194 Y65.848
N600 G1 Z-1 F600
N605 Z-5.6
N610 X39.201 Y65.85 Z-5.678
N615 X39.223 Y65.856 Z-5.753
N620 X39.259 Y65.865 Z-5.822
N625 X39.307 Y65.878 Z-5.883
N630 X39.366 Y65.894 Z-5.933
N635 X39.432 Y65.912 Z-5.97
N640 X39.505 Y65.931 Z-5.992
N645 X39.58 Y65.951 Z-6
N650 X39.967 Y66.055 F400
N655 G3 X40.249 Y66.545 I-0.104 J0.386
N660 G1 X38.438 Y73.306 F600
N665 G3 X25.394 Y85.28 I-15.938 J-4.271
N670 G1 X26.285 Y81.956
N675 G2 X24.871 Y79.506 I-1.932 J-0.518
N680 G1 X15.212 Y76.918
N685 G2 X12.762 Y78.332 I-0.518 J1.932
N690 G1 X11.871 Y81.657
N695 G3 X6.562 Y64.765 I10.629 J-12.621
N700 G1 X14.538 Y35
N705 X21.292
N710 G2 X23.292 Y33 J-2
N715 G1 Y23.932
N720 G2 X21.292 Y21.932 I-2
N725 G1 X16.292
N730 Y3.932
N735 G2 X14.292 Y1.932 I-2
N740 G1 X10.792
N745 G2 X8.792 Y3.932 J2
N750 G1 Y25.535
N755 X-1.165 Y62.695
N760 G2 X46.165 Y75.377 I23.665 J6.341
N765 G1 X66.224 Y0.518
N770 G2 X64.292 Y-2 I-1.932 J-0.518
N775 G1 X51.792
N780 G2 X49.792 Y0 J2
N785 G1 Y10
N790 G2 X51.792 Y12 I2
N795 G1 X54.865
N800 X40.249 Y66.545
N805 G3 X39.76 Y66.828 I-0.386 J-0.104
N810 G1 X39.373 Y66.724
N815 X39.298 Y66.704 Z-5.992
N820 X39.225 Y66.685 Z-5.97
N825 X39.159 Y66.667 Z-5.933
N830 X39.1 Y66.651 Z-5.883
N835 X39.052 Y66.638 Z-5.822
N840 X39.016 Y66.629 Z-5.753
N845 X38.994 Y66.623 Z-5.678
N850 X38.987 Y66.621 Z-5.6
N855 G0 Z5
N860 X39.194 Y65.848
N865 G1 Z-3 F600
N870 Z-7.6
N875 X39.201 Y65.85 Z-7.678
N880 X39.223 Y65.856 Z-7.753
N885 X39.259 Y65.865 Z-7.822
N890 X39.307 Y65.878 Z-7.883
N895 X39.366 Y65.894 Z-7.933
N900 X39.432 Y65.912 Z-7.97
N905 X39.505 Y65.931 Z-7.992
N910 X39.58 Y65.951 Z-8
N915 X39.967 Y66.055 F400
N920 G3 X40.249 Y66.545 I-0.104 J0.386
N925 G1 X38.438 Y73.306 F600
N930 G3 X25.394 Y85.28 I-15.938 J-4.271
N935 G1 X26.285 Y81.956
N940 G2 X24.871 Y79.506 I-1.932 J-0.518
N945 G1 X15.212 Y76.918
N950 G2 X12.762 Y78.332 I-0.518 J1.932
N955 G1 X11.871 Y81.657
N960 G3 X6.562 Y64.765 I10.629 J-12.621
N965 G1 X14.538 Y35
N970 X21.292
N975 G2 X23.292 Y33 J-2
N980 G1 Y23.932
N985 G2 X21.292 Y21.932 I-2
N990 G1 X16.292
N995 Y3.932
N1000 G2 X14.292 Y1.932 I-2
N1005 G1 X10.792
N1010 G2 X8.792 Y3.932 J2
N1015 G1 Y25.535
N1020 X-1.165 Y62.695
N1025 G2 X46.165 Y75.377 I23.665 J6.341
N1030 G1 X66.224 Y0.518
N1035 G2 X64.292 Y-2 I-1.932 J-0.518
N1040 G1 X51.792
N1045 G2 X49.792 Y0 J2
N1050 G1 Y10
N1055 G2 X51.792 Y12 I2
N1060 G1 X54.865
N1065 X40.249 Y66.545
N1070 G3 X39.76 Y66.828 I-0.386 J-0.104
N1075 G1 X39.373 Y66.724
N1080 X39.298 Y66.704 Z-7.992
N1085 X39.225 Y66.685 Z-7.97
N1090 X39.159 Y66.667 Z-7.933
N1095 X39.1 Y66.651 Z-7.883
N1100 X39.052 Y66.638 Z-7.822
N1105 X39.016 Y66.629 Z-7.753
N1110 X38.994 Y66.623 Z-7.678
N1115 X38.987 Y66.621 Z-7.6
N1120 G0 Z5
N1125 X39.194 Y65.848
N1130 G1 Z-5 F600
N1135 Z-8.7
N1140 X39.201 Y65.85 Z-8.778
N1145 X39.223 Y65.856 Z-8.853
N1150 X39.259 Y65.865 Z-8.922
N1155 X39.307 Y65.878 Z-8.983
N1160 X39.366 Y65.894 Z-9.033
N1165 X39.432 Y65.912 Z-9.07
N1170 X39.505 Y65.931 Z-9.092
N1175 X39.58 Y65.951 Z-9.1
N1180 X39.967 Y66.055 F400
N1185 G3 X40.249 Y66.545 I-0.104 J0.386
N1190 G1 X38.438 Y73.306 F600
N1195 G3 X25.394 Y85.28 I-15.938 J-4.271
N1200 G1 X26.285 Y81.956
N1205 G2 X24.871 Y79.506 I-1.932 J-0.518
N1210 G1 X15.212 Y76.918
N1215 G2 X12.762 Y78.332 I-0.518 J1.932
N1220 G1 X11.871 Y81.657
N1225 G3 X6.562 Y64.765 I10.629 J-12.621
N1230 G1 X14.538 Y35
N1235 X21.292
N1240 G2 X23.292 Y33 J-2
N1245 G1 Y23.932
N1250 G2 X21.292 Y21.932 I-2
N1255 G1 X16.292
N1260 Y3.932
N1265 G2 X14.292 Y1.932 I-2
N1270 G1 X10.792
N1275 G2 X8.792 Y3.932 J2
N1280 G1 Y25.535
N1285 X-1.165 Y62.695
N1290 G2 X46.165 Y75.377 I23.665 J6.341
N1295 G1 X66.224 Y0.518
N1300 G2 X64.292 Y-2 I-1.932 J-0.518
N1305 G1 X51.792
N1310 G2 X49.792 Y0 J2
N1315 G1 Y10
N1320 G2 X51.792 Y12 I2
N1325 G1 X54.865
N1330 X40.249 Y66.545
N1335 G3 X39.76 Y66.828 I-0.386 J-0.104
N1340 G1 X39.373 Y66.724
N1345 X39.298 Y66.704 Z-9.092
N1350 X39.225 Y66.685 Z-9.07
N1355 X39.159 Y66.667 Z-9.033
N1360 X39.1 Y66.651 Z-8.983
N1365 X39.052 Y66.638 Z-8.922
N1370 X39.016 Y66.629 Z-8.853
N1375 X38.994 Y66.623 Z-8.778
N1380 X38.987 Y66.621 Z-8.7
N1385 G0 Z15
N1390 M9
N1395 G28
N1400 M30
%
