%
(1001)
(T1 D=2 CR=0 - ZMIN=-4.11 - flat end mill)
N10 G90 G94
N15 G17
N20 G21
N25 M9
N30 G28

(2D ????19)
N35 T1 M6
(0)
N40 S23873 M3
N45 G54
N50 M8
N55 G0 X108.936 Y124.217
N60 G43 Z15
N65 Z5
N70 G1 Z2.7 F300
N75 X108.941 Y124.192 Z2.602 F600
N80 X108.958 Y124.124 Z2.529
N85 X108.989 Y124.032 Z2.5
N90 G3 X110.751 Y124.746 Z2.396 I0.881 J0.357
N95 X108.989 Y124.032 Z2.292 I-0.881 J-0.357
N100 X110.751 Y124.746 Z2.187 I0.881 J0.357
N105 X108.989 Y124.032 Z2.083 I-0.881 J-0.357
N110 X110.751 Y124.746 Z1.979 I0.881 J0.357
N115 X108.989 Y124.032 Z1.875 I-0.881 J-0.357
N120 X110.751 Y124.746 Z1.77 I0.881 J0.357
N125 X108.989 Y124.032 Z1.666 I-0.881 J-0.357
N130 X110.751 Y124.746 Z1.562 I0.881 J0.357
N135 X108.989 Y124.032 Z1.458 I-0.881 J-0.357
N140 X110.751 Y124.746 Z1.354 I0.881 J0.357
N145 X108.989 Y124.032 Z1.249 I-0.881 J-0.357
N150 X110.751 Y124.746 Z1.145 I0.881 J0.357
N155 X108.989 Y124.032 Z1.041 I-0.881 J-0.357
N160 X110.751 Y124.746 Z0.937 I0.881 J0.357
N165 X108.989 Y124.032 Z0.832 I-0.881 J-0.357
N170 X110.751 Y124.746 Z0.728 I0.881 J0.357
N175 X108.989 Y124.032 Z0.624 I-0.881 J-0.357
N180 X110.751 Y124.746 Z0.52 I0.881 J0.357
N185 X108.989 Y124.032 Z0.416 I-0.881 J-0.357
N190 X110.751 Y124.746 Z0.311 I0.881 J0.357
N195 X108.989 Y124.032 Z0.207 I-0.881 J-0.357
N200 X110.751 Y124.746 Z0.103 I0.881 J0.357
N205 X108.989 Y124.032 Z-0.001 I-0.881 J-0.357
N210 X110.751 Y124.746 Z-0.106 I0.881 J0.357
N215 X108.989 Y124.032 Z-0.21 I-0.881 J-0.357
N220 X110.751 Y124.746 Z-0.314 I0.881 J0.357
N225 X108.989 Y124.032 Z-0.418 I-0.881 J-0.357
N230 X110.751 Y124.746 Z-0.522 I0.881 J0.357
N235 X108.989 Y124.032 Z-0.627 I-0.881 J-0.357
N240 X110.751 Y124.746 Z-0.731 I0.881 J0.357
N245 X108.989 Y124.032 Z-0.835 I-0.881 J-0.357
N250 X110.751 Y124.746 Z-0.939 I0.881 J0.357
N255 X109.3 Y125.149 Z-1 I-0.881 J-0.357
N260 X111.7 Y121.949 I1.2 J-1.6
N265 X109.3 Y125.149 I-1.2 J1.6
N270 X111.7 Y121.949 Z-1.219 I1.2 J-1.6
N275 X112.449 Y123.998 Z-1.3 I-1.2 J1.6
N280 X108.551 Y123.1 I-1.949 J-0.449
N285 X112.449 Y123.998 I1.949 J0.449
N290 G1 X112.432 Y124.045 Z-1.287
N295 X112.403 Y124.086 Z-1.273
N300 X112.377 Y124.111 Z-1.237
N305 X112.346 Y124.131 Z-1.2
N310 X112.322 Y124.142 Z-1.1
N315 G0 Z15
N320 X71.936 Y138.667
N325 Z5
N330 G1 Z2.7 F300
N335 X71.941 Y138.642 Z2.602 F600
N340 X71.958 Y138.574 Z2.529
N345 X71.99 Y138.482 Z2.5
N350 G3 X73.751 Y139.196 Z2.396 I0.881 J0.357
N355 X71.99 Y138.482 Z2.292 I-0.881 J-0.357
N360 X73.751 Y139.196 Z2.187 I0.881 J0.357
N365 X71.99 Y138.482 Z2.083 I-0.881 J-0.357
N370 X73.751 Y139.196 Z1.979 I0.881 J0.357
N375 X71.99 Y138.482 Z1.875 I-0.881 J-0.357
N380 X73.751 Y139.196 Z1.77 I0.881 J0.357
N385 X71.99 Y138.482 Z1.666 I-0.881 J-0.357
N390 X73.751 Y139.196 Z1.562 I0.881 J0.357
N395 X71.99 Y138.482 Z1.458 I-0.881 J-0.357
N400 X73.751 Y139.196 Z1.354 I0.881 J0.357
N405 X71.99 Y138.482 Z1.249 I-0.881 J-0.357
N410 X73.751 Y139.196 Z1.145 I0.881 J0.357
N415 X71.99 Y138.482 Z1.041 I-0.881 J-0.357
N420 X73.751 Y139.196 Z0.937 I0.881 J0.357
N425 X71.99 Y138.482 Z0.832 I-0.881 J-0.357
N430 X73.751 Y139.196 Z0.728 I0.881 J0.357
N435 X71.99 Y138.482 Z0.624 I-0.881 J-0.357
N440 X73.751 Y139.196 Z0.52 I0.881 J0.357
N445 X71.99 Y138.482 Z0.416 I-0.881 J-0.357
N450 X73.751 Y139.196 Z0.311 I0.881 J0.357
N455 X71.99 Y138.482 Z0.207 I-0.881 J-0.357
N460 X73.751 Y139.196 Z0.103 I0.881 J0.357
N465 X71.99 Y138.482 Z-0.001 I-0.881 J-0.357
N470 X73.751 Y139.196 Z-0.106 I0.881 J0.357
N475 X71.99 Y138.482 Z-0.21 I-0.881 J-0.357
N480 X73.751 Y139.196 Z-0.314 I0.881 J0.357
N485 X71.99 Y138.482 Z-0.418 I-0.881 J-0.357
N490 X73.751 Y139.196 Z-0.522 I0.881 J0.357
N495 X71.99 Y138.482 Z-0.627 I-0.88 J-0.357
N500 X73.751 Y139.196 Z-0.731 I0.88 J0.357
N505 X71.99 Y138.482 Z-0.835 I-0.88 J-0.357
N510 X73.751 Y139.196 Z-0.939 I0.88 J0.357
N515 X72.3 Y139.599 Z-1 I-0.88 J-0.357
N520 X74.7 Y136.399 I1.2 J-1.6
N525 X72.3 Y139.599 I-1.2 J1.6
N530 X74.7 Y136.399 Z-1.219 I1.2 J-1.6
N535 X75.449 Y138.448 Z-1.3 I-1.2 J1.6
N540 X71.551 Y137.55 I-1.949 J-0.449
N545 X75.449 Y138.448 I1.949 J0.449
N550 G1 X75.432 Y138.495 Z-1.287
N555 X75.404 Y138.536 Z-1.273
N560 X75.377 Y138.561 Z-1.237
N565 X75.346 Y138.581 Z-1.2
N570 X75.322 Y138.592 Z-1.1
N575 G0 Z15
N580 X71.936 Y115.667
N585 Z5
N590 G1 Z2.7 F300
N595 X71.941 Y115.642 Z2.602 F600
N600 X71.958 Y115.574 Z2.529
N605 X71.99 Y115.482 Z2.5
N610 G3 X73.751 Y116.196 Z2.396 I0.881 J0.357
N615 X71.99 Y115.482 Z2.292 I-0.881 J-0.357
N620 X73.751 Y116.196 Z2.187 I0.881 J0.357
N625 X71.99 Y115.482 Z2.083 I-0.881 J-0.357
N630 X73.751 Y116.196 Z1.979 I0.881 J0.357
N635 X71.99 Y115.482 Z1.875 I-0.881 J-0.357
N640 X73.751 Y116.196 Z1.77 I0.881 J0.357
N645 X71.99 Y115.482 Z1.666 I-0.881 J-0.357
N650 X73.751 Y116.196 Z1.562 I0.881 J0.357
N655 X71.99 Y115.482 Z1.458 I-0.881 J-0.357
N660 X73.751 Y116.196 Z1.354 I0.881 J0.357
N665 X71.99 Y115.482 Z1.249 I-0.881 J-0.357
N670 X73.751 Y116.196 Z1.145 I0.881 J0.357
N675 X71.99 Y115.482 Z1.041 I-0.881 J-0.357
N680 X73.751 Y116.196 Z0.937 I0.881 J0.357
N685 X71.99 Y115.482 Z0.832 I-0.881 J-0.357
N690 X73.751 Y116.196 Z0.728 I0.881 J0.357
N695 X71.99 Y115.482 Z0.624 I-0.881 J-0.357
N700 X73.751 Y116.196 Z0.52 I0.881 J0.357
N705 X71.99 Y115.482 Z0.416 I-0.881 J-0.357
N710 X73.751 Y116.196 Z0.311 I0.881 J0.357
N715 X71.99 Y115.482 Z0.207 I-0.881 J-0.357
N720 X73.751 Y116.196 Z0.103 I0.881 J0.357
N725 X71.99 Y115.482 Z-0.001 I-0.881 J-0.357
N730 X73.751 Y116.196 Z-0.106 I0.881 J0.357
N735 X71.99 Y115.482 Z-0.21 I-0.881 J-0.357
N740 X73.751 Y116.196 Z-0.314 I0.881 J0.357
N745 X71.99 Y115.482 Z-0.418 I-0.881 J-0.357
N750 X73.751 Y116.196 Z-0.522 I0.881 J0.357
N755 X71.99 Y115.482 Z-0.627 I-0.881 J-0.357
N760 X73.751 Y116.196 Z-0.731 I0.881 J0.357
N765 X71.99 Y115.482 Z-0.835 I-0.881 J-0.357
N770 X73.751 Y116.196 Z-0.939 I0.881 J0.357
N775 X72.3 Y116.599 Z-1 I-0.881 J-0.357
N780 X74.7 Y113.399 I1.2 J-1.6
N785 X72.3 Y116.599 I-1.2 J1.6
N790 X74.7 Y113.399 Z-1.219 I1.2 J-1.6
N795 X75.449 Y115.448 Z-1.3 I-1.2 J1.6
N800 X71.551 Y114.55 I-1.949 J-0.449
N805 X75.449 Y115.448 I1.949 J0.449
N810 G1 X75.432 Y115.495 Z-1.287
N815 X75.404 Y115.536 Z-1.273
N820 X75.377 Y115.561 Z-1.237
N825 X75.346 Y115.581 Z-1.2
N830 X75.322 Y115.592 Z-1.1
N835 G0 Z15
N840 X111.936 Y91.667
N845 Z5
N850 G1 Z2.7 F300
N855 X111.941 Y91.642 Z2.602 F600
N860 X111.958 Y91.574 Z2.529
N865 X111.989 Y91.482 Z2.5
N870 G3 X113.751 Y92.196 Z2.396 I0.881 J0.357
N875 X111.989 Y91.482 Z2.292 I-0.881 J-0.357
N880 X113.751 Y92.196 Z2.187 I0.881 J0.357
N885 X111.989 Y91.482 Z2.083 I-0.881 J-0.357
N890 X113.751 Y92.196 Z1.979 I0.881 J0.357
N895 X111.989 Y91.482 Z1.875 I-0.881 J-0.357
N900 X113.751 Y92.196 Z1.77 I0.881 J0.357
N905 X111.989 Y91.482 Z1.666 I-0.881 J-0.357
N910 X113.751 Y92.196 Z1.562 I0.881 J0.357
N915 X111.989 Y91.482 Z1.458 I-0.881 J-0.357
N920 X113.751 Y92.196 Z1.354 I0.881 J0.357
N925 X111.989 Y91.482 Z1.249 I-0.881 J-0.357
N930 X113.751 Y92.196 Z1.145 I0.881 J0.357
N935 X111.989 Y91.482 Z1.041 I-0.881 J-0.357
N940 X113.751 Y92.196 Z0.937 I0.881 J0.357
N945 X111.989 Y91.482 Z0.832 I-0.881 J-0.357
N950 X113.751 Y92.196 Z0.728 I0.881 J0.357
N955 X111.989 Y91.482 Z0.624 I-0.881 J-0.357
N960 X113.751 Y92.196 Z0.52 I0.881 J0.357
N965 X111.989 Y91.482 Z0.416 I-0.881 J-0.357
N970 X113.751 Y92.196 Z0.311 I0.881 J0.357
N975 X111.989 Y91.482 Z0.207 I-0.881 J-0.357
N980 X113.751 Y92.196 Z0.103 I0.881 J0.357
N985 X111.989 Y91.482 Z-0.001 I-0.881 J-0.357
N990 X113.751 Y92.196 Z-0.106 I0.881 J0.357
N995 X111.989 Y91.482 Z-0.21 I-0.881 J-0.357
N1000 X113.751 Y92.196 Z-0.314 I0.881 J0.357
N1005 X111.989 Y91.482 Z-0.418 I-0.881 J-0.357
N1010 X113.751 Y92.196 Z-0.522 I0.881 J0.357
N1015 X111.989 Y91.482 Z-0.627 I-0.881 J-0.357
N1020 X113.751 Y92.196 Z-0.731 I0.881 J0.357
N1025 X111.989 Y91.482 Z-0.835 I-0.881 J-0.357
N1030 X113.751 Y92.196 Z-0.939 I0.881 J0.357
N1035 X112.3 Y92.599 Z-1 I-0.881 J-0.357
N1040 X114.7 Y89.399 I1.2 J-1.6
N1045 X112.3 Y92.599 I-1.2 J1.6
N1050 X114.7 Y89.399 Z-1.219 I1.2 J-1.6
N1055 X115.449 Y91.448 Z-1.3 I-1.2 J1.6
N1060 X111.551 Y90.55 I-1.949 J-0.449
N1065 X115.449 Y91.448 I1.949 J0.449
N1070 G1 X115.432 Y91.495 Z-1.287
N1075 X115.403 Y91.536 Z-1.273
N1080 X115.377 Y91.561 Z-1.237
N1085 X115.346 Y91.581 Z-1.2
N1090 X115.322 Y91.592 Z-1.1
N1095 G0 Z15
N1100 X109.74 Y36.66
N1105 Z5
N1110 G1 Z2.7 F300
N1115 X109.745 Y36.634 Z2.602 F600
N1120 X109.762 Y36.566 Z2.529
N1125 X109.793 Y36.475 Z2.5
N1130 G3 X111.555 Y37.188 Z2.396 I0.881 J0.357
N1135 X109.793 Y36.475 Z2.292 I-0.881 J-0.357
N1140 X111.555 Y37.188 Z2.187 I0.881 J0.357
N1145 X109.793 Y36.475 Z2.083 I-0.881 J-0.357
N1150 X111.555 Y37.188 Z1.979 I0.881 J0.357
N1155 X109.793 Y36.475 Z1.875 I-0.881 J-0.357
N1160 X111.555 Y37.188 Z1.77 I0.881 J0.357
N1165 X109.793 Y36.475 Z1.666 I-0.881 J-0.357
N1170 X111.555 Y37.188 Z1.562 I0.881 J0.357
N1175 X109.793 Y36.475 Z1.458 I-0.881 J-0.357
N1180 X111.555 Y37.188 Z1.354 I0.881 J0.357
N1185 X109.793 Y36.475 Z1.249 I-0.881 J-0.357
N1190 X111.555 Y37.188 Z1.145 I0.881 J0.357
N1195 X109.793 Y36.475 Z1.041 I-0.881 J-0.357
N1200 X111.555 Y37.188 Z0.937 I0.881 J0.357
N1205 X109.793 Y36.475 Z0.832 I-0.881 J-0.357
N1210 X111.555 Y37.188 Z0.728 I0.881 J0.357
N1215 X109.793 Y36.475 Z0.624 I-0.881 J-0.357
N1220 X111.555 Y37.188 Z0.52 I0.881 J0.357
N1225 X109.793 Y36.475 Z0.416 I-0.881 J-0.357
N1230 X111.555 Y37.188 Z0.311 I0.881 J0.357
N1235 X109.793 Y36.475 Z0.207 I-0.881 J-0.357
N1240 X111.555 Y37.188 Z0.103 I0.881 J0.357
N1245 X109.793 Y36.475 Z-0.001 I-0.881 J-0.357
N1250 X111.555 Y37.188 Z-0.106 I0.881 J0.357
N1255 X109.793 Y36.475 Z-0.21 I-0.881 J-0.357
N1260 X111.555 Y37.188 Z-0.314 I0.881 J0.357
N1265 X109.793 Y36.475 Z-0.418 I-0.881 J-0.357
N1270 X111.555 Y37.188 Z-0.522 I0.881 J0.357
N1275 X109.793 Y36.475 Z-0.627 I-0.881 J-0.357
N1280 X111.555 Y37.188 Z-0.731 I0.881 J0.357
N1285 X109.793 Y36.475 Z-0.835 I-0.881 J-0.357
N1290 X111.555 Y37.188 Z-0.939 I0.881 J0.357
N1295 X110.104 Y37.591 Z-1 I-0.881 J-0.357
N1300 X112.504 Y34.391 I1.2 J-1.6
N1305 X110.104 Y37.591 I-1.2 J1.6
N1310 X112.504 Y34.391 Z-1.219 I1.2 J-1.6
N1315 X113.253 Y36.441 Z-1.3 I-1.2 J1.6
N1320 X109.355 Y35.542 I-1.949 J-0.449
N1325 X113.253 Y36.441 I1.949 J0.449
N1330 G1 X113.236 Y36.487 Z-1.287
N1335 X113.207 Y36.528 Z-1.273
N1340 X113.181 Y36.553 Z-1.237
N1345 X113.15 Y36.573 Z-1.2
N1350 X113.126 Y36.584 Z-1.1
N1355 G0 Z15
N1360 X42.395 Y71.62
N1365 Z5
N1370 G1 Z2 F300
N1375 Z-0.8
N1380 Y71.627 Z-0.852
N1385 X42.394 Y71.647 Z-0.9
N1390 Y71.679 Z-0.941
N1395 Y71.72 Z-0.973
N1400 Y71.768 Z-0.993
N1405 Y71.82 Z-1
N1410 Y71.84
N1415 X42.386 Y82.5 F600
N1420 G3 X23.614 I-9.386
N1425 G1 X23.606 Y71.848
N1430 X23.613 Y71.795
N1435 X23.634 Y71.746
N1440 X23.667 Y71.704
N1445 X23.71 Y71.672
N1450 X23.76 Y71.653
N1455 X43.755 Y66.99
N1460 G3 X44 Y67.185 I0.045 J0.195
N1465 G1 Y82.5
N1470 G3 X22 I-11
N1475 G1 Y67.189
N1480 G3 X22.242 Y66.994 I0.2
N1485 G1 X42.236 Y71.237
N1490 G3 X42.395 Y71.432 I-0.042 J0.196
N1495 G1 Y71.484 Z-1.007 F300
N1500 Y71.532 Z-1.027
N1505 Y71.574 Z-1.059
N1510 Y71.606 Z-1.1
N1515 Y71.626 Z-1.148
N1520 Y71.632 Z-1.2
N1525 Z-1.81
N1530 X42.394 Y71.639 Z-1.862
N1535 Y71.659 Z-1.91
N1540 Y71.691 Z-1.951
N1545 Y71.732 Z-1.983
N1550 Y71.781 Z-2.003
N1555 Y71.832 Z-2.01
N1560 Y71.84
N1565 X42.386 Y82.5 F600
N1570 G3 X23.614 I-9.386
N1575 G1 X23.606 Y71.848
N1580 X23.613 Y71.795
N1585 X23.634 Y71.746
N1590 X23.667 Y71.704
N1595 X23.71 Y71.672
N1600 X23.76 Y71.653
N1605 X43.755 Y66.99
N1610 G3 X44 Y67.185 I0.045 J0.195
N1615 G1 Y82.5
N1620 G3 X22 I-11
N1625 G1 Y67.189
N1630 X22.002 Y67.158
N1635 X22.159 Y66.17
N1640 X22.167 Y66.119 Z-2.003
N1645 X22.175 Y66.072 Z-1.983
N1650 X22.181 Y66.031 Z-1.951
N1655 X22.186 Y65.999 Z-1.91
N1660 X22.189 Y65.98 Z-1.862
N1665 X22.19 Y65.973 Z-1.81
N1670 G0 Z15
N1675 X51.936 Y5.668
N1680 Z5
N1685 G1 Z2.7 F300
N1690 X51.941 Y5.643 Z2.602 F600
N1695 X51.958 Y5.575 Z2.529
N1700 X51.99 Y5.483 Z2.5
N1705 G3 X53.751 Y6.197 Z2.396 I0.881 J0.357
N1710 X51.99 Y5.483 Z2.292 I-0.881 J-0.357
N1715 X53.751 Y6.197 Z2.187 I0.881 J0.357
N1720 X51.99 Y5.483 Z2.083 I-0.881 J-0.357
N1725 X53.751 Y6.197 Z1.979 I0.881 J0.357
N1730 X51.99 Y5.483 Z1.875 I-0.881 J-0.357
N1735 X53.751 Y6.197 Z1.77 I0.881 J0.357
N1740 X51.99 Y5.483 Z1.666 I-0.881 J-0.357
N1745 X53.751 Y6.197 Z1.562 I0.881 J0.357
N1750 X51.99 Y5.483 Z1.458 I-0.881 J-0.357
N1755 X53.751 Y6.197 Z1.354 I0.881 J0.357
N1760 X51.99 Y5.483 Z1.249 I-0.881 J-0.357
N1765 X53.751 Y6.197 Z1.145 I0.881 J0.357
N1770 X51.99 Y5.483 Z1.041 I-0.881 J-0.357
N1775 X53.751 Y6.197 Z0.937 I0.881 J0.357
N1780 X51.99 Y5.483 Z0.832 I-0.881 J-0.357
N1785 X53.751 Y6.197 Z0.728 I0.881 J0.357
N1790 X51.99 Y5.483 Z0.624 I-0.881 J-0.357
N1795 X53.751 Y6.197 Z0.52 I0.881 J0.357
N1800 X51.99 Y5.483 Z0.416 I-0.881 J-0.357
N1805 X53.751 Y6.197 Z0.311 I0.881 J0.357
N1810 X51.99 Y5.483 Z0.207 I-0.881 J-0.357
N1815 X53.751 Y6.197 Z0.103 I0.881 J0.357
N1820 X51.99 Y5.483 Z-0.001 I-0.881 J-0.357
N1825 X53.751 Y6.197 Z-0.106 I0.881 J0.357
N1830 X51.99 Y5.483 Z-0.21 I-0.881 J-0.357
N1835 X53.751 Y6.197 Z-0.314 I0.881 J0.357
N1840 X51.99 Y5.483 Z-0.418 I-0.881 J-0.357
N1845 X53.751 Y6.197 Z-0.522 I0.881 J0.357
N1850 X51.99 Y5.483 Z-0.627 I-0.881 J-0.357
N1855 X53.751 Y6.197 Z-0.731 I0.881 J0.357
N1860 X51.99 Y5.483 Z-0.835 I-0.881 J-0.357
N1865 X53.751 Y6.197 Z-0.939 I0.881 J0.357
N1870 X52.3 Y6.6 Z-1 I-0.881 J-0.357
N1875 X54.7 Y3.4 I1.2 J-1.6
N1880 X52.3 Y6.6 I-1.2 J1.6
N1885 X54.7 Y3.4 Z-1.219 I1.2 J-1.6
N1890 X55.449 Y5.449 Z-1.3 I-1.2 J1.6
N1895 X51.552 Y4.551 I-1.949 J-0.449
N1900 X55.449 Y5.449 I1.949 J0.449
N1905 G1 X55.432 Y5.496 Z-1.287
N1910 X55.404 Y5.537 Z-1.273
N1915 X55.377 Y5.562 Z-1.237
N1920 X55.346 Y5.582 Z-1.2
N1925 X55.322 Y5.593 Z-1.1
N1930 G0 Z15

(2D ??33)
N1935 X113.65 Y90.799
N1940 Z15
N1945 Z5
N1950 G1 Z2 F600
N1955 Z-0.8
N1960 G18 G2 X113.85 Z-1 I0.2
N1965 G1 X114.05 F300
N1970 G17 G3 X114.25 Y90.999 J0.2
N1975 X112.75 I-0.75 F600
N1980 X114.25 I0.75
N1985 X114.05 Y91.199 I-0.2
N1990 G1 X113.85
N1995 G18 G3 X113.65 Z-0.8 K0.2
N2000 G0 Z5
N2005 Y90.799
N2010 G1 Z1 F600
N2015 Z-1.8
N2020 G2 X113.85 Z-2 I0.2
N2025 G1 X114.05 F300
N2030 G17 G3 X114.25 Y90.999 J0.2
N2035 X112.75 I-0.75 F600
N2040 X114.25 I0.75
N2045 X114.05 Y91.199 I-0.2
N2050 G1 X113.85
N2055 G18 G3 X113.65 Z-1.8 K0.2
N2060 G0 Z5
N2065 Y90.799
N2070 G1 Z0 F600
N2075 Z-2.8
N2080 G2 X113.85 Z-3 I0.2
N2085 G1 X114.05 F300
N2090 G17 G3 X114.25 Y90.999 J0.2
N2095 X112.75 I-0.75 F600
N2100 X114.25 I0.75
N2105 X114.05 Y91.199 I-0.2
N2110 G1 X113.85
N2115 G18 G3 X113.65 Z-2.8 K0.2
N2120 G0 Z5
N2125 Y90.799
N2130 G1 Z-1 F600
N2135 Z-3.35
N2140 G2 X113.85 Z-3.55 I0.2
N2145 G1 X114.05 F300
N2150 G17 G3 X114.25 Y90.999 J0.2
N2155 X112.75 I-0.75 F600
N2160 X114.25 I0.75
N2165 X114.05 Y91.199 I-0.2
N2170 G1 X113.85
N2175 G18 G3 X113.65 Z-3.35 K0.2
N2180 G0 Z5
N2185 Y90.799
N2190 G1 Z-1.55 F600
N2195 Z-3.9
N2200 G2 X113.85 Z-4.1 I0.2
N2205 G1 X114.05 F300
N2210 G17 G3 X114.25 Y90.999 J0.2
N2215 X112.75 I-0.75 F600
N2220 X114.25 I0.75
N2225 X114.05 Y91.199 I-0.2
N2230 G1 X113.85
N2235 G18 G3 X113.65 Z-3.9 K0.2
N2240 G0 Z5
N2245 X94.391 Y115.938
N2250 G1 Z2 F600
N2255 Z-0.8
N2260 X94.397 Y115.939 Z-0.852
N2265 X94.416 Y115.944 Z-0.9
N2270 X94.447 Y115.953 Z-0.941
N2275 X94.487 Y115.963 Z-0.973
N2280 X94.534 Y115.976 Z-0.993
N2285 X94.584 Y115.989 Z-1
N2290 X94.777 Y116.041 F300
N2295 G17 G3 X94.918 Y116.286 I-0.052 J0.193
N2300 G1 X94.849 Y116.546 F600
N2305 X86.155 Y114.217
N2310 X86.285 Y113.734
N2315 X94.978 Y116.063
N2320 X94.918 Y116.286
N2325 G3 X94.673 Y116.427 I-0.193 J-0.052
N2330 G1 X94.48 Y116.376
N2335 X94.43 Y116.362 Z-0.993
N2340 X94.384 Y116.35 Z-0.973
N2345 X94.344 Y116.339 Z-0.941
N2350 X94.313 Y116.331 Z-0.9
N2355 X94.294 Y116.326 Z-0.852
N2360 X94.287 Y116.324 Z-0.8
N2365 G0 Z5
N2370 X94.391 Y115.938
N2375 G1 Z1 F600
N2380 Z-1.8
N2385 X94.397 Y115.939 Z-1.852
N2390 X94.416 Y115.944 Z-1.9
N2395 X94.447 Y115.953 Z-1.941
N2400 X94.487 Y115.963 Z-1.973
N2405 X94.534 Y115.976 Z-1.993
N2410 X94.584 Y115.989 Z-2
N2415 X94.777 Y116.041 F300
N2420 G3 X94.918 Y116.286 I-0.052 J0.193
N2425 G1 X94.849 Y116.546 F600
N2430 X86.155 Y114.217
N2435 X86.285 Y113.734
N2440 X94.978 Y116.063
N2445 X94.918 Y116.286
N2450 G3 X94.673 Y116.427 I-0.193 J-0.052
N2455 G1 X94.48 Y116.376
N2460 X94.43 Y116.362 Z-1.993
N2465 X94.384 Y116.35 Z-1.973
N2470 X94.344 Y116.339 Z-1.941
N2475 X94.313 Y116.331 Z-1.9
N2480 X94.294 Y116.326 Z-1.852
N2485 X94.287 Y116.324 Z-1.8
N2490 G0 Z5
N2495 X94.391 Y115.938
N2500 G1 Z0 F600
N2505 Z-2.8
N2510 X94.397 Y115.939 Z-2.852
N2515 X94.416 Y115.944 Z-2.9
N2520 X94.447 Y115.953 Z-2.941
N2525 X94.487 Y115.963 Z-2.973
N2530 X94.534 Y115.976 Z-2.993
N2535 X94.584 Y115.989 Z-3
N2540 X94.777 Y116.041 F300
N2545 G3 X94.918 Y116.286 I-0.052 J0.193
N2550 G1 X94.849 Y116.546 F600
N2555 X86.155 Y114.217
N2560 X86.285 Y113.734
N2565 X94.978 Y116.063
N2570 X94.918 Y116.286
N2575 G3 X94.673 Y116.427 I-0.193 J-0.052
N2580 G1 X94.48 Y116.376
N2585 X94.43 Y116.362 Z-2.993
N2590 X94.384 Y116.35 Z-2.973
N2595 X94.344 Y116.339 Z-2.941
N2600 X94.313 Y116.331 Z-2.9
N2605 X94.294 Y116.326 Z-2.852
N2610 X94.287 Y116.324 Z-2.8
N2615 G0 Z5
N2620 X94.391 Y115.938
N2625 G1 Z-1 F600
N2630 Z-3.35
N2635 X94.397 Y115.939 Z-3.402
N2640 X94.416 Y115.944 Z-3.45
N2645 X94.447 Y115.953 Z-3.491
N2650 X94.487 Y115.963 Z-3.523
N2655 X94.534 Y115.976 Z-3.543
N2660 X94.584 Y115.989 Z-3.55
N2665 X94.777 Y116.041 F300
N2670 G3 X94.918 Y116.286 I-0.052 J0.193
N2675 G1 X94.849 Y116.546 F600
N2680 X86.155 Y114.217
N2685 X86.285 Y113.734
N2690 X94.978 Y116.063
N2695 X94.918 Y116.286
N2700 G3 X94.673 Y116.427 I-0.193 J-0.052
N2705 G1 X94.48 Y116.376
N2710 X94.43 Y116.362 Z-3.543
N2715 X94.384 Y116.35 Z-3.523
N2720 X94.344 Y116.339 Z-3.491
N2725 X94.313 Y116.331 Z-3.45
N2730 X94.294 Y116.326 Z-3.402
N2735 X94.287 Y116.324 Z-3.35
N2740 G0 Z5
N2745 X94.391 Y115.938
N2750 G1 Z-1.55 F600
N2755 Z-3.9
N2760 X94.397 Y115.939 Z-3.952
N2765 X94.416 Y115.944 Z-4
N2770 X94.447 Y115.953 Z-4.041
N2775 X94.487 Y115.963 Z-4.073
N2780 X94.534 Y115.976 Z-4.093
N2785 X94.584 Y115.989 Z-4.1
N2790 X94.777 Y116.041 F300
N2795 G3 X94.918 Y116.286 I-0.052 J0.193
N2800 G1 X94.849 Y116.546 F600
N2805 X86.155 Y114.217
N2810 X86.285 Y113.734
N2815 X94.978 Y116.063
N2820 X94.918 Y116.286
N2825 G3 X94.673 Y116.427 I-0.193 J-0.052
N2830 G1 X94.48 Y116.376
N2835 X94.43 Y116.362 Z-4.093
N2840 X94.384 Y116.35 Z-4.073
N2845 X94.344 Y116.339 Z-4.041
N2850 X94.313 Y116.331 Z-4
N2855 X94.294 Y116.326 Z-3.952
N2860 X94.287 Y116.324 Z-3.9
N2865 G0 Z5
N2870 X91.193 Y143.399
N2875 G1 Z2 F600
N2880 Z-0.8
N2885 G19 G3 Y143.599 Z-1 J0.2
N2890 G1 Y143.799 F300
N2895 G17 G3 X90.993 Y143.999 I-0.2
N2900 G1 X81.504 F600
N2905 X81.502
N2910 G3 X79.5 Y142.04 I-0.002 J-2
N2915 G1 Y132.999
N2920 G2 X75.5 Y128.999 I-4
N2925 G1 X71.504
N2930 X71.502
N2935 G3 X69.5 Y127.04 I-0.002 J-2
N2940 G1 Y122.958
N2945 G3 X71.5 Y120.999 I2 J0.041
N2950 G1 X102.5
N2955 G3 X104.5 Y122.999 J2
N2960 G1 Y141.999
N2965 G3 X102.5 Y143.999 I-2
N2970 G1 X90.993
N2975 G3 X90.793 Y143.799 J-0.2
N2980 G1 Y143.599
N2985 G19 G2 Y143.399 Z-0.8 K0.2
N2990 G0 Z5
N2995 X91.193
N3000 G1 Z1 F600
N3005 Z-1.8
N3010 G3 Y143.599 Z-2 J0.2
N3015 G1 Y143.799 F300
N3020 G17 G3 X90.993 Y143.999 I-0.2
N3025 G1 X81.504 F600
N3030 X81.502
N3035 G3 X79.5 Y142.04 I-0.002 J-2
N3040 G1 Y132.999
N3045 G2 X75.5 Y128.999 I-4
N3050 G1 X71.504
N3055 X71.502
N3060 G3 X69.5 Y127.04 I-0.002 J-2
N3065 G1 Y122.958
N3070 G3 X71.5 Y120.999 I2 J0.041
N3075 G1 X102.5
N3080 G3 X104.5 Y122.999 J2
N3085 G1 Y141.999
N3090 G3 X102.5 Y143.999 I-2
N3095 G1 X90.993
N3100 G3 X90.793 Y143.799 J-0.2
N3105 G1 Y143.599
N3110 G19 G2 Y143.399 Z-1.8 K0.2
N3115 G0 Z5
N3120 X91.193
N3125 G1 Z0 F600
N3130 Z-2.8
N3135 G3 Y143.599 Z-3 J0.2
N3140 G1 Y143.799 F300
N3145 G17 G3 X90.993 Y143.999 I-0.2
N3150 G1 X81.504 F600
N3155 X81.502
N3160 G3 X79.5 Y142.04 I-0.002 J-2
N3165 G1 Y132.999
N3170 G2 X75.5 Y128.999 I-4
N3175 G1 X71.504
N3180 X71.502
N3185 G3 X69.5 Y127.04 I-0.002 J-2
N3190 G1 Y122.958
N3195 G3 X71.5 Y120.999 I2 J0.041
N3200 G1 X102.5
N3205 G3 X104.5 Y122.999 J2
N3210 G1 Y141.999
N3215 G3 X102.5 Y143.999 I-2
N3220 G1 X90.993
N3225 G3 X90.793 Y143.799 J-0.2
N3230 G1 Y143.599
N3235 G19 G2 Y143.399 Z-2.8 K0.2
N3240 G0 Z5
N3245 X91.193
N3250 G1 Z-1 F600
N3255 Z-3.35
N3260 G3 Y143.599 Z-3.55 J0.2
N3265 G1 Y143.799 F300
N3270 G17 G3 X90.993 Y143.999 I-0.2
N3275 G1 X81.504 F600
N3280 X81.502
N3285 G3 X79.5 Y142.04 I-0.002 J-2
N3290 G1 Y132.999
N3295 G2 X75.5 Y128.999 I-4
N3300 G1 X71.504
N3305 X71.502
N3310 G3 X69.5 Y127.04 I-0.002 J-2
N3315 G1 Y122.958
N3320 G3 X71.5 Y120.999 I2 J0.041
N3325 G1 X102.5
N3330 G3 X104.5 Y122.999 J2
N3335 G1 Y141.999
N3340 G3 X102.5 Y143.999 I-2
N3345 G1 X90.993
N3350 G3 X90.793 Y143.799 J-0.2
N3355 G1 Y143.599
N3360 G19 G2 Y143.399 Z-3.35 K0.2
N3365 G0 Z5
N3370 X91.193
N3375 G1 Z-1.55 F600
N3380 Z-3.9
N3385 G3 Y143.599 Z-4.1 J0.2
N3390 G1 Y143.799 F300
N3395 G17 G3 X90.993 Y143.999 I-0.2
N3400 G1 X81.504 F600
N3405 X81.502
N3410 G3 X79.5 Y142.04 I-0.002 J-2
N3415 G1 Y132.999
N3420 G2 X75.5 Y128.999 I-4
N3425 G1 X71.504
N3430 X71.502
N3435 G3 X69.5 Y127.04 I-0.002 J-2
N3440 G1 Y122.958
N3445 G3 X71.5 Y120.999 I2 J0.041
N3450 G1 X102.5
N3455 G3 X104.5 Y122.999 J2
N3460 G1 Y141.999
N3465 G3 X102.5 Y143.999 I-2
N3470 G1 X90.993
N3475 G3 X90.793 Y143.799 J-0.2
N3480 G1 Y143.599
N3485 G19 G2 Y143.399 Z-3.9 K0.2
N3490 G0 Z5
N3495 X86.655 Y154.603
N3500 G1 Z2 F600
N3505 Z-0.8
N3510 X86.662 Z-0.852
N3515 X86.682 Z-0.9
N3520 X86.714 Y154.604 Z-0.941
N3525 X86.755 Y154.605 Z-0.973
N3530 X86.803 Y154.606 Z-0.993
N3535 X86.855 Y154.608 Z-1
N3540 X87.055 Y154.613 F300
N3545 G17 G3 X87.25 Y154.817 I-0.005 J0.2
N3550 X85.751 Y154.781 I-0.75 J-0.018 F600
N3555 X87.25 Y154.817 I0.75 J0.018
N3560 X87.045 Y155.012 I-0.2 J-0.005
N3565 G1 X86.845 Y155.008
N3570 X86.794 Y155.006 Z-0.993
N3575 X86.745 Y155.005 Z-0.973
N3580 X86.704 Y155.004 Z-0.941
N3585 X86.672 Y155.003 Z-0.9
N3590 X86.652 Z-0.852
N3595 X86.645 Z-0.8
N3600 G0 Z5
N3605 X86.655 Y154.603
N3610 G1 Z1 F600
N3615 Z-1.8
N3620 X86.662 Z-1.852
N3625 X86.682 Z-1.9
N3630 X86.714 Y154.604 Z-1.941
N3635 X86.755 Y154.605 Z-1.973
N3640 X86.803 Y154.606 Z-1.993
N3645 X86.855 Y154.608 Z-2
N3650 X87.055 Y154.613 F300
N3655 G3 X87.25 Y154.817 I-0.005 J0.2
N3660 X85.751 Y154.781 I-0.75 J-0.018 F600
N3665 X87.25 Y154.817 I0.75 J0.018
N3670 X87.045 Y155.012 I-0.2 J-0.005
N3675 G1 X86.845 Y155.008
N3680 X86.794 Y155.006 Z-1.993
N3685 X86.745 Y155.005 Z-1.973
N3690 X86.704 Y155.004 Z-1.941
N3695 X86.672 Y155.003 Z-1.9
N3700 X86.652 Z-1.852
N3705 X86.645 Z-1.8
N3710 G0 Z5
N3715 X86.655 Y154.603
N3720 G1 Z0 F600
N3725 Z-2.8
N3730 X86.662 Z-2.852
N3735 X86.682 Z-2.9
N3740 X86.714 Y154.604 Z-2.941
N3745 X86.755 Y154.605 Z-2.973
N3750 X86.803 Y154.606 Z-2.993
N3755 X86.855 Y154.608 Z-3
N3760 X87.055 Y154.613 F300
N3765 G3 X87.25 Y154.817 I-0.005 J0.2
N3770 X85.751 Y154.781 I-0.75 J-0.018 F600
N3775 X87.25 Y154.817 I0.75 J0.018
N3780 X87.045 Y155.012 I-0.2 J-0.005
N3785 G1 X86.845 Y155.008
N3790 X86.794 Y155.006 Z-2.993
N3795 X86.745 Y155.005 Z-2.973
N3800 X86.704 Y155.004 Z-2.941
N3805 X86.672 Y155.003 Z-2.9
N3810 X86.652 Z-2.852
N3815 X86.645 Z-2.8
N3820 G0 Z5
N3825 X86.655 Y154.603
N3830 G1 Z-1 F600
N3835 Z-3.35
N3840 X86.662 Z-3.402
N3845 X86.682 Z-3.45
N3850 X86.714 Y154.604 Z-3.491
N3855 X86.755 Y154.605 Z-3.523
N3860 X86.803 Y154.606 Z-3.543
N3865 X86.855 Y154.608 Z-3.55
N3870 X87.055 Y154.613 F300
N3875 G3 X87.25 Y154.817 I-0.005 J0.2
N3880 X85.751 Y154.781 I-0.75 J-0.018 F600
N3885 X87.25 Y154.817 I0.75 J0.018
N3890 X87.045 Y155.012 I-0.2 J-0.005
N3895 G1 X86.845 Y155.008
N3900 X86.794 Y155.006 Z-3.543
N3905 X86.745 Y155.005 Z-3.523
N3910 X86.704 Y155.004 Z-3.491
N3915 X86.672 Y155.003 Z-3.45
N3920 X86.652 Z-3.402
N3925 X86.645 Z-3.35
N3930 G0 Z5
N3935 X86.655 Y154.603
N3940 G1 Z-1.55 F600
N3945 Z-3.9
N3950 X86.662 Z-3.952
N3955 X86.682 Z-4
N3960 X86.714 Y154.604 Z-4.041
N3965 X86.755 Y154.605 Z-4.073
N3970 X86.803 Y154.606 Z-4.093
N3975 X86.855 Y154.608 Z-4.1
N3980 X87.055 Y154.613 F300
N3985 G3 X87.25 Y154.817 I-0.005 J0.2
N3990 X85.751 Y154.781 I-0.75 J-0.018 F600
N3995 X87.25 Y154.817 I0.75 J0.018
N4000 X87.045 Y155.012 I-0.2 J-0.005
N4005 G1 X86.845 Y155.008
N4010 X86.794 Y155.006 Z-4.093
N4015 X86.745 Y155.005 Z-4.073
N4020 X86.704 Y155.004 Z-4.041
N4025 X86.672 Y155.003 Z-4
N4030 X86.652 Z-3.952
N4035 X86.645 Z-3.9
N4040 G0 Z5
N4045 X95.65 Y154.599
N4050 G1 Z2 F600
N4055 Z-0.8
N4060 G18 G2 X95.85 Z-1 I0.2
N4065 G1 X96.05 F300
N4070 G17 G3 X96.25 Y154.799 J0.2
N4075 X94.75 I-0.75 F600
N4080 X96.25 I0.75
N4085 X96.05 Y154.999 I-0.2
N4090 G1 X95.85
N4095 G18 G3 X95.65 Z-0.8 K0.2
N4100 G0 Z5
N4105 Y154.599
N4110 G1 Z1 F600
N4115 Z-1.8
N4120 G2 X95.85 Z-2 I0.2
N4125 G1 X96.05 F300
N4130 G17 G3 X96.25 Y154.799 J0.2
N4135 X94.75 I-0.75 F600
N4140 X96.25 I0.75
N4145 X96.05 Y154.999 I-0.2
N4150 G1 X95.85
N4155 G18 G3 X95.65 Z-1.8 K0.2
N4160 G0 Z5
N4165 Y154.599
N4170 G1 Z0 F600
N4175 Z-2.8
N4180 G2 X95.85 Z-3 I0.2
N4185 G1 X96.05 F300
N4190 G17 G3 X96.25 Y154.799 J0.2
N4195 X94.75 I-0.75 F600
N4200 X96.25 I0.75
N4205 X96.05 Y154.999 I-0.2
N4210 G1 X95.85
N4215 G18 G3 X95.65 Z-2.8 K0.2
N4220 G0 Z5
N4225 Y154.599
N4230 G1 Z-1 F600
N4235 Z-3.35
N4240 G2 X95.85 Z-3.55 I0.2
N4245 G1 X96.05 F300
N4250 G17 G3 X96.25 Y154.799 J0.2
N4255 X94.75 I-0.75 F600
N4260 X96.25 I0.75
N4265 X96.05 Y154.999 I-0.2
N4270 G1 X95.85
N4275 G18 G3 X95.65 Z-3.35 K0.2
N4280 G0 Z5
N4285 Y154.599
N4290 G1 Z-1.55 F600
N4295 Z-3.9
N4300 G2 X95.85 Z-4.1 I0.2
N4305 G1 X96.05 F300
N4310 G17 G3 X96.25 Y154.799 J0.2
N4315 X94.75 I-0.75 F600
N4320 X96.25 I0.75
N4325 X96.05 Y154.999 I-0.2
N4330 G1 X95.85
N4335 G18 G3 X95.65 Z-3.9 K0.2
N4340 G0 Z5
N4345 X73.65 Y137.799
N4350 G1 Z2 F600
N4355 Z-0.8
N4360 G2 X73.85 Z-1 I0.2
N4365 G1 X74.05 F300
N4370 G17 G3 X74.25 Y137.999 J0.2
N4375 X72.75 I-0.75 F600
N4380 X74.25 I0.75
N4385 X74.05 Y138.199 I-0.2
N4390 G1 X73.85
N4395 G18 G3 X73.65 Z-0.8 K0.2
N4400 G0 Z5
N4405 Y137.799
N4410 G1 Z1 F600
N4415 Z-1.8
N4420 G2 X73.85 Z-2 I0.2
N4425 G1 X74.05 F300
N4430 G17 G3 X74.25 Y137.999 J0.2
N4435 X72.75 I-0.75 F600
N4440 X74.25 I0.75
N4445 X74.05 Y138.199 I-0.2
N4450 G1 X73.85
N4455 G18 G3 X73.65 Z-1.8 K0.2
N4460 G0 Z5
N4465 Y137.799
N4470 G1 Z0 F600
N4475 Z-2.8
N4480 G2 X73.85 Z-3 I0.2
N4485 G1 X74.05 F300
N4490 G17 G3 X74.25 Y137.999 J0.2
N4495 X72.75 I-0.75 F600
N4500 X74.25 I0.75
N4505 X74.05 Y138.199 I-0.2
N4510 G1 X73.85
N4515 G18 G3 X73.65 Z-2.8 K0.2
N4520 G0 Z5
N4525 Y137.799
N4530 G1 Z-1 F600
N4535 Z-3.35
N4540 G2 X73.85 Z-3.55 I0.2
N4545 G1 X74.05 F300
N4550 G17 G3 X74.25 Y137.999 J0.2
N4555 X72.75 I-0.75 F600
N4560 X74.25 I0.75
N4565 X74.05 Y138.199 I-0.2
N4570 G1 X73.85
N4575 G18 G3 X73.65 Z-3.35 K0.2
N4580 G0 Z5
N4585 Y137.799
N4590 G1 Z-1.55 F600
N4595 Z-3.9
N4600 G2 X73.85 Z-4.1 I0.2
N4605 G1 X74.05 F300
N4610 G17 G3 X74.25 Y137.999 J0.2
N4615 X72.75 I-0.75 F600
N4620 X74.25 I0.75
N4625 X74.05 Y138.199 I-0.2
N4630 G1 X73.85
N4635 G18 G3 X73.65 Z-3.9 K0.2
N4640 G0 Z5
N4645 Y114.799
N4650 G1 Z2 F600
N4655 Z-0.8
N4660 G2 X73.85 Z-1 I0.2
N4665 G1 X74.05 F300
N4670 G17 G3 X74.25 Y114.999 J0.2
N4675 X72.75 I-0.75 F600
N4680 X74.25 I0.75
N4685 X74.05 Y115.199 I-0.2
N4690 G1 X73.85
N4695 G18 G3 X73.65 Z-0.8 K0.2
N4700 G0 Z5
N4705 Y114.799
N4710 G1 Z1 F600
N4715 Z-1.8
N4720 G2 X73.85 Z-2 I0.2
N4725 G1 X74.05 F300
N4730 G17 G3 X74.25 Y114.999 J0.2
N4735 X72.75 I-0.75 F600
N4740 X74.25 I0.75
N4745 X74.05 Y115.199 I-0.2
N4750 G1 X73.85
N4755 G18 G3 X73.65 Z-1.8 K0.2
N4760 G0 Z5
N4765 Y114.799
N4770 G1 Z0 F600
N4775 Z-2.8
N4780 G2 X73.85 Z-3 I0.2
N4785 G1 X74.05 F300
N4790 G17 G3 X74.25 Y114.999 J0.2
N4795 X72.75 I-0.75 F600
N4800 X74.25 I0.75
N4805 X74.05 Y115.199 I-0.2
N4810 G1 X73.85
N4815 G18 G3 X73.65 Z-2.8 K0.2
N4820 G0 Z5
N4825 Y114.799
N4830 G1 Z-1 F600
N4835 Z-3.35
N4840 G2 X73.85 Z-3.55 I0.2
N4845 G1 X74.05 F300
N4850 G17 G3 X74.25 Y114.999 J0.2
N4855 X72.75 I-0.75 F600
N4860 X74.25 I0.75
N4865 X74.05 Y115.199 I-0.2
N4870 G1 X73.85
N4875 G18 G3 X73.65 Z-3.35 K0.2
N4880 G0 Z5
N4885 Y114.799
N4890 G1 Z-1.55 F600
N4895 Z-3.9
N4900 G2 X73.85 Z-4.1 I0.2
N4905 G1 X74.05 F300
N4910 G17 G3 X74.25 Y114.999 J0.2
N4915 X72.75 I-0.75 F600
N4920 X74.25 I0.75
N4925 X74.05 Y115.199 I-0.2
N4930 G1 X73.85
N4935 G18 G3 X73.65 Z-3.9 K0.2
N4940 G0 Z5
N4945 X110.65 Y123.349
N4950 G1 Z2 F600
N4955 Z-0.8
N4960 G2 X110.85 Z-1 I0.2
N4965 G1 X111.05 F300
N4970 G17 G3 X111.25 Y123.549 J0.2
N4975 X109.75 I-0.75 F600
N4980 X111.25 I0.75
N4985 X111.05 Y123.749 I-0.2
N4990 G1 X110.85
N4995 G18 G3 X110.65 Z-0.8 K0.2
N5000 G0 Z5
N5005 Y123.349
N5010 G1 Z1 F600
N5015 Z-1.8
N5020 G2 X110.85 Z-2 I0.2
N5025 G1 X111.05 F300
N5030 G17 G3 X111.25 Y123.549 J0.2
N5035 X109.75 I-0.75 F600
N5040 X111.25 I0.75
N5045 X111.05 Y123.749 I-0.2
N5050 G1 X110.85
N5055 G18 G3 X110.65 Z-1.8 K0.2
N5060 G0 Z5
N5065 Y123.349
N5070 G1 Z0 F600
N5075 Z-2.8
N5080 G2 X110.85 Z-3 I0.2
N5085 G1 X111.05 F300
N5090 G17 G3 X111.25 Y123.549 J0.2
N5095 X109.75 I-0.75 F600
N5100 X111.25 I0.75
N5105 X111.05 Y123.749 I-0.2
N5110 G1 X110.85
N5115 G18 G3 X110.65 Z-2.8 K0.2
N5120 G0 Z5
N5125 Y123.349
N5130 G1 Z-1 F600
N5135 Z-3.35
N5140 G2 X110.85 Z-3.55 I0.2
N5145 G1 X111.05 F300
N5150 G17 G3 X111.25 Y123.549 J0.2
N5155 X109.75 I-0.75 F600
N5160 X111.25 I0.75
N5165 X111.05 Y123.749 I-0.2
N5170 G1 X110.85
N5175 G18 G3 X110.65 Z-3.35 K0.2
N5180 G0 Z5
N5185 Y123.349
N5190 G1 Z-1.55 F600
N5195 Z-3.9
N5200 G2 X110.85 Z-4.1 I0.2
N5205 G1 X111.05 F300
N5210 G17 G3 X111.25 Y123.549 J0.2
N5215 X109.75 I-0.75 F600
N5220 X111.25 I0.75
N5225 X111.05 Y123.749 I-0.2
N5230 G1 X110.85
N5235 G18 G3 X110.65 Z-3.9 K0.2
N5240 G0 Z5
N5245 X111.454 Y35.791
N5250 G1 Z2 F600
N5255 Z-0.8
N5260 G2 X111.654 Z-1 I0.2
N5265 G1 X111.854 F300
N5270 G17 G3 X112.054 Y35.991 J0.2
N5275 X110.554 I-0.75 F600
N5280 X112.054 I0.75
N5285 X111.854 Y36.191 I-0.2
N5290 G1 X111.654
N5295 G18 G3 X111.454 Z-0.8 K0.2
N5300 G0 Z5
N5305 Y35.791
N5310 G1 Z1 F600
N5315 Z-1.8
N5320 G2 X111.654 Z-2 I0.2
N5325 G1 X111.854 F300
N5330 G17 G3 X112.054 Y35.991 J0.2
N5335 X110.554 I-0.75 F600
N5340 X112.054 I0.75
N5345 X111.854 Y36.191 I-0.2
N5350 G1 X111.654
N5355 G18 G3 X111.454 Z-1.8 K0.2
N5360 G0 Z5
N5365 Y35.791
N5370 G1 Z0 F600
N5375 Z-2.8
N5380 G2 X111.654 Z-3 I0.2
N5385 G1 X111.854 F300
N5390 G17 G3 X112.054 Y35.991 J0.2
N5395 X110.554 I-0.75 F600
N5400 X112.054 I0.75
N5405 X111.854 Y36.191 I-0.2
N5410 G1 X111.654
N5415 G18 G3 X111.454 Z-2.8 K0.2
N5420 G0 Z5
N5425 Y35.791
N5430 G1 Z-1 F600
N5435 Z-3.35
N5440 G2 X111.654 Z-3.55 I0.2
N5445 G1 X111.854 F300
N5450 G17 G3 X112.054 Y35.991 J0.2
N5455 X110.554 I-0.75 F600
N5460 X112.054 I0.75
N5465 X111.854 Y36.191 I-0.2
N5470 G1 X111.654
N5475 G18 G3 X111.454 Z-3.35 K0.2
N5480 G0 Z5
N5485 Y35.791
N5490 G1 Z-1.55 F600
N5495 Z-3.9
N5500 G2 X111.654 Z-4.1 I0.2
N5505 G1 X111.854 F300
N5510 G17 G3 X112.054 Y35.991 J0.2
N5515 X110.554 I-0.75 F600
N5520 X112.054 I0.75
N5525 X111.854 Y36.191 I-0.2
N5530 G1 X111.654
N5535 G18 G3 X111.454 Z-3.9 K0.2
N5540 G0 Z5
N5545 X53.65 Y4.8
N5550 G1 Z2 F600
N5555 Z-0.8
N5560 G2 X53.85 Z-1 I0.2
N5565 G1 X54.05 F300
N5570 G17 G3 X54.25 Y5 J0.2
N5575 X52.75 I-0.75 F600
N5580 X54.25 I0.75
N5585 X54.05 Y5.2 I-0.2
N5590 G1 X53.85
N5595 G18 G3 X53.65 Z-0.8 K0.2
N5600 G0 Z5
N5605 Y4.8
N5610 G1 Z1 F600
N5615 Z-1.8
N5620 G2 X53.85 Z-2 I0.2
N5625 G1 X54.05 F300
N5630 G17 G3 X54.25 Y5 J0.2
N5635 X52.75 I-0.75 F600
N5640 X54.25 I0.75
N5645 X54.05 Y5.2 I-0.2
N5650 G1 X53.85
N5655 G18 G3 X53.65 Z-1.8 K0.2
N5660 G0 Z5
N5665 Y4.8
N5670 G1 Z0 F600
N5675 Z-2.8
N5680 G2 X53.85 Z-3 I0.2
N5685 G1 X54.05 F300
N5690 G17 G3 X54.25 Y5 J0.2
N5695 X52.75 I-0.75 F600
N5700 X54.25 I0.75
N5705 X54.05 Y5.2 I-0.2
N5710 G1 X53.85
N5715 G18 G3 X53.65 Z-2.8 K0.2
N5720 G0 Z5
N5725 Y4.8
N5730 G1 Z-1 F600
N5735 Z-3.35
N5740 G2 X53.85 Z-3.55 I0.2
N5745 G1 X54.05 F300
N5750 G17 G3 X54.25 Y5 J0.2
N5755 X52.75 I-0.75 F600
N5760 X54.25 I0.75
N5765 X54.05 Y5.2 I-0.2
N5770 G1 X53.85
N5775 G18 G3 X53.65 Z-3.35 K0.2
N5780 G0 Z5
N5785 Y4.8
N5790 G1 Z-1.55 F600
N5795 Z-3.9
N5800 G2 X53.85 Z-4.1 I0.2
N5805 G1 X54.05 F300
N5810 G17 G3 X54.25 Y5 J0.2
N5815 X52.75 I-0.75 F600
N5820 X54.25 I0.75
N5825 X54.05 Y5.2 I-0.2
N5830 G1 X53.85
N5835 G18 G3 X53.65 Z-3.9 K0.2
N5840 G0 Z15
N5845 X40.9 Y73.131
N5850 Z5
N5855 G1 Z2 F600
N5860 Z-0.8
N5865 G2 X41.1 Z-1 I0.2
N5870 G1 X41.3 F300
N5875 G17 G3 X41.5 Y73.331 J0.2
N5880 G1 Y82.5 F600
N5885 G3 X24.5 I-8.5
N5890 G1 Y73.331
N5895 G2 X24.292 Y72.72 I-1
N5900 G3 X41.708 Y59.28 I8.708 J-6.72
N5905 Y72.72 I-8.708 J6.72
N5910 G2 X41.5 Y73.331 I0.792 J0.611
N5915 G3 X41.3 Y73.531 I-0.2
N5920 G1 X41.1
N5925 G18 G3 X40.9 Z-0.8 K0.2
N5930 G0 Z5
N5935 Y73.131
N5940 G1 Z1 F600
N5945 Z-1.8
N5950 G2 X41.1 Z-2 I0.2
N5955 G1 X41.3 F300
N5960 G17 G3 X41.5 Y73.331 J0.2
N5965 G1 Y82.5 F600
N5970 G3 X24.5 I-8.5
N5975 G1 Y73.331
N5980 G2 X24.292 Y72.72 I-1
N5985 G3 X41.708 Y59.28 I8.708 J-6.72
N5990 Y72.72 I-8.708 J6.72
N5995 G2 X41.5 Y73.331 I0.792 J0.611
N6000 G3 X41.3 Y73.531 I-0.2
N6005 G1 X41.1
N6010 G18 G3 X40.9 Z-1.8 K0.2
N6015 G0 Z5
N6020 Y73.131
N6025 G1 Z0 F600
N6030 Z-2.8
N6035 G2 X41.1 Z-3 I0.2
N6040 G1 X41.3 F300
N6045 G17 G3 X41.5 Y73.331 J0.2
N6050 G1 Y82.5 F600
N6055 G3 X24.5 I-8.5
N6060 G1 Y73.331
N6065 G2 X24.292 Y72.72 I-1
N6070 G3 X41.708 Y59.28 I8.708 J-6.72
N6075 Y72.72 I-8.708 J6.72
N6080 G2 X41.5 Y73.331 I0.792 J0.611
N6085 G3 X41.3 Y73.531 I-0.2
N6090 G1 X41.1
N6095 G18 G3 X40.9 Z-2.8 K0.2
N6100 G0 Z5
N6105 Y73.131
N6110 G1 Z-1 F600
N6115 Z-3.355
N6120 G2 X41.1 Z-3.555 I0.2
N6125 G1 X41.3 F300
N6130 G17 G3 X41.5 Y73.331 J0.2
N6135 G1 Y82.5 F600
N6140 G3 X24.5 I-8.5
N6145 G1 Y73.331
N6150 G2 X24.292 Y72.72 I-1
N6155 G3 X41.708 Y59.28 I8.708 J-6.72
N6160 Y72.72 I-8.708 J6.72
N6165 G2 X41.5 Y73.331 I0.792 J0.611
N6170 G3 X41.3 Y73.531 I-0.2
N6175 G1 X41.1
N6180 G18 G3 X40.9 Z-3.355 K0.2
N6185 G0 Z5
N6190 Y73.131
N6195 G1 Z-1.555 F600
N6200 Z-3.91
N6205 G2 X41.1 Z-4.11 I0.2
N6210 G1 X41.3 F300
N6215 G17 G3 X41.5 Y73.331 J0.2
N6220 G1 Y82.5 F600
N6225 G3 X24.5 I-8.5
N6230 G1 Y73.331
N6235 G2 X24.292 Y72.72 I-1
N6240 G3 X41.708 Y59.28 I8.708 J-6.72
N6245 Y72.72 I-8.708 J6.72
N6250 G2 X41.5 Y73.331 I0.792 J0.611
N6255 G3 X41.3 Y73.531 I-0.2
N6260 G1 X41.1
N6265 G18 G3 X40.9 Z-3.91 K0.2
N6270 G0 Z15
N6275 G17

(2D ??34)
N6280 G0 X48.65 Y90.8
N6285 Z15
N6290 Z5
N6295 G1 Z2 F600
N6300 Z-0.8
N6305 G18 G2 X48.85 Z-1 I0.2
N6310 G1 X49.05 F300
N6315 G17 G3 X49.25 Y91 J0.2
N6320 X47.75 I-0.75 F600
N6325 X49.25 I0.75
N6330 X49.05 Y91.2 I-0.2
N6335 G1 X48.85
N6340 G18 G3 X48.65 Z-0.8 K0.2
N6345 G0 Z5
N6350 Y90.8
N6355 G1 Z1 F600
N6360 Z-1.8
N6365 G2 X48.85 Z-2 I0.2
N6370 G1 X49.05 F300
N6375 G17 G3 X49.25 Y91 J0.2
N6380 X47.75 I-0.75 F600
N6385 X49.25 I0.75
N6390 X49.05 Y91.2 I-0.2
N6395 G1 X48.85
N6400 G18 G3 X48.65 Z-1.8 K0.2
N6405 G0 Z5
N6410 Y90.8
N6415 G1 Z0 F600
N6420 Z-2.8
N6425 G2 X48.85 Z-3 I0.2
N6430 G1 X49.05 F300
N6435 G17 G3 X49.25 Y91 J0.2
N6440 X47.75 I-0.75 F600
N6445 X49.25 I0.75
N6450 X49.05 Y91.2 I-0.2
N6455 G1 X48.85
N6460 G18 G3 X48.65 Z-2.8 K0.2
N6465 G0 Z5
N6470 Y90.8
N6475 G1 Z-1 F600
N6480 Z-3.355
N6485 G2 X48.85 Z-3.555 I0.2
N6490 G1 X49.05 F300
N6495 G17 G3 X49.25 Y91 J0.2
N6500 X47.75 I-0.75 F600
N6505 X49.25 I0.75
N6510 X49.05 Y91.2 I-0.2
N6515 G1 X48.85
N6520 G18 G3 X48.65 Z-3.355 K0.2
N6525 G0 Z5
N6530 Y90.8
N6535 G1 Z-1.555 F600
N6540 Z-3.91
N6545 G2 X48.85 Z-4.11 I0.2
N6550 G1 X49.05 F300
N6555 G17 G3 X49.25 Y91 J0.2
N6560 X47.75 I-0.75 F600
N6565 X49.25 I0.75
N6570 X49.05 Y91.2 I-0.2
N6575 G1 X48.85
N6580 G18 G3 X48.65 Z-3.91 K0.2
N6585 G0 Z5
N6590 X45.65 Y123.35
N6595 G1 Z2 F600
N6600 Z-0.8
N6605 G2 X45.85 Z-1 I0.2
N6610 G1 X46.05 F300
N6615 G17 G3 X46.25 Y123.55 J0.2
N6620 X44.75 I-0.75 F600
N6625 X46.25 I0.75
N6630 X46.05 Y123.75 I-0.2
N6635 G1 X45.85
N6640 G18 G3 X45.65 Z-0.8 K0.2
N6645 G0 Z5
N6650 Y123.35
N6655 G1 Z1 F600
N6660 Z-1.8
N6665 G2 X45.85 Z-2 I0.2
N6670 G1 X46.05 F300
N6675 G17 G3 X46.25 Y123.55 J0.2
N6680 X44.75 I-0.75 F600
N6685 X46.25 I0.75
N6690 X46.05 Y123.75 I-0.2
N6695 G1 X45.85
N6700 G18 G3 X45.65 Z-1.8 K0.2
N6705 G0 Z5
N6710 Y123.35
N6715 G1 Z0 F600
N6720 Z-2.8
N6725 G2 X45.85 Z-3 I0.2
N6730 G1 X46.05 F300
N6735 G17 G3 X46.25 Y123.55 J0.2
N6740 X44.75 I-0.75 F600
N6745 X46.25 I0.75
N6750 X46.05 Y123.75 I-0.2
N6755 G1 X45.85
N6760 G18 G3 X45.65 Z-2.8 K0.2
N6765 G0 Z5
N6770 Y123.35
N6775 G1 Z-1 F600
N6780 Z-3.355
N6785 G2 X45.85 Z-3.555 I0.2
N6790 G1 X46.05 F300
N6795 G17 G3 X46.25 Y123.55 J0.2
N6800 X44.75 I-0.75 F600
N6805 X46.25 I0.75
N6810 X46.05 Y123.75 I-0.2
N6815 G1 X45.85
N6820 G18 G3 X45.65 Z-3.355 K0.2
N6825 G0 Z5
N6830 Y123.35
N6835 G1 Z-1.555 F600
N6840 Z-3.91
N6845 G2 X45.85 Z-4.11 I0.2
N6850 G1 X46.05 F300
N6855 G17 G3 X46.25 Y123.55 J0.2
N6860 X44.75 I-0.75 F600
N6865 X46.25 I0.75
N6870 X46.05 Y123.75 I-0.2
N6875 G1 X45.85
N6880 G18 G3 X45.65 Z-3.91 K0.2
N6885 G0 Z5
N6890 X8.65 Y124.8
N6895 G1 Z2 F600
N6900 Z-0.8
N6905 G2 X8.85 Z-1 I0.2
N6910 G1 X9.05 F300
N6915 G17 G3 X9.25 Y125 J0.2
N6920 X7.75 I-0.75 F600
N6925 X9.25 I0.75
N6930 X9.05 Y125.2 I-0.2
N6935 G1 X8.85
N6940 G18 G3 X8.65 Z-0.8 K0.2
N6945 G0 Z5
N6950 Y124.8
N6955 G1 Z1 F600
N6960 Z-1.8
N6965 G2 X8.85 Z-2 I0.2
N6970 G1 X9.05 F300
N6975 G17 G3 X9.25 Y125 J0.2
N6980 X7.75 I-0.75 F600
N6985 X9.25 I0.75
N6990 X9.05 Y125.2 I-0.2
N6995 G1 X8.85
N7000 G18 G3 X8.65 Z-1.8 K0.2
N7005 G0 Z5
N7010 Y124.8
N7015 G1 Z0 F600
N7020 Z-2.8
N7025 G2 X8.85 Z-3 I0.2
N7030 G1 X9.05 F300
N7035 G17 G3 X9.25 Y125 J0.2
N7040 X7.75 I-0.75 F600
N7045 X9.25 I0.75
N7050 X9.05 Y125.2 I-0.2
N7055 G1 X8.85
N7060 G18 G3 X8.65 Z-2.8 K0.2
N7065 G0 Z5
N7070 Y124.8
N7075 G1 Z-1 F600
N7080 Z-3.355
N7085 G2 X8.85 Z-3.555 I0.2
N7090 G1 X9.05 F300
N7095 G17 G3 X9.25 Y125 J0.2
N7100 X7.75 I-0.75 F600
N7105 X9.25 I0.75
N7110 X9.05 Y125.2 I-0.2
N7115 G1 X8.85
N7120 G18 G3 X8.65 Z-3.355 K0.2
N7125 G0 Z5
N7130 Y124.8
N7135 G1 Z-1.555 F600
N7140 Z-3.91
N7145 G2 X8.85 Z-4.11 I0.2
N7150 G1 X9.05 F300
N7155 G17 G3 X9.25 Y125 J0.2
N7160 X7.75 I-0.75 F600
N7165 X9.25 I0.75
N7170 X9.05 Y125.2 I-0.2
N7175 G1 X8.85
N7180 G18 G3 X8.65 Z-3.91 K0.2
N7185 G0 Z5
N7190 Y114.8
N7195 G1 Z2 F600
N7200 Z-0.8
N7205 G2 X8.85 Z-1 I0.2
N7210 G1 X9.05 F300
N7215 G17 G3 X9.25 Y115 J0.2
N7220 X7.75 I-0.75 F600
N7225 X9.25 I0.75
N7230 X9.05 Y115.2 I-0.2
N7235 G1 X8.85
N7240 G18 G3 X8.65 Z-0.8 K0.2
N7245 G0 Z5
N7250 Y114.8
N7255 G1 Z1 F600
N7260 Z-1.8
N7265 G2 X8.85 Z-2 I0.2
N7270 G1 X9.05 F300
N7275 G17 G3 X9.25 Y115 J0.2
N7280 X7.75 I-0.75 F600
N7285 X9.25 I0.75
N7290 X9.05 Y115.2 I-0.2
N7295 G1 X8.85
N7300 G18 G3 X8.65 Z-1.8 K0.2
N7305 G0 Z5
N7310 Y114.8
N7315 G1 Z0 F600
N7320 Z-2.8
N7325 G2 X8.85 Z-3 I0.2
N7330 G1 X9.05 F300
N7335 G17 G3 X9.25 Y115 J0.2
N7340 X7.75 I-0.75 F600
N7345 X9.25 I0.75
N7350 X9.05 Y115.2 I-0.2
N7355 G1 X8.85
N7360 G18 G3 X8.65 Z-2.8 K0.2
N7365 G0 Z5
N7370 Y114.8
N7375 G1 Z-1 F600
N7380 Z-3.355
N7385 G2 X8.85 Z-3.555 I0.2
N7390 G1 X9.05 F300
N7395 G17 G3 X9.25 Y115 J0.2
N7400 X7.75 I-0.75 F600
N7405 X9.25 I0.75
N7410 X9.05 Y115.2 I-0.2
N7415 G1 X8.85
N7420 G18 G3 X8.65 Z-3.355 K0.2
N7425 G0 Z5
N7430 Y114.8
N7435 G1 Z-1.555 F600
N7440 Z-3.91
N7445 G2 X8.85 Z-4.11 I0.2
N7450 G1 X9.05 F300
N7455 G17 G3 X9.25 Y115 J0.2
N7460 X7.75 I-0.75 F600
N7465 X9.25 I0.75
N7470 X9.05 Y115.2 I-0.2
N7475 G1 X8.85
N7480 G18 G3 X8.65 Z-3.91 K0.2
N7485 G0 Z5
N7490 Y137.8
N7495 G1 Z2 F600
N7500 Z-0.8
N7505 G2 X8.85 Z-1 I0.2
N7510 G1 X9.05 F300
N7515 G17 G3 X9.25 Y138 J0.2
N7520 X7.75 I-0.75 F600
N7525 X9.25 I0.75
N7530 X9.05 Y138.2 I-0.2
N7535 G1 X8.85
N7540 G18 G3 X8.65 Z-0.8 K0.2
N7545 G0 Z5
N7550 Y137.8
N7555 G1 Z1 F600
N7560 Z-1.8
N7565 G2 X8.85 Z-2 I0.2
N7570 G1 X9.05 F300
N7575 G17 G3 X9.25 Y138 J0.2
N7580 X7.75 I-0.75 F600
N7585 X9.25 I0.75
N7590 X9.05 Y138.2 I-0.2
N7595 G1 X8.85
N7600 G18 G3 X8.65 Z-1.8 K0.2
N7605 G0 Z5
N7610 Y137.8
N7615 G1 Z0 F600
N7620 Z-2.8
N7625 G2 X8.85 Z-3 I0.2
N7630 G1 X9.05 F300
N7635 G17 G3 X9.25 Y138 J0.2
N7640 X7.75 I-0.75 F600
N7645 X9.25 I0.75
N7650 X9.05 Y138.2 I-0.2
N7655 G1 X8.85
N7660 G18 G3 X8.65 Z-2.8 K0.2
N7665 G0 Z5
N7670 Y137.8
N7675 G1 Z-1 F600
N7680 Z-3.355
N7685 G2 X8.85 Z-3.555 I0.2
N7690 G1 X9.05 F300
N7695 G17 G3 X9.25 Y138 J0.2
N7700 X7.75 I-0.75 F600
N7705 X9.25 I0.75
N7710 X9.05 Y138.2 I-0.2
N7715 G1 X8.85
N7720 G18 G3 X8.65 Z-3.355 K0.2
N7725 G0 Z5
N7730 Y137.8
N7735 G1 Z-1.555 F600
N7740 Z-3.91
N7745 G2 X8.85 Z-4.11 I0.2
N7750 G1 X9.05 F300
N7755 G17 G3 X9.25 Y138 J0.2
N7760 X7.75 I-0.75 F600
N7765 X9.25 I0.75
N7770 X9.05 Y138.2 I-0.2
N7775 G1 X8.85
N7780 G18 G3 X8.65 Z-3.91 K0.2
N7785 G0 Z5
N7790 X46.453 Y35.792
N7795 G1 Z2 F600
N7800 Z-0.8
N7805 G2 X46.653 Z-1 I0.2
N7810 G1 X46.854 F300
N7815 G17 G3 X47.054 Y35.992 J0.2
N7820 X45.554 I-0.75 F600
N7825 X47.054 I0.75
N7830 X46.854 Y36.192 I-0.2
N7835 G1 X46.653
N7840 G18 G3 X46.453 Z-0.8 K0.2
N7845 G0 Z5
N7850 Y35.792
N7855 G1 Z1 F600
N7860 Z-1.8
N7865 G2 X46.653 Z-2 I0.2
N7870 G1 X46.854 F300
N7875 G17 G3 X47.054 Y35.992 J0.2
N7880 X45.554 I-0.75 F600
N7885 X47.054 I0.75
N7890 X46.854 Y36.192 I-0.2
N7895 G1 X46.653
N7900 G18 G3 X46.453 Z-1.8 K0.2
N7905 G0 Z5
N7910 Y35.792
N7915 G1 Z0 F600
N7920 Z-2.8
N7925 G2 X46.653 Z-3 I0.2
N7930 G1 X46.854 F300
N7935 G17 G3 X47.054 Y35.992 J0.2
N7940 X45.554 I-0.75 F600
N7945 X47.054 I0.75
N7950 X46.854 Y36.192 I-0.2
N7955 G1 X46.653
N7960 G18 G3 X46.453 Z-2.8 K0.2
N7965 G0 Z5
N7970 Y35.792
N7975 G1 Z-1 F600
N7980 Z-3.355
N7985 G2 X46.653 Z-3.555 I0.2
N7990 G1 X46.854 F300
N7995 G17 G3 X47.054 Y35.992 J0.2
N8000 X45.554 I-0.75 F600
N8005 X47.054 I0.75
N8010 X46.854 Y36.192 I-0.2
N8015 G1 X46.653
N8020 G18 G3 X46.453 Z-3.355 K0.2
N8025 G0 Z5
N8030 Y35.792
N8035 G1 Z-1.555 F600
N8040 Z-3.91
N8045 G2 X46.653 Z-4.11 I0.2
N8050 G1 X46.854 F300
N8055 G17 G3 X47.054 Y35.992 J0.2
N8060 X45.554 I-0.75 F600
N8065 X47.054 I0.75
N8070 X46.854 Y36.192 I-0.2
N8075 G1 X46.653
N8080 G18 G3 X46.453 Z-3.91 K0.2
N8085 G0 Z15
N8090 G17

(2D ??35)
N8095 G0 X100.179 Y181.579
N8100 Z15
N8105 Z5
N8110 G1 Z2 F600
N8115 Z-0.8
N8120 Y181.572 Z-0.852
N8125 X100.181 Y181.552 Z-0.9
N8130 X100.183 Y181.521 Z-0.941
N8135 X100.186 Y181.479 Z-0.973
N8140 X100.19 Y181.431 Z-0.993
N8145 X100.194 Y181.38 Z-1
N8150 X100.209 Y181.18 F300
N8155 G3 X100.424 Y180.996 I0.199 J0.015
N8160 G1 X100.5 Y180.999 F600
N8165 X119
N8170 G2 X120 Y179.999 J-1
N8175 G1 Y94.333
N8180 X129.992 Y57.045
N8185 G2 X84.593 Y44.881 I-22.7 J-6.082
N8190 G1 X64.034 Y121.606
N8195 G2 X64 Y121.865 I0.966 J0.259
N8200 G1 Y179.999
N8205 G2 X65 Y180.999 I1
N8210 G1 X79.5
N8215 G2 X80.5 Y179.999 J-1
N8220 G1 Y159.999
N8225 X99.5
N8230 Y179.999
N8235 G2 X100.424 Y180.996 I1
N8240 G3 X100.608 Y181.211 I-0.015 J0.199
N8245 G1 X100.593 Y181.41
N8250 X100.589 Y181.462 Z-0.993
N8255 X100.585 Y181.51 Z-0.973
N8260 X100.582 Y181.551 Z-0.941
N8265 X100.58 Y181.583 Z-0.9
N8270 X100.578 Y181.603 Z-0.852
N8275 Y181.61 Z-0.8
N8280 G0 Z5
N8285 X100.179 Y181.579
N8290 G1 Z1 F600
N8295 Z-1.8
N8300 Y181.572 Z-1.852
N8305 X100.181 Y181.552 Z-1.9
N8310 X100.183 Y181.521 Z-1.941
N8315 X100.186 Y181.479 Z-1.973
N8320 X100.19 Y181.431 Z-1.993
N8325 X100.194 Y181.38 Z-2
N8330 X100.209 Y181.18 F300
N8335 G3 X100.424 Y180.996 I0.199 J0.015
N8340 G1 X100.5 Y180.999 F600
N8345 X119
N8350 G2 X120 Y179.999 J-1
N8355 G1 Y94.333
N8360 X129.992 Y57.045
N8365 G2 X84.593 Y44.881 I-22.7 J-6.082
N8370 G1 X64.034 Y121.606
N8375 G2 X64 Y121.865 I0.966 J0.259
N8380 G1 Y179.999
N8385 G2 X65 Y180.999 I1
N8390 G1 X79.5
N8395 G2 X80.5 Y179.999 J-1
N8400 G1 Y159.999
N8405 X99.5
N8410 Y179.999
N8415 G2 X100.424 Y180.996 I1
N8420 G3 X100.608 Y181.211 I-0.015 J0.199
N8425 G1 X100.593 Y181.41
N8430 X100.589 Y181.462 Z-1.993
N8435 X100.585 Y181.51 Z-1.973
N8440 X100.582 Y181.551 Z-1.941
N8445 X100.58 Y181.583 Z-1.9
N8450 X100.578 Y181.603 Z-1.852
N8455 Y181.61 Z-1.8
N8460 G0 Z5
N8465 X100.179 Y181.579
N8470 G1 Z0 F600
N8475 Z-2.8
N8480 Y181.572 Z-2.852
N8485 X100.181 Y181.552 Z-2.9
N8490 X100.183 Y181.521 Z-2.941
N8495 X100.186 Y181.479 Z-2.973
N8500 X100.19 Y181.431 Z-2.993
N8505 X100.194 Y181.38 Z-3
N8510 X100.209 Y181.18 F300
N8515 G3 X100.424 Y180.996 I0.199 J0.015
N8520 G1 X100.5 Y180.999 F600
N8525 X119
N8530 G2 X120 Y179.999 J-1
N8535 G1 Y94.333
N8540 X129.992 Y57.045
N8545 G2 X84.593 Y44.881 I-22.7 J-6.082
N8550 G1 X64.034 Y121.606
N8555 G2 X64 Y121.865 I0.966 J0.259
N8560 G1 Y179.999
N8565 G2 X65 Y180.999 I1
N8570 G1 X79.5
N8575 G2 X80.5 Y179.999 J-1
N8580 G1 Y159.999
N8585 X99.5
N8590 Y179.999
N8595 G2 X100.424 Y180.996 I1
N8600 G3 X100.608 Y181.211 I-0.015 J0.199
N8605 G1 X100.593 Y181.41
N8610 X100.589 Y181.462 Z-2.993
N8615 X100.585 Y181.51 Z-2.973
N8620 X100.582 Y181.551 Z-2.941
N8625 X100.58 Y181.583 Z-2.9
N8630 X100.578 Y181.603 Z-2.852
N8635 Y181.61 Z-2.8
N8640 G0 Z5
N8645 X100.179 Y181.579
N8650 G1 Z-1 F600
N8655 Z-3.35
N8660 Y181.572 Z-3.402
N8665 X100.181 Y181.552 Z-3.45
N8670 X100.183 Y181.521 Z-3.491
N8675 X100.186 Y181.479 Z-3.523
N8680 X100.19 Y181.431 Z-3.543
N8685 X100.194 Y181.38 Z-3.55
N8690 X100.209 Y181.18 F300
N8695 G3 X100.424 Y180.996 I0.199 J0.015
N8700 G1 X100.5 Y180.999 F600
N8705 X119
N8710 G2 X120 Y179.999 J-1
N8715 G1 Y94.333
N8720 X129.992 Y57.045
N8725 G2 X84.593 Y44.881 I-22.7 J-6.082
N8730 G1 X64.034 Y121.606
N8735 G2 X64 Y121.865 I0.966 J0.259
N8740 G1 Y179.999
N8745 G2 X65 Y180.999 I1
N8750 G1 X79.5
N8755 G2 X80.5 Y179.999 J-1
N8760 G1 Y159.999
N8765 X99.5
N8770 Y179.999
N8775 G2 X100.424 Y180.996 I1
N8780 G3 X100.608 Y181.211 I-0.015 J0.199
N8785 G1 X100.593 Y181.41
N8790 X100.589 Y181.462 Z-3.543
N8795 X100.585 Y181.51 Z-3.523
N8800 X100.582 Y181.551 Z-3.491
N8805 X100.58 Y181.583 Z-3.45
N8810 X100.578 Y181.603 Z-3.402
N8815 Y181.61 Z-3.35
N8820 G0 Z5
N8825 X100.179 Y181.579
N8830 G1 Z-1.55 F600
N8835 Z-3.9
N8840 Y181.572 Z-3.952
N8845 X100.181 Y181.552 Z-4
N8850 X100.183 Y181.521 Z-4.041
N8855 X100.186 Y181.479 Z-4.073
N8860 X100.19 Y181.431 Z-4.093
N8865 X100.194 Y181.38 Z-4.1
N8870 X100.209 Y181.18 F300
N8875 G3 X100.424 Y180.996 I0.199 J0.015
N8880 G1 X100.5 Y180.999 F600
N8885 X119
N8890 G2 X120 Y179.999 J-1
N8895 G1 Y94.333
N8900 X129.992 Y57.045
N8905 G2 X84.593 Y44.881 I-22.7 J-6.082
N8910 G1 X64.034 Y121.606
N8915 G2 X64 Y121.865 I0.966 J0.259
N8920 G1 Y179.999
N8925 G2 X65 Y180.999 I1
N8930 G1 X79.5
N8935 G2 X80.5 Y179.999 J-1
N8940 G1 Y159.999
N8945 X99.5
N8950 Y179.999
N8955 G2 X100.424 Y180.996 I1
N8960 G3 X100.608 Y181.211 I-0.015 J0.199
N8965 G1 X100.593 Y181.41
N8970 X100.589 Y181.462 Z-4.093
N8975 X100.585 Y181.51 Z-4.073
N8980 X100.582 Y181.551 Z-4.041
N8985 X100.58 Y181.583 Z-4
N8990 X100.578 Y181.603 Z-3.952
N8995 Y181.61 Z-3.9
N9000 G0 Z5
N9005 X82.916 Y-1.586
N9010 G1 Z2 F600
N9015 Z-0.8
N9020 Y-1.579 Z-0.852
N9025 X82.915 Y-1.559 Z-0.9
N9030 X82.913 Y-1.527 Z-0.941
N9035 X82.912 Y-1.486 Z-0.973
N9040 X82.909 Y-1.437 Z-0.993
N9045 X82.907 Y-1.386 Z-1
N9050 X82.897 Y-1.186 F300
N9055 G3 X82.688 Y-0.996 I-0.2 J-0.009
N9060 G1 X82.5 Y-1 F600
N9065 X51.5
N9070 G2 X47.501 Y2.935 J4
N9075 G1 X47.5 Y2.951
N9080 Y7.049
N9085 X47.501 Y7.065
N9090 G2 X51.504 Y11 I3.999 J-0.065
N9095 G1 X55.5
N9100 G3 X57.5 Y13 J2
N9105 G1 Y22.049
N9110 X57.501 Y22.065
N9115 G2 X61.504 Y26 I3.999 J-0.065
N9120 G1 X82.5
N9125 G2 X86.5 Y22 J-4
N9130 G1 Y3
N9135 G2 X82.688 Y-0.996 I-4
N9140 G3 X82.498 Y-1.205 I0.009 J-0.2
N9145 G1 X82.507 Y-1.405
N9150 X82.51 Y-1.456 Z-0.993
N9155 X82.512 Y-1.504 Z-0.973
N9160 X82.514 Y-1.546 Z-0.941
N9165 X82.515 Y-1.578 Z-0.9
N9170 X82.516 Y-1.598 Z-0.852
N9175 X82.517 Y-1.604 Z-0.8
N9180 G0 Z5
N9185 X82.916 Y-1.586
N9190 G1 Z1 F600
N9195 Z-1.8
N9200 Y-1.579 Z-1.852
N9205 X82.915 Y-1.559 Z-1.9
N9210 X82.913 Y-1.527 Z-1.941
N9215 X82.912 Y-1.486 Z-1.973
N9220 X82.909 Y-1.437 Z-1.993
N9225 X82.907 Y-1.386 Z-2
N9230 X82.897 Y-1.186 F300
N9235 G3 X82.688 Y-0.996 I-0.2 J-0.009
N9240 G1 X82.5 Y-1 F600
N9245 X51.5
N9250 G2 X47.501 Y2.935 J4
N9255 G1 X47.5 Y2.951
N9260 Y7.049
N9265 X47.501 Y7.065
N9270 G2 X51.504 Y11 I3.999 J-0.065
N9275 G1 X55.5
N9280 G3 X57.5 Y13 J2
N9285 G1 Y22.049
N9290 X57.501 Y22.065
N9295 G2 X61.504 Y26 I3.999 J-0.065
N9300 G1 X82.5
N9305 G2 X86.5 Y22 J-4
N9310 G1 Y3
N9315 G2 X82.688 Y-0.996 I-4
N9320 G3 X82.498 Y-1.205 I0.009 J-0.2
N9325 G1 X82.507 Y-1.405
N9330 X82.51 Y-1.456 Z-1.993
N9335 X82.512 Y-1.504 Z-1.973
N9340 X82.514 Y-1.546 Z-1.941
N9345 X82.515 Y-1.578 Z-1.9
N9350 X82.516 Y-1.598 Z-1.852
N9355 X82.517 Y-1.604 Z-1.8
N9360 G0 Z5
N9365 X82.916 Y-1.586
N9370 G1 Z0 F600
N9375 Z-2.8
N9380 Y-1.579 Z-2.852
N9385 X82.915 Y-1.559 Z-2.9
N9390 X82.913 Y-1.527 Z-2.941
N9395 X82.912 Y-1.486 Z-2.973
N9400 X82.909 Y-1.437 Z-2.993
N9405 X82.907 Y-1.386 Z-3
N9410 X82.897 Y-1.186 F300
N9415 G3 X82.688 Y-0.996 I-0.2 J-0.009
N9420 G1 X82.5 Y-1 F600
N9425 X51.5
N9430 G2 X47.501 Y2.935 J4
N9435 G1 X47.5 Y2.951
N9440 Y7.049
N9445 X47.501 Y7.065
N9450 G2 X51.504 Y11 I3.999 J-0.065
N9455 G1 X55.5
N9460 G3 X57.5 Y13 J2
N9465 G1 Y22.049
N9470 X57.501 Y22.065
N9475 G2 X61.504 Y26 I3.999 J-0.065
N9480 G1 X82.5
N9485 G2 X86.5 Y22 J-4
N9490 G1 Y3
N9495 G2 X82.688 Y-0.996 I-4
N9500 G3 X82.498 Y-1.205 I0.009 J-0.2
N9505 G1 X82.507 Y-1.405
N9510 X82.51 Y-1.456 Z-2.993
N9515 X82.512 Y-1.504 Z-2.973
N9520 X82.514 Y-1.546 Z-2.941
N9525 X82.515 Y-1.578 Z-2.9
N9530 X82.516 Y-1.598 Z-2.852
N9535 X82.517 Y-1.604 Z-2.8
N9540 G0 Z5
N9545 X82.916 Y-1.586
N9550 G1 Z-1 F600
N9555 Z-3.35
N9560 Y-1.579 Z-3.402
N9565 X82.915 Y-1.559 Z-3.45
N9570 X82.913 Y-1.527 Z-3.491
N9575 X82.912 Y-1.486 Z-3.523
N9580 X82.909 Y-1.437 Z-3.543
N9585 X82.907 Y-1.386 Z-3.55
N9590 X82.897 Y-1.186 F300
N9595 G3 X82.688 Y-0.996 I-0.2 J-0.009
N9600 G1 X82.5 Y-1 F600
N9605 X51.5
N9610 G2 X47.501 Y2.935 J4
N9615 G1 X47.5 Y2.951
N9620 Y7.049
N9625 X47.501 Y7.065
N9630 G2 X51.504 Y11 I3.999 J-0.065
N9635 G1 X55.5
N9640 G3 X57.5 Y13 J2
N9645 G1 Y22.049
N9650 X57.501 Y22.065
N9655 G2 X61.504 Y26 I3.999 J-0.065
N9660 G1 X82.5
N9665 G2 X86.5 Y22 J-4
N9670 G1 Y3
N9675 G2 X82.688 Y-0.996 I-4
N9680 G3 X82.498 Y-1.205 I0.009 J-0.2
N9685 G1 X82.507 Y-1.405
N9690 X82.51 Y-1.456 Z-3.543
N9695 X82.512 Y-1.504 Z-3.523
N9700 X82.514 Y-1.546 Z-3.491
N9705 X82.515 Y-1.578 Z-3.45
N9710 X82.516 Y-1.598 Z-3.402
N9715 X82.517 Y-1.604 Z-3.35
N9720 G0 Z5
N9725 X82.916 Y-1.586
N9730 G1 Z-1.55 F600
N9735 Z-3.9
N9740 Y-1.579 Z-3.952
N9745 X82.915 Y-1.559 Z-4
N9750 X82.913 Y-1.527 Z-4.041
N9755 X82.912 Y-1.486 Z-4.073
N9760 X82.909 Y-1.437 Z-4.093
N9765 X82.907 Y-1.386 Z-4.1
N9770 X82.897 Y-1.186 F300
N9775 G3 X82.688 Y-0.996 I-0.2 J-0.009
N9780 G1 X82.5 Y-1 F600
N9785 X51.5
N9790 G2 X47.501 Y2.935 J4
N9795 G1 X47.5 Y2.951
N9800 Y7.049
N9805 X47.501 Y7.065
N9810 G2 X51.504 Y11 I3.999 J-0.065
N9815 G1 X55.5
N9820 G3 X57.5 Y13 J2
N9825 G1 Y22.049
N9830 X57.501 Y22.065
N9835 G2 X61.504 Y26 I3.999 J-0.065
N9840 G1 X82.5
N9845 G2 X86.5 Y22 J-4
N9850 G1 Y3
N9855 G2 X82.688 Y-0.996 I-4
N9860 G3 X82.498 Y-1.205 I0.009 J-0.2
N9865 G1 X82.507 Y-1.405
N9870 X82.51 Y-1.456 Z-4.093
N9875 X82.512 Y-1.504 Z-4.073
N9880 X82.514 Y-1.546 Z-4.041
N9885 X82.515 Y-1.578 Z-4
N9890 X82.516 Y-1.598 Z-3.952
N9895 X82.517 Y-1.604 Z-3.9
N9900 G0 Z15
N9905 X19.065 Y44.533
N9910 Z5
N9915 G1 Z2 F600
N9920 Z-0.8
N9925 X19.071 Y44.535 Z-0.852
N9930 X19.091 Y44.54 Z-0.9
N9935 X19.121 Y44.549 Z-0.941
N9940 X19.161 Y44.559 Z-0.973
N9945 X19.208 Y44.572 Z-0.993
N9950 X19.258 Y44.585 Z-1
N9955 X19.451 Y44.637 F300
N9960 G3 X19.593 Y44.882 I-0.052 J0.193
N9965 G1 X-0.966 Y121.607 F600
N9970 G2 X-1 Y121.866 I0.966 J0.259
N9975 G1 Y180
N9980 G2 X0 Y181 I1
N9985 G1 X54
N9990 G2 X55 Y180 J-1
N9995 G1 Y94.334
N10000 X64.991 Y57.046
N10005 G2 X19.593 Y44.882 I-22.699 J-6.082
N10010 G3 X19.348 Y45.023 I-0.193 J-0.052
N10015 G1 X19.154 Y44.972
N10020 X19.104 Y44.958 Z-0.993
N10025 X19.058 Y44.946 Z-0.973
N10030 X19.018 Y44.935 Z-0.941
N10035 X18.987 Y44.927 Z-0.9
N10040 X18.968 Y44.922 Z-0.852
N10045 X18.961 Y44.92 Z-0.8
N10050 G0 Z5
N10055 X19.065 Y44.533
N10060 G1 Z1 F600
N10065 Z-1.8
N10070 X19.071 Y44.535 Z-1.852
N10075 X19.091 Y44.54 Z-1.9
N10080 X19.121 Y44.549 Z-1.941
N10085 X19.161 Y44.559 Z-1.973
N10090 X19.208 Y44.572 Z-1.993
N10095 X19.258 Y44.585 Z-2
N10100 X19.451 Y44.637 F300
N10105 G3 X19.593 Y44.882 I-0.052 J0.193
N10110 G1 X-0.966 Y121.607 F600
N10115 G2 X-1 Y121.866 I0.966 J0.259
N10120 G1 Y180
N10125 G2 X0 Y181 I1
N10130 G1 X54
N10135 G2 X55 Y180 J-1
N10140 G1 Y94.334
N10145 X64.991 Y57.046
N10150 G2 X19.593 Y44.882 I-22.699 J-6.082
N10155 G3 X19.348 Y45.023 I-0.193 J-0.052
N10160 G1 X19.154 Y44.972
N10165 X19.104 Y44.958 Z-1.993
N10170 X19.058 Y44.946 Z-1.973
N10175 X19.018 Y44.935 Z-1.941
N10180 X18.987 Y44.927 Z-1.9
N10185 X18.968 Y44.922 Z-1.852
N10190 X18.961 Y44.92 Z-1.8
N10195 G0 Z5
N10200 X19.065 Y44.533
N10205 G1 Z0 F600
N10210 Z-2.8
N10215 X19.071 Y44.535 Z-2.852
N10220 X19.091 Y44.54 Z-2.9
N10225 X19.121 Y44.549 Z-2.941
N10230 X19.161 Y44.559 Z-2.973
N10235 X19.208 Y44.572 Z-2.993
N10240 X19.258 Y44.585 Z-3
N10245 X19.451 Y44.637 F300
N10250 G3 X19.593 Y44.882 I-0.052 J0.193
N10255 G1 X-0.966 Y121.607 F600
N10260 G2 X-1 Y121.866 I0.966 J0.259
N10265 G1 Y180
N10270 G2 X0 Y181 I1
N10275 G1 X54
N10280 G2 X55 Y180 J-1
N10285 G1 Y94.334
N10290 X64.991 Y57.046
N10295 G2 X19.593 Y44.882 I-22.699 J-6.082
N10300 G3 X19.348 Y45.023 I-0.193 J-0.052
N10305 G1 X19.154 Y44.972
N10310 X19.104 Y44.958 Z-2.993
N10315 X19.058 Y44.946 Z-2.973
N10320 X19.018 Y44.935 Z-2.941
N10325 X18.987 Y44.927 Z-2.9
N10330 X18.968 Y44.922 Z-2.852
N10335 X18.961 Y44.92 Z-2.8
N10340 G0 Z5
N10345 X19.065 Y44.533
N10350 G1 Z-1 F600
N10355 Z-3.355
N10360 X19.071 Y44.535 Z-3.407
N10365 X19.091 Y44.54 Z-3.455
N10370 X19.121 Y44.549 Z-3.496
N10375 X19.161 Y44.559 Z-3.528
N10380 X19.208 Y44.572 Z-3.548
N10385 X19.258 Y44.585 Z-3.555
N10390 X19.451 Y44.637 F300
N10395 G3 X19.593 Y44.882 I-0.052 J0.193
N10400 G1 X-0.966 Y121.607 F600
N10405 G2 X-1 Y121.866 I0.966 J0.259
N10410 G1 Y180
N10415 G2 X0 Y181 I1
N10420 G1 X54
N10425 G2 X55 Y180 J-1
N10430 G1 Y94.334
N10435 X64.991 Y57.046
N10440 G2 X19.593 Y44.882 I-22.699 J-6.082
N10445 G3 X19.348 Y45.023 I-0.193 J-0.052
N10450 G1 X19.154 Y44.972
N10455 X19.104 Y44.958 Z-3.548
N10460 X19.058 Y44.946 Z-3.528
N10465 X19.018 Y44.935 Z-3.496
N10470 X18.987 Y44.927 Z-3.455
N10475 X18.968 Y44.922 Z-3.407
N10480 X18.961 Y44.92 Z-3.355
N10485 G0 Z5
N10490 X19.065 Y44.533
N10495 G1 Z-1.555 F600
N10500 Z-3.91
N10505 X19.071 Y44.535 Z-3.962
N10510 X19.091 Y44.54 Z-4.01
N10515 X19.121 Y44.549 Z-4.051
N10520 X19.161 Y44.559 Z-4.083
N10525 X19.208 Y44.572 Z-4.103
N10530 X19.258 Y44.585 Z-4.11
N10535 X19.451 Y44.637 F300
N10540 G3 X19.593 Y44.882 I-0.052 J0.193
N10545 G1 X-0.966 Y121.607 F600
N10550 G2 X-1 Y121.866 I0.966 J0.259
N10555 G1 Y180
N10560 G2 X0 Y181 I1
N10565 G1 X54
N10570 G2 X55 Y180 J-1
N10575 G1 Y94.334
N10580 X64.991 Y57.046
N10585 G2 X19.593 Y44.882 I-22.699 J-6.082
N10590 G3 X19.348 Y45.023 I-0.193 J-0.052
N10595 G1 X19.154 Y44.972
N10600 X19.104 Y44.958 Z-4.103
N10605 X19.058 Y44.946 Z-4.083
N10610 X19.018 Y44.935 Z-4.051
N10615 X18.987 Y44.927 Z-4.01
N10620 X18.968 Y44.922 Z-3.962
N10625 X18.961 Y44.92 Z-3.91
N10630 G0 Z15
N10635 M9
N10640 G28
N10645 M30
%
