%
(1001)
(T1 D=2 CR=0 - ZMIN=-4.11 - flat end mill)
N10 G90 G94
N15 G17
N20 G21
N25 M9
N30 G28

(2D ????18)
N35 T1 M6
(0)
N40 S23873 M3
N45 G54
N50 M8
N55 G0 X108.936 Y57.118
N60 G43 Z5
N65 G1 Z2.7 F300
N70 X108.941 Y57.093 Z2.602 F600
N75 X108.958 Y57.025 Z2.529
N80 X108.989 Y56.933 Z2.5
N85 G3 X110.751 Y57.647 Z2.396 I0.881 J0.357
N90 X108.989 Y56.933 Z2.292 I-0.881 J-0.357
N95 X110.751 Y57.647 Z2.187 I0.881 J0.357
N100 X108.989 Y56.933 Z2.083 I-0.881 J-0.357
N105 X110.751 Y57.647 Z1.979 I0.881 J0.357
N110 X108.989 Y56.933 Z1.875 I-0.881 J-0.357
N115 X110.751 Y57.647 Z1.77 I0.881 J0.357
N120 X108.989 Y56.933 Z1.666 I-0.881 J-0.357
N125 X110.751 Y57.647 Z1.562 I0.881 J0.357
N130 X108.989 Y56.933 Z1.458 I-0.881 J-0.357
N135 X110.751 Y57.647 Z1.354 I0.881 J0.357
N140 X108.989 Y56.933 Z1.249 I-0.881 J-0.357
N145 X110.751 Y57.647 Z1.145 I0.881 J0.357
N150 X108.989 Y56.933 Z1.041 I-0.881 J-0.357
N155 X110.751 Y57.647 Z0.937 I0.881 J0.357
N160 X108.989 Y56.933 Z0.832 I-0.881 J-0.357
N165 X110.751 Y57.647 Z0.728 I0.881 J0.357
N170 X108.989 Y56.933 Z0.624 I-0.881 J-0.357
N175 X110.751 Y57.647 Z0.52 I0.881 J0.357
N180 X108.989 Y56.933 Z0.416 I-0.881 J-0.357
N185 X110.751 Y57.647 Z0.311 I0.881 J0.357
N190 X108.989 Y56.933 Z0.207 I-0.881 J-0.357
N195 X110.751 Y57.647 Z0.103 I0.881 J0.357
N200 X108.989 Y56.933 Z-0.001 I-0.881 J-0.357
N205 X110.751 Y57.647 Z-0.106 I0.881 J0.357
N210 X108.989 Y56.933 Z-0.21 I-0.881 J-0.357
N215 X110.751 Y57.647 Z-0.314 I0.881 J0.357
N220 X108.989 Y56.933 Z-0.418 I-0.881 J-0.357
N225 X110.751 Y57.647 Z-0.522 I0.881 J0.357
N230 X108.989 Y56.933 Z-0.627 I-0.881 J-0.357
N235 X110.751 Y57.647 Z-0.731 I0.881 J0.357
N240 X108.989 Y56.933 Z-0.835 I-0.881 J-0.357
N245 X110.751 Y57.647 Z-0.939 I0.881 J0.357
N250 X109.3 Y58.05 Z-1 I-0.881 J-0.357
N255 X111.7 Y54.85 I1.2 J-1.6
N260 X109.3 Y58.05 I-1.2 J1.6
N265 X111.7 Y54.85 Z-1.219 I1.2 J-1.6
N270 X112.449 Y56.899 Z-1.3 I-1.2 J1.6
N275 X108.551 Y56.001 I-1.949 J-0.449
N280 X112.449 Y56.899 I1.949 J0.449
N285 G1 X112.432 Y56.946 Z-1.287
N290 X112.403 Y56.987 Z-1.273
N295 X112.377 Y57.012 Z-1.237
N300 X112.346 Y57.032 Z-1.2
N305 X112.322 Y57.043 Z-1.1
N310 G0 Z5
N315 X71.936 Y42.668
N320 G1 Z2.7 F300
N325 X71.941 Y42.643 Z2.602 F600
N330 X71.958 Y42.575 Z2.529
N335 X71.99 Y42.483 Z2.5
N340 G3 X73.751 Y43.197 Z2.396 I0.881 J0.357
N345 X71.99 Y42.483 Z2.292 I-0.881 J-0.357
N350 X73.751 Y43.197 Z2.187 I0.881 J0.357
N355 X71.99 Y42.483 Z2.083 I-0.881 J-0.357
N360 X73.751 Y43.197 Z1.979 I0.881 J0.357
N365 X71.99 Y42.483 Z1.875 I-0.881 J-0.357
N370 X73.751 Y43.197 Z1.77 I0.881 J0.357
N375 X71.99 Y42.483 Z1.666 I-0.881 J-0.357
N380 X73.751 Y43.197 Z1.562 I0.881 J0.357
N385 X71.99 Y42.483 Z1.458 I-0.881 J-0.357
N390 X73.751 Y43.197 Z1.354 I0.881 J0.357
N395 X71.99 Y42.483 Z1.249 I-0.881 J-0.357
N400 X73.751 Y43.197 Z1.145 I0.881 J0.357
N405 X71.99 Y42.483 Z1.041 I-0.881 J-0.357
N410 X73.751 Y43.197 Z0.937 I0.881 J0.357
N415 X71.99 Y42.483 Z0.832 I-0.881 J-0.357
N420 X73.751 Y43.197 Z0.728 I0.881 J0.357
N425 X71.99 Y42.483 Z0.624 I-0.881 J-0.357
N430 X73.751 Y43.197 Z0.52 I0.881 J0.357
N435 X71.99 Y42.483 Z0.416 I-0.881 J-0.357
N440 X73.751 Y43.197 Z0.311 I0.881 J0.357
N445 X71.99 Y42.483 Z0.207 I-0.881 J-0.357
N450 X73.751 Y43.197 Z0.103 I0.881 J0.357
N455 X71.99 Y42.483 Z-0.001 I-0.881 J-0.357
N460 X73.751 Y43.197 Z-0.106 I0.881 J0.357
N465 X71.99 Y42.483 Z-0.21 I-0.881 J-0.357
N470 X73.751 Y43.197 Z-0.314 I0.881 J0.357
N475 X71.99 Y42.483 Z-0.418 I-0.881 J-0.357
N480 X73.751 Y43.197 Z-0.522 I0.881 J0.357
N485 X71.99 Y42.483 Z-0.627 I-0.881 J-0.357
N490 X73.751 Y43.197 Z-0.731 I0.881 J0.357
N495 X71.99 Y42.483 Z-0.835 I-0.881 J-0.357
N500 X73.751 Y43.197 Z-0.939 I0.881 J0.357
N505 X72.3 Y43.6 Z-1 I-0.881 J-0.357
N510 X74.7 Y40.4 I1.2 J-1.6
N515 X72.3 Y43.6 I-1.2 J1.6
N520 X74.7 Y40.4 Z-1.219 I1.2 J-1.6
N525 X75.449 Y42.449 Z-1.3 I-1.2 J1.6
N530 X71.551 Y41.551 I-1.949 J-0.449
N535 X75.449 Y42.449 I1.949 J0.449
N540 G1 X75.432 Y42.496 Z-1.287
N545 X75.404 Y42.537 Z-1.273
N550 X75.377 Y42.562 Z-1.237
N555 X75.346 Y42.582 Z-1.2
N560 X75.322 Y42.593 Z-1.1
N565 G0 Z5
N570 X71.936 Y65.668
N575 G1 Z2.7 F300
N580 X71.941 Y65.643 Z2.602 F600
N585 X71.958 Y65.575 Z2.529
N590 X71.99 Y65.483 Z2.5
N595 G3 X73.751 Y66.197 Z2.396 I0.881 J0.357
N600 X71.99 Y65.483 Z2.292 I-0.881 J-0.357
N605 X73.751 Y66.197 Z2.187 I0.881 J0.357
N610 X71.99 Y65.483 Z2.083 I-0.881 J-0.357
N615 X73.751 Y66.197 Z1.979 I0.881 J0.357
N620 X71.99 Y65.483 Z1.875 I-0.881 J-0.357
N625 X73.751 Y66.197 Z1.77 I0.881 J0.357
N630 X71.99 Y65.483 Z1.666 I-0.881 J-0.357
N635 X73.751 Y66.197 Z1.562 I0.881 J0.357
N640 X71.99 Y65.483 Z1.458 I-0.881 J-0.357
N645 X73.751 Y66.197 Z1.354 I0.881 J0.357
N650 X71.99 Y65.483 Z1.249 I-0.881 J-0.357
N655 X73.751 Y66.197 Z1.145 I0.881 J0.357
N660 X71.99 Y65.483 Z1.041 I-0.881 J-0.357
N665 X73.751 Y66.197 Z0.937 I0.881 J0.357
N670 X71.99 Y65.483 Z0.832 I-0.881 J-0.357
N675 X73.751 Y66.197 Z0.728 I0.881 J0.357
N680 X71.99 Y65.483 Z0.624 I-0.881 J-0.357
N685 X73.751 Y66.197 Z0.52 I0.881 J0.357
N690 X71.99 Y65.483 Z0.416 I-0.881 J-0.357
N695 X73.751 Y66.197 Z0.311 I0.881 J0.357
N700 X71.99 Y65.483 Z0.207 I-0.881 J-0.357
N705 X73.751 Y66.197 Z0.103 I0.881 J0.357
N710 X71.99 Y65.483 Z-0.001 I-0.881 J-0.357
N715 X73.751 Y66.197 Z-0.106 I0.881 J0.357
N720 X71.99 Y65.483 Z-0.21 I-0.881 J-0.357
N725 X73.751 Y66.197 Z-0.314 I0.881 J0.357
N730 X71.99 Y65.483 Z-0.418 I-0.881 J-0.357
N735 X73.751 Y66.197 Z-0.522 I0.881 J0.357
N740 X71.99 Y65.483 Z-0.627 I-0.881 J-0.357
N745 X73.751 Y66.197 Z-0.731 I0.881 J0.357
N750 X71.99 Y65.483 Z-0.835 I-0.881 J-0.357
N755 X73.751 Y66.197 Z-0.939 I0.881 J0.357
N760 X72.3 Y66.6 Z-1 I-0.881 J-0.357
N765 X74.7 Y63.4 I1.2 J-1.6
N770 X72.3 Y66.6 I-1.2 J1.6
N775 X74.7 Y63.4 Z-1.219 I1.2 J-1.6
N780 X75.449 Y65.449 Z-1.3 I-1.2 J1.6
N785 X71.551 Y64.551 I-1.949 J-0.449
N790 X75.449 Y65.449 I1.949 J0.449
N795 G1 X75.432 Y65.496 Z-1.287
N800 X75.404 Y65.537 Z-1.273
N805 X75.377 Y65.562 Z-1.237
N810 X75.346 Y65.582 Z-1.2
N815 X75.322 Y65.593 Z-1.1
N820 G0 Z5
N825 X111.936 Y89.668
N830 G1 Z2.7 F300
N835 X111.941 Y89.643 Z2.602 F600
N840 X111.958 Y89.575 Z2.529
N845 X111.989 Y89.483 Z2.5
N850 G3 X113.751 Y90.197 Z2.396 I0.881 J0.357
N855 X111.989 Y89.483 Z2.292 I-0.881 J-0.357
N860 X113.751 Y90.197 Z2.187 I0.881 J0.357
N865 X111.989 Y89.483 Z2.083 I-0.881 J-0.357
N870 X113.751 Y90.197 Z1.979 I0.881 J0.357
N875 X111.989 Y89.483 Z1.875 I-0.881 J-0.357
N880 X113.751 Y90.197 Z1.77 I0.881 J0.357
N885 X111.989 Y89.483 Z1.666 I-0.881 J-0.357
N890 X113.751 Y90.197 Z1.562 I0.881 J0.357
N895 X111.989 Y89.483 Z1.458 I-0.881 J-0.357
N900 X113.751 Y90.197 Z1.354 I0.881 J0.357
N905 X111.989 Y89.483 Z1.249 I-0.881 J-0.357
N910 X113.751 Y90.197 Z1.145 I0.881 J0.357
N915 X111.989 Y89.483 Z1.041 I-0.881 J-0.357
N920 X113.751 Y90.197 Z0.937 I0.881 J0.357
N925 X111.989 Y89.483 Z0.832 I-0.881 J-0.357
N930 X113.751 Y90.197 Z0.728 I0.881 J0.357
N935 X111.989 Y89.483 Z0.624 I-0.881 J-0.357
N940 X113.751 Y90.197 Z0.52 I0.881 J0.357
N945 X111.989 Y89.483 Z0.416 I-0.881 J-0.357
N950 X113.751 Y90.197 Z0.311 I0.881 J0.357
N955 X111.989 Y89.483 Z0.207 I-0.881 J-0.357
N960 X113.751 Y90.197 Z0.103 I0.881 J0.357
N965 X111.989 Y89.483 Z-0.001 I-0.881 J-0.357
N970 X113.751 Y90.197 Z-0.106 I0.881 J0.357
N975 X111.989 Y89.483 Z-0.21 I-0.881 J-0.357
N980 X113.751 Y90.197 Z-0.314 I0.881 J0.357
N985 X111.989 Y89.483 Z-0.418 I-0.881 J-0.357
N990 X113.751 Y90.197 Z-0.522 I0.881 J0.357
N995 X111.989 Y89.483 Z-0.627 I-0.881 J-0.357
N1000 X113.751 Y90.197 Z-0.731 I0.881 J0.357
N1005 X111.989 Y89.483 Z-0.835 I-0.881 J-0.357
N1010 X113.751 Y90.197 Z-0.939 I0.881 J0.357
N1015 X112.3 Y90.6 Z-1 I-0.881 J-0.357
N1020 X114.7 Y87.4 I1.2 J-1.6
N1025 X112.3 Y90.6 I-1.2 J1.6
N1030 X114.7 Y87.4 Z-1.219 I1.2 J-1.6
N1035 X115.449 Y89.449 Z-1.3 I-1.2 J1.6
N1040 X111.551 Y88.551 I-1.949 J-0.449
N1045 X115.449 Y89.449 I1.949 J0.449
N1050 G1 X115.432 Y89.496 Z-1.287
N1055 X115.403 Y89.537 Z-1.273
N1060 X115.377 Y89.562 Z-1.237
N1065 X115.346 Y89.582 Z-1.2
N1070 X115.322 Y89.593 Z-1.1
N1075 G0 Z5
N1080 X109.74 Y144.676
N1085 G1 Z2.7 F300
N1090 X109.745 Y144.651 Z2.602 F600
N1095 X109.762 Y144.583 Z2.529
N1100 X109.793 Y144.491 Z2.5
N1105 G3 X111.555 Y145.205 Z2.396 I0.881 J0.357
N1110 X109.793 Y144.491 Z2.292 I-0.881 J-0.357
N1115 X111.555 Y145.205 Z2.187 I0.881 J0.357
N1120 X109.793 Y144.491 Z2.083 I-0.881 J-0.357
N1125 X111.555 Y145.205 Z1.979 I0.881 J0.357
N1130 X109.793 Y144.491 Z1.875 I-0.881 J-0.357
N1135 X111.555 Y145.205 Z1.77 I0.881 J0.357
N1140 X109.793 Y144.491 Z1.666 I-0.881 J-0.357
N1145 X111.555 Y145.205 Z1.562 I0.881 J0.357
N1150 X109.793 Y144.491 Z1.458 I-0.881 J-0.357
N1155 X111.555 Y145.205 Z1.354 I0.881 J0.357
N1160 X109.793 Y144.491 Z1.249 I-0.881 J-0.357
N1165 X111.555 Y145.205 Z1.145 I0.881 J0.357
N1170 X109.793 Y144.491 Z1.041 I-0.881 J-0.357
N1175 X111.555 Y145.205 Z0.937 I0.881 J0.357
N1180 X109.793 Y144.491 Z0.832 I-0.881 J-0.357
N1185 X111.555 Y145.205 Z0.728 I0.881 J0.357
N1190 X109.793 Y144.491 Z0.624 I-0.881 J-0.357
N1195 X111.555 Y145.205 Z0.52 I0.881 J0.357
N1200 X109.793 Y144.491 Z0.416 I-0.881 J-0.357
N1205 X111.555 Y145.205 Z0.311 I0.881 J0.357
N1210 X109.793 Y144.491 Z0.207 I-0.881 J-0.357
N1215 X111.555 Y145.205 Z0.103 I0.881 J0.357
N1220 X109.793 Y144.491 Z-0.001 I-0.881 J-0.357
N1225 X111.555 Y145.205 Z-0.106 I0.881 J0.357
N1230 X109.793 Y144.491 Z-0.21 I-0.881 J-0.357
N1235 X111.555 Y145.205 Z-0.314 I0.881 J0.357
N1240 X109.793 Y144.491 Z-0.418 I-0.881 J-0.357
N1245 X111.555 Y145.205 Z-0.522 I0.881 J0.357
N1250 X109.794 Y144.491 Z-0.627 I-0.881 J-0.357
N1255 X111.555 Y145.205 Z-0.731 I0.881 J0.357
N1260 X109.794 Y144.491 Z-0.835 I-0.881 J-0.357
N1265 X111.555 Y145.205 Z-0.939 I0.881 J0.357
N1270 X110.104 Y145.608 Z-1 I-0.881 J-0.357
N1275 X112.504 Y142.408 I1.2 J-1.6
N1280 X110.104 Y145.608 I-1.2 J1.6
N1285 X112.504 Y142.408 Z-1.219 I1.2 J-1.6
N1290 X113.253 Y144.457 Z-1.3 I-1.2 J1.6
N1295 X109.355 Y143.559 I-1.949 J-0.449
N1300 X113.253 Y144.457 I1.949 J0.449
N1305 G1 X113.236 Y144.504 Z-1.287
N1310 X113.207 Y144.545 Z-1.273
N1315 X113.181 Y144.57 Z-1.237
N1320 X113.15 Y144.59 Z-1.2
N1325 X113.126 Y144.601 Z-1.1
N1330 G0 Z5
N1335 X51.936 Y175.668
N1340 G1 Z2.7 F300
N1345 X51.941 Y175.643 Z2.602 F600
N1350 X51.958 Y175.575 Z2.529
N1355 X51.99 Y175.483 Z2.5
N1360 G3 X53.751 Y176.197 Z2.396 I0.881 J0.357
N1365 X51.99 Y175.483 Z2.292 I-0.881 J-0.357
N1370 X53.751 Y176.197 Z2.187 I0.881 J0.357
N1375 X51.99 Y175.483 Z2.083 I-0.881 J-0.357
N1380 X53.751 Y176.197 Z1.979 I0.881 J0.357
N1385 X51.99 Y175.483 Z1.875 I-0.881 J-0.357
N1390 X53.751 Y176.197 Z1.77 I0.881 J0.357
N1395 X51.99 Y175.483 Z1.666 I-0.881 J-0.357
N1400 X53.751 Y176.197 Z1.562 I0.881 J0.357
N1405 X51.99 Y175.483 Z1.458 I-0.881 J-0.357
N1410 X53.751 Y176.197 Z1.354 I0.881 J0.357
N1415 X51.99 Y175.483 Z1.249 I-0.881 J-0.357
N1420 X53.751 Y176.197 Z1.145 I0.881 J0.357
N1425 X51.99 Y175.483 Z1.041 I-0.881 J-0.357
N1430 X53.751 Y176.197 Z0.937 I0.881 J0.357
N1435 X51.99 Y175.483 Z0.832 I-0.881 J-0.357
N1440 X53.751 Y176.197 Z0.728 I0.881 J0.357
N1445 X51.99 Y175.483 Z0.624 I-0.881 J-0.357
N1450 X53.751 Y176.197 Z0.52 I0.881 J0.357
N1455 X51.99 Y175.483 Z0.416 I-0.881 J-0.357
N1460 X53.751 Y176.197 Z0.311 I0.881 J0.357
N1465 X51.99 Y175.483 Z0.207 I-0.881 J-0.357
N1470 X53.751 Y176.197 Z0.103 I0.881 J0.357
N1475 X51.99 Y175.483 Z-0.001 I-0.881 J-0.357
N1480 X53.751 Y176.197 Z-0.106 I0.881 J0.357
N1485 X51.99 Y175.483 Z-0.21 I-0.881 J-0.357
N1490 X53.751 Y176.197 Z-0.314 I0.881 J0.357
N1495 X51.99 Y175.483 Z-0.418 I-0.881 J-0.357
N1500 X53.751 Y176.197 Z-0.522 I0.881 J0.357
N1505 X51.99 Y175.483 Z-0.627 I-0.881 J-0.357
N1510 X53.751 Y176.197 Z-0.731 I0.881 J0.357
N1515 X51.99 Y175.483 Z-0.835 I-0.881 J-0.357
N1520 X53.751 Y176.197 Z-0.939 I0.881 J0.357
N1525 X52.3 Y176.6 Z-1 I-0.881 J-0.357
N1530 X54.7 Y173.4 I1.2 J-1.6
N1535 X52.3 Y176.6 I-1.2 J1.6
N1540 X54.7 Y173.4 Z-1.219 I1.2 J-1.6
N1545 X55.449 Y175.449 Z-1.3 I-1.2 J1.6
N1550 X51.552 Y174.551 I-1.949 J-0.449
N1555 X55.449 Y175.449 I1.949 J0.449
N1560 G1 X55.432 Y175.496 Z-1.287
N1565 X55.404 Y175.537 Z-1.273
N1570 X55.377 Y175.562 Z-1.237
N1575 X55.346 Y175.582 Z-1.2
N1580 X55.322 Y175.593 Z-1.1
N1585 G0 Z5
N1590 X42.395 Y86.63
N1595 G1 Z2 F300
N1600 Z-0.8
N1605 Y86.637 Z-0.852
N1610 X42.394 Y86.657 Z-0.9
N1615 Y86.689 Z-0.941
N1620 Y86.73 Z-0.973
N1625 Y86.778 Z-0.993
N1630 Y86.83 Z-1
N1635 Y86.85
N1640 X42.386 Y97.51 F600
N1645 G3 X23.614 I-9.386
N1650 G1 X23.606 Y86.858
N1655 X23.613 Y86.805
N1660 X23.634 Y86.756
N1665 X23.667 Y86.714
N1670 X23.71 Y86.682
N1675 X23.76 Y86.663
N1680 X43.755 Y82
N1685 G3 X44 Y82.195 I0.045 J0.195
N1690 G1 Y97.51
N1695 G3 X22 I-11
N1700 G1 Y82.199
N1705 G3 X22.242 Y82.004 I0.2
N1710 G1 X42.236 Y86.247
N1715 G3 X42.395 Y86.442 I-0.042 J0.196
N1720 G1 Y86.494 Z-1.007 F300
N1725 Y86.542 Z-1.027
N1730 Y86.584 Z-1.059
N1735 Y86.616 Z-1.1
N1740 Y86.636 Z-1.148
N1745 Y86.642 Z-1.2
N1750 Z-1.81
N1755 X42.394 Y86.649 Z-1.862
N1760 Y86.669 Z-1.91
N1765 Y86.701 Z-1.951
N1770 Y86.742 Z-1.983
N1775 Y86.791 Z-2.003
N1780 Y86.842 Z-2.01
N1785 Y86.85
N1790 X42.386 Y97.51 F600
N1795 G3 X23.614 I-9.386
N1800 G1 X23.606 Y86.858
N1805 X23.613 Y86.805
N1810 X23.634 Y86.756
N1815 X23.667 Y86.714
N1820 X23.71 Y86.682
N1825 X23.76 Y86.663
N1830 X43.755 Y82
N1835 G3 X44 Y82.195 I0.045 J0.195
N1840 G1 Y97.51
N1845 G3 X22 I-11
N1850 G1 Y82.199
N1855 X22.002 Y82.168
N1860 X22.159 Y81.18
N1865 X22.167 Y81.129 Z-2.003
N1870 X22.175 Y81.082 Z-1.983
N1875 X22.181 Y81.041 Z-1.951
N1880 X22.186 Y81.009 Z-1.91
N1885 X22.189 Y80.99 Z-1.862
N1890 X22.19 Y80.983 Z-1.81
N1895 G0 Z5

(2D ??30)
N1900 X113.65 Y88.8
N1905 G1 Z5 F600
N1910 Z2
N1915 Z-0.8
N1920 G18 G2 X113.85 Z-1 I0.2
N1925 G1 X114.05 F300
N1930 G17 G3 X114.25 Y89 J0.2
N1935 X112.75 I-0.75 F600
N1940 X114.25 I0.75
N1945 X114.05 Y89.2 I-0.2
N1950 G1 X113.85
N1955 G18 G3 X113.65 Z-0.8 K0.2
N1960 G0 Z5
N1965 Y88.8
N1970 G1 Z1 F600
N1975 Z-1.8
N1980 G2 X113.85 Z-2 I0.2
N1985 G1 X114.05 F300
N1990 G17 G3 X114.25 Y89 J0.2
N1995 X112.75 I-0.75 F600
N2000 X114.25 I0.75
N2005 X114.05 Y89.2 I-0.2
N2010 G1 X113.85
N2015 G18 G3 X113.65 Z-1.8 K0.2
N2020 G0 Z5
N2025 Y88.8
N2030 G1 Z0 F600
N2035 Z-2.8
N2040 G2 X113.85 Z-3 I0.2
N2045 G1 X114.05 F300
N2050 G17 G3 X114.25 Y89 J0.2
N2055 X112.75 I-0.75 F600
N2060 X114.25 I0.75
N2065 X114.05 Y89.2 I-0.2
N2070 G1 X113.85
N2075 G18 G3 X113.65 Z-2.8 K0.2
N2080 G0 Z5
N2085 Y88.8
N2090 G1 Z-1 F600
N2095 Z-3.35
N2100 G2 X113.85 Z-3.55 I0.2
N2105 G1 X114.05 F300
N2110 G17 G3 X114.25 Y89 J0.2
N2115 X112.75 I-0.75 F600
N2120 X114.25 I0.75
N2125 X114.05 Y89.2 I-0.2
N2130 G1 X113.85
N2135 G18 G3 X113.65 Z-3.35 K0.2
N2140 G0 Z5
N2145 Y88.8
N2150 G1 Z-1.55 F600
N2155 Z-3.9
N2160 G2 X113.85 Z-4.1 I0.2
N2165 G1 X114.05 F300
N2170 G17 G3 X114.25 Y89 J0.2
N2175 X112.75 I-0.75 F600
N2180 X114.25 I0.75
N2185 X114.05 Y89.2 I-0.2
N2190 G1 X113.85
N2195 G18 G3 X113.65 Z-3.9 K0.2
N2200 G0 Z5
N2205 X86.846 Y66.043
N2210 G1 Z2 F600
N2215 Z-0.8
N2220 X86.84 Y66.044 Z-0.852
N2225 X86.82 Y66.05 Z-0.9
N2230 X86.79 Y66.058 Z-0.941
N2235 X86.75 Y66.068 Z-0.973
N2240 X86.703 Y66.081 Z-0.993
N2245 X86.653 Y66.094 Z-1
N2250 X86.46 Y66.146 F300
N2255 G17 G3 X86.215 Y66.005 I-0.052 J-0.193
N2260 G1 X86.155 Y65.782 F600
N2265 X94.849 Y63.453
N2270 X94.978 Y63.936
N2275 X86.285 Y66.265
N2280 X86.215 Y66.005
N2285 G3 X86.356 Y65.76 I0.193 J-0.052
N2290 G1 X86.55 Y65.708
N2295 X86.6 Y65.695 Z-0.993
N2300 X86.646 Y65.682 Z-0.973
N2305 X86.686 Y65.671 Z-0.941
N2310 X86.717 Y65.663 Z-0.9
N2315 X86.736 Y65.658 Z-0.852
N2320 X86.743 Y65.656 Z-0.8
N2325 G0 Z5
N2330 X86.846 Y66.043
N2335 G1 Z1 F600
N2340 Z-1.8
N2345 X86.84 Y66.044 Z-1.852
N2350 X86.82 Y66.05 Z-1.9
N2355 X86.79 Y66.058 Z-1.941
N2360 X86.75 Y66.068 Z-1.973
N2365 X86.703 Y66.081 Z-1.993
N2370 X86.653 Y66.094 Z-2
N2375 X86.46 Y66.146 F300
N2380 G3 X86.215 Y66.005 I-0.052 J-0.193
N2385 G1 X86.155 Y65.782 F600
N2390 X94.849 Y63.453
N2395 X94.978 Y63.936
N2400 X86.285 Y66.265
N2405 X86.215 Y66.005
N2410 G3 X86.356 Y65.76 I0.193 J-0.052
N2415 G1 X86.55 Y65.708
N2420 X86.6 Y65.695 Z-1.993
N2425 X86.646 Y65.682 Z-1.973
N2430 X86.686 Y65.671 Z-1.941
N2435 X86.717 Y65.663 Z-1.9
N2440 X86.736 Y65.658 Z-1.852
N2445 X86.743 Y65.656 Z-1.8
N2450 G0 Z5
N2455 X86.846 Y66.043
N2460 G1 Z0 F600
N2465 Z-2.8
N2470 X86.84 Y66.044 Z-2.852
N2475 X86.82 Y66.05 Z-2.9
N2480 X86.79 Y66.058 Z-2.941
N2485 X86.75 Y66.068 Z-2.973
N2490 X86.703 Y66.081 Z-2.993
N2495 X86.653 Y66.094 Z-3
N2500 X86.46 Y66.146 F300
N2505 G3 X86.215 Y66.005 I-0.052 J-0.193
N2510 G1 X86.155 Y65.782 F600
N2515 X94.849 Y63.453
N2520 X94.978 Y63.936
N2525 X86.285 Y66.265
N2530 X86.215 Y66.005
N2535 G3 X86.356 Y65.76 I0.193 J-0.052
N2540 G1 X86.55 Y65.708
N2545 X86.6 Y65.695 Z-2.993
N2550 X86.646 Y65.682 Z-2.973
N2555 X86.686 Y65.671 Z-2.941
N2560 X86.717 Y65.663 Z-2.9
N2565 X86.736 Y65.658 Z-2.852
N2570 X86.743 Y65.656 Z-2.8
N2575 G0 Z5
N2580 X86.846 Y66.043
N2585 G1 Z-1 F600
N2590 Z-3.35
N2595 X86.84 Y66.044 Z-3.402
N2600 X86.82 Y66.05 Z-3.45
N2605 X86.79 Y66.058 Z-3.491
N2610 X86.75 Y66.068 Z-3.523
N2615 X86.703 Y66.081 Z-3.543
N2620 X86.653 Y66.094 Z-3.55
N2625 X86.46 Y66.146 F300
N2630 G3 X86.215 Y66.005 I-0.052 J-0.193
N2635 G1 X86.155 Y65.782 F600
N2640 X94.849 Y63.453
N2645 X94.978 Y63.936
N2650 X86.285 Y66.265
N2655 X86.215 Y66.005
N2660 G3 X86.356 Y65.76 I0.193 J-0.052
N2665 G1 X86.55 Y65.708
N2670 X86.6 Y65.695 Z-3.543
N2675 X86.646 Y65.682 Z-3.523
N2680 X86.686 Y65.671 Z-3.491
N2685 X86.717 Y65.663 Z-3.45
N2690 X86.736 Y65.658 Z-3.402
N2695 X86.743 Y65.656 Z-3.35
N2700 G0 Z5
N2705 X86.846 Y66.043
N2710 G1 Z-1.55 F600
N2715 Z-3.9
N2720 X86.84 Y66.044 Z-3.952
N2725 X86.82 Y66.05 Z-4
N2730 X86.79 Y66.058 Z-4.041
N2735 X86.75 Y66.068 Z-4.073
N2740 X86.703 Y66.081 Z-4.093
N2745 X86.653 Y66.094 Z-4.1
N2750 X86.46 Y66.146 F300
N2755 G3 X86.215 Y66.005 I-0.052 J-0.193
N2760 G1 X86.155 Y65.782 F600
N2765 X94.849 Y63.453
N2770 X94.978 Y63.936
N2775 X86.285 Y66.265
N2780 X86.215 Y66.005
N2785 G3 X86.356 Y65.76 I0.193 J-0.052
N2790 G1 X86.55 Y65.708
N2795 X86.6 Y65.695 Z-4.093
N2800 X86.646 Y65.682 Z-4.073
N2805 X86.686 Y65.671 Z-4.041
N2810 X86.717 Y65.663 Z-4
N2815 X86.736 Y65.658 Z-3.952
N2820 X86.743 Y65.656 Z-3.9
N2825 G0 Z5
N2830 X73.7 Y58.4
N2835 G1 Z2 F600
N2840 Z-0.8
N2845 G19 G3 Y58.6 Z-1 J0.2
N2850 G1 Y58.8 F300
N2855 G17 G3 X73.5 Y59 I-0.2
N2860 G1 X71.5 F600
N2865 G3 X69.5 Y57.041 J-2
N2870 G1 Y52.959
N2875 G3 X71.502 Y51 I2 J0.041
N2880 G1 X71.504
N2885 X75.5
N2890 G2 X79.5 Y47 J-4
N2895 G1 Y37.959
N2900 G3 X81.502 Y36 I2 J0.041
N2905 G1 X81.504
N2910 X102.5
N2915 G3 X104.5 Y38 J2
N2920 G1 Y57
N2925 G3 X102.5 Y59 I-2
N2930 G1 X73.5
N2935 G3 X73.3 Y58.8 J-0.2
N2940 G1 Y58.6
N2945 G19 G2 Y58.4 Z-0.8 K0.2
N2950 G0 Z5
N2955 X73.7
N2960 G1 Z1 F600
N2965 Z-1.8
N2970 G3 Y58.6 Z-2 J0.2
N2975 G1 Y58.8 F300
N2980 G17 G3 X73.5 Y59 I-0.2
N2985 G1 X71.5 F600
N2990 G3 X69.5 Y57.041 J-2
N2995 G1 Y52.959
N3000 G3 X71.502 Y51 I2 J0.041
N3005 G1 X71.504
N3010 X75.5
N3015 G2 X79.5 Y47 J-4
N3020 G1 Y37.959
N3025 G3 X81.502 Y36 I2 J0.041
N3030 G1 X81.504
N3035 X102.5
N3040 G3 X104.5 Y38 J2
N3045 G1 Y57
N3050 G3 X102.5 Y59 I-2
N3055 G1 X73.5
N3060 G3 X73.3 Y58.8 J-0.2
N3065 G1 Y58.6
N3070 G19 G2 Y58.4 Z-1.8 K0.2
N3075 G0 Z5
N3080 X73.7
N3085 G1 Z0 F600
N3090 Z-2.8
N3095 G3 Y58.6 Z-3 J0.2
N3100 G1 Y58.8 F300
N3105 G17 G3 X73.5 Y59 I-0.2
N3110 G1 X71.5 F600
N3115 G3 X69.5 Y57.041 J-2
N3120 G1 Y52.959
N3125 G3 X71.502 Y51 I2 J0.041
N3130 G1 X71.504
N3135 X75.5
N3140 G2 X79.5 Y47 J-4
N3145 G1 Y37.959
N3150 G3 X81.502 Y36 I2 J0.041
N3155 G1 X81.504
N3160 X102.5
N3165 G3 X104.5 Y38 J2
N3170 G1 Y57
N3175 G3 X102.5 Y59 I-2
N3180 G1 X73.5
N3185 G3 X73.3 Y58.8 J-0.2
N3190 G1 Y58.6
N3195 G19 G2 Y58.4 Z-2.8 K0.2
N3200 G0 Z5
N3205 X73.7
N3210 G1 Z-1 F600
N3215 Z-3.35
N3220 G3 Y58.6 Z-3.55 J0.2
N3225 G1 Y58.8 F300
N3230 G17 G3 X73.5 Y59 I-0.2
N3235 G1 X71.5 F600
N3240 G3 X69.5 Y57.041 J-2
N3245 G1 Y52.959
N3250 G3 X71.502 Y51 I2 J0.041
N3255 G1 X71.504
N3260 X75.5
N3265 G2 X79.5 Y47 J-4
N3270 G1 Y37.959
N3275 G3 X81.502 Y36 I2 J0.041
N3280 G1 X81.504
N3285 X102.5
N3290 G3 X104.5 Y38 J2
N3295 G1 Y57
N3300 G3 X102.5 Y59 I-2
N3305 G1 X73.5
N3310 G3 X73.3 Y58.8 J-0.2
N3315 G1 Y58.6
N3320 G19 G2 Y58.4 Z-3.35 K0.2
N3325 G0 Z5
N3330 X73.7
N3335 G1 Z-1.55 F600
N3340 Z-3.9
N3345 G3 Y58.6 Z-4.1 J0.2
N3350 G1 Y58.8 F300
N3355 G17 G3 X73.5 Y59 I-0.2
N3360 G1 X71.5 F600
N3365 G3 X69.5 Y57.041 J-2
N3370 G1 Y52.959
N3375 G3 X71.502 Y51 I2 J0.041
N3380 G1 X71.504
N3385 X75.5
N3390 G2 X79.5 Y47 J-4
N3395 G1 Y37.959
N3400 G3 X81.502 Y36 I2 J0.041
N3405 G1 X81.504
N3410 X102.5
N3415 G3 X104.5 Y38 J2
N3420 G1 Y57
N3425 G3 X102.5 Y59 I-2
N3430 G1 X73.5
N3435 G3 X73.3 Y58.8 J-0.2
N3440 G1 Y58.6
N3445 G19 G2 Y58.4 Z-3.9 K0.2
N3450 G0 Z5
N3455 X73.65 Y64.8
N3460 G1 Z2 F600
N3465 Z-0.8
N3470 G18 G2 X73.85 Z-1 I0.2
N3475 G1 X74.05 F300
N3480 G17 G3 X74.25 Y65 J0.2
N3485 X72.75 I-0.75 F600
N3490 X74.25 I0.75
N3495 X74.05 Y65.2 I-0.2
N3500 G1 X73.85
N3505 G18 G3 X73.65 Z-0.8 K0.2
N3510 G0 Z5
N3515 Y64.8
N3520 G1 Z1 F600
N3525 Z-1.8
N3530 G2 X73.85 Z-2 I0.2
N3535 G1 X74.05 F300
N3540 G17 G3 X74.25 Y65 J0.2
N3545 X72.75 I-0.75 F600
N3550 X74.25 I0.75
N3555 X74.05 Y65.2 I-0.2
N3560 G1 X73.85
N3565 G18 G3 X73.65 Z-1.8 K0.2
N3570 G0 Z5
N3575 Y64.8
N3580 G1 Z0 F600
N3585 Z-2.8
N3590 G2 X73.85 Z-3 I0.2
N3595 G1 X74.05 F300
N3600 G17 G3 X74.25 Y65 J0.2
N3605 X72.75 I-0.75 F600
N3610 X74.25 I0.75
N3615 X74.05 Y65.2 I-0.2
N3620 G1 X73.85
N3625 G18 G3 X73.65 Z-2.8 K0.2
N3630 G0 Z5
N3635 Y64.8
N3640 G1 Z-1 F600
N3645 Z-3.35
N3650 G2 X73.85 Z-3.55 I0.2
N3655 G1 X74.05 F300
N3660 G17 G3 X74.25 Y65 J0.2
N3665 X72.75 I-0.75 F600
N3670 X74.25 I0.75
N3675 X74.05 Y65.2 I-0.2
N3680 G1 X73.85
N3685 G18 G3 X73.65 Z-3.35 K0.2
N3690 G0 Z5
N3695 Y64.8
N3700 G1 Z-1.55 F600
N3705 Z-3.9
N3710 G2 X73.85 Z-4.1 I0.2
N3715 G1 X74.05 F300
N3720 G17 G3 X74.25 Y65 J0.2
N3725 X72.75 I-0.75 F600
N3730 X74.25 I0.75
N3735 X74.05 Y65.2 I-0.2
N3740 G1 X73.85
N3745 G18 G3 X73.65 Z-3.9 K0.2
N3750 G0 Z5
N3755 Y41.8
N3760 G1 Z2 F600
N3765 Z-0.8
N3770 G2 X73.85 Z-1 I0.2
N3775 G1 X74.05 F300
N3780 G17 G3 X74.25 Y42 J0.2
N3785 X72.75 I-0.75 F600
N3790 X74.25 I0.75
N3795 X74.05 Y42.2 I-0.2
N3800 G1 X73.85
N3805 G18 G3 X73.65 Z-0.8 K0.2
N3810 G0 Z5
N3815 Y41.8
N3820 G1 Z1 F600
N3825 Z-1.8
N3830 G2 X73.85 Z-2 I0.2
N3835 G1 X74.05 F300
N3840 G17 G3 X74.25 Y42 J0.2
N3845 X72.75 I-0.75 F600
N3850 X74.25 I0.75
N3855 X74.05 Y42.2 I-0.2
N3860 G1 X73.85
N3865 G18 G3 X73.65 Z-1.8 K0.2
N3870 G0 Z5
N3875 Y41.8
N3880 G1 Z0 F600
N3885 Z-2.8
N3890 G2 X73.85 Z-3 I0.2
N3895 G1 X74.05 F300
N3900 G17 G3 X74.25 Y42 J0.2
N3905 X72.75 I-0.75 F600
N3910 X74.25 I0.75
N3915 X74.05 Y42.2 I-0.2
N3920 G1 X73.85
N3925 G18 G3 X73.65 Z-2.8 K0.2
N3930 G0 Z5
N3935 Y41.8
N3940 G1 Z-1 F600
N3945 Z-3.35
N3950 G2 X73.85 Z-3.55 I0.2
N3955 G1 X74.05 F300
N3960 G17 G3 X74.25 Y42 J0.2
N3965 X72.75 I-0.75 F600
N3970 X74.25 I0.75
N3975 X74.05 Y42.2 I-0.2
N3980 G1 X73.85
N3985 G18 G3 X73.65 Z-3.35 K0.2
N3990 G0 Z5
N3995 Y41.8
N4000 G1 Z-1.55 F600
N4005 Z-3.9
N4010 G2 X73.85 Z-4.1 I0.2
N4015 G1 X74.05 F300
N4020 G17 G3 X74.25 Y42 J0.2
N4025 X72.75 I-0.75 F600
N4030 X74.25 I0.75
N4035 X74.05 Y42.2 I-0.2
N4040 G1 X73.85
N4045 G18 G3 X73.65 Z-3.9 K0.2
N4050 G0 Z5
N4055 X86.65 Y25
N4060 G1 Z2 F600
N4065 Z-0.8
N4070 G2 X86.85 Z-1 I0.2
N4075 G1 X87.05 F300
N4080 G17 G3 X87.25 Y25.2 J0.2
N4085 X85.75 I-0.75 F600
N4090 X87.25 I0.75
N4095 X87.05 Y25.4 I-0.2
N4100 G1 X86.85
N4105 G18 G3 X86.65 Z-0.8 K0.2
N4110 G0 Z5
N4115 Y25
N4120 G1 Z1 F600
N4125 Z-1.8
N4130 G2 X86.85 Z-2 I0.2
N4135 G1 X87.05 F300
N4140 G17 G3 X87.25 Y25.2 J0.2
N4145 X85.75 I-0.75 F600
N4150 X87.25 I0.75
N4155 X87.05 Y25.4 I-0.2
N4160 G1 X86.85
N4165 G18 G3 X86.65 Z-1.8 K0.2
N4170 G0 Z5
N4175 Y25
N4180 G1 Z0 F600
N4185 Z-2.8
N4190 G2 X86.85 Z-3 I0.2
N4195 G1 X87.05 F300
N4200 G17 G3 X87.25 Y25.2 J0.2
N4205 X85.75 I-0.75 F600
N4210 X87.25 I0.75
N4215 X87.05 Y25.4 I-0.2
N4220 G1 X86.85
N4225 G18 G3 X86.65 Z-2.8 K0.2
N4230 G0 Z5
N4235 Y25
N4240 G1 Z-1 F600
N4245 Z-3.35
N4250 G2 X86.85 Z-3.55 I0.2
N4255 G1 X87.05 F300
N4260 G17 G3 X87.25 Y25.2 J0.2
N4265 X85.75 I-0.75 F600
N4270 X87.25 I0.75
N4275 X87.05 Y25.4 I-0.2
N4280 G1 X86.85
N4285 G18 G3 X86.65 Z-3.35 K0.2
N4290 G0 Z5
N4295 Y25
N4300 G1 Z-1.55 F600
N4305 Z-3.9
N4310 G2 X86.85 Z-4.1 I0.2
N4315 G1 X87.05 F300
N4320 G17 G3 X87.25 Y25.2 J0.2
N4325 X85.75 I-0.75 F600
N4330 X87.25 I0.75
N4335 X87.05 Y25.4 I-0.2
N4340 G1 X86.85
N4345 G18 G3 X86.65 Z-3.9 K0.2
N4350 G0 Z5
N4355 X95.65 Y25
N4360 G1 Z2 F600
N4365 Z-0.8
N4370 G2 X95.85 Z-1 I0.2
N4375 G1 X96.05 F300
N4380 G17 G3 X96.25 Y25.2 J0.2
N4385 X94.75 I-0.75 F600
N4390 X96.25 I0.75
N4395 X96.05 Y25.4 I-0.2
N4400 G1 X95.85
N4405 G18 G3 X95.65 Z-0.8 K0.2
N4410 G0 Z5
N4415 Y25
N4420 G1 Z1 F600
N4425 Z-1.8
N4430 G2 X95.85 Z-2 I0.2
N4435 G1 X96.05 F300
N4440 G17 G3 X96.25 Y25.2 J0.2
N4445 X94.75 I-0.75 F600
N4450 X96.25 I0.75
N4455 X96.05 Y25.4 I-0.2
N4460 G1 X95.85
N4465 G18 G3 X95.65 Z-1.8 K0.2
N4470 G0 Z5
N4475 Y25
N4480 G1 Z0 F600
N4485 Z-2.8
N4490 G2 X95.85 Z-3 I0.2
N4495 G1 X96.05 F300
N4500 G17 G3 X96.25 Y25.2 J0.2
N4505 X94.75 I-0.75 F600
N4510 X96.25 I0.75
N4515 X96.05 Y25.4 I-0.2
N4520 G1 X95.85
N4525 G18 G3 X95.65 Z-2.8 K0.2
N4530 G0 Z5
N4535 Y25
N4540 G1 Z-1 F600
N4545 Z-3.35
N4550 G2 X95.85 Z-3.55 I0.2
N4555 G1 X96.05 F300
N4560 G17 G3 X96.25 Y25.2 J0.2
N4565 X94.75 I-0.75 F600
N4570 X96.25 I0.75
N4575 X96.05 Y25.4 I-0.2
N4580 G1 X95.85
N4585 G18 G3 X95.65 Z-3.35 K0.2
N4590 G0 Z5
N4595 Y25
N4600 G1 Z-1.55 F600
N4605 Z-3.9
N4610 G2 X95.85 Z-4.1 I0.2
N4615 G1 X96.05 F300
N4620 G17 G3 X96.25 Y25.2 J0.2
N4625 X94.75 I-0.75 F600
N4630 X96.25 I0.75
N4635 X96.05 Y25.4 I-0.2
N4640 G1 X95.85
N4645 G18 G3 X95.65 Z-3.9 K0.2
N4650 G0 Z5
N4655 X110.65 Y56.25
N4660 G1 Z2 F600
N4665 Z-0.8
N4670 G2 X110.85 Z-1 I0.2
N4675 G1 X111.05 F300
N4680 G17 G3 X111.25 Y56.45 J0.2
N4685 X109.75 I-0.75 F600
N4690 X111.25 I0.75
N4695 X111.05 Y56.65 I-0.2
N4700 G1 X110.85
N4705 G18 G3 X110.65 Z-0.8 K0.2
N4710 G0 Z5
N4715 Y56.25
N4720 G1 Z1 F600
N4725 Z-1.8
N4730 G2 X110.85 Z-2 I0.2
N4735 G1 X111.05 F300
N4740 G17 G3 X111.25 Y56.45 J0.2
N4745 X109.75 I-0.75 F600
N4750 X111.25 I0.75
N4755 X111.05 Y56.65 I-0.2
N4760 G1 X110.85
N4765 G18 G3 X110.65 Z-1.8 K0.2
N4770 G0 Z5
N4775 Y56.25
N4780 G1 Z0 F600
N4785 Z-2.8
N4790 G2 X110.85 Z-3 I0.2
N4795 G1 X111.05 F300
N4800 G17 G3 X111.25 Y56.45 J0.2
N4805 X109.75 I-0.75 F600
N4810 X111.25 I0.75
N4815 X111.05 Y56.65 I-0.2
N4820 G1 X110.85
N4825 G18 G3 X110.65 Z-2.8 K0.2
N4830 G0 Z5
N4835 Y56.25
N4840 G1 Z-1 F600
N4845 Z-3.35
N4850 G2 X110.85 Z-3.55 I0.2
N4855 G1 X111.05 F300
N4860 G17 G3 X111.25 Y56.45 J0.2
N4865 X109.75 I-0.75 F600
N4870 X111.25 I0.75
N4875 X111.05 Y56.65 I-0.2
N4880 G1 X110.85
N4885 G18 G3 X110.65 Z-3.35 K0.2
N4890 G0 Z5
N4895 Y56.25
N4900 G1 Z-1.55 F600
N4905 Z-3.9
N4910 G2 X110.85 Z-4.1 I0.2
N4915 G1 X111.05 F300
N4920 G17 G3 X111.25 Y56.45 J0.2
N4925 X109.75 I-0.75 F600
N4930 X111.25 I0.75
N4935 X111.05 Y56.65 I-0.2
N4940 G1 X110.85
N4945 G18 G3 X110.65 Z-3.9 K0.2
N4950 G0 Z5
N4955 X111.454 Y143.808
N4960 G1 Z2 F600
N4965 Z-0.8
N4970 G2 X111.654 Z-1 I0.2
N4975 G1 X111.854 F300
N4980 G17 G3 X112.054 Y144.008 J0.2
N4985 X110.554 I-0.75 F600
N4990 X112.054 I0.75
N4995 X111.854 Y144.208 I-0.2
N5000 G1 X111.654
N5005 G18 G3 X111.454 Z-0.8 K0.2
N5010 G0 Z5
N5015 Y143.808
N5020 G1 Z1 F600
N5025 Z-1.8
N5030 G2 X111.654 Z-2 I0.2
N5035 G1 X111.854 F300
N5040 G17 G3 X112.054 Y144.008 J0.2
N5045 X110.554 I-0.75 F600
N5050 X112.054 I0.75
N5055 X111.854 Y144.208 I-0.2
N5060 G1 X111.654
N5065 G18 G3 X111.454 Z-1.8 K0.2
N5070 G0 Z5
N5075 Y143.808
N5080 G1 Z0 F600
N5085 Z-2.8
N5090 G2 X111.654 Z-3 I0.2
N5095 G1 X111.854 F300
N5100 G17 G3 X112.054 Y144.008 J0.2
N5105 X110.554 I-0.75 F600
N5110 X112.054 I0.75
N5115 X111.854 Y144.208 I-0.2
N5120 G1 X111.654
N5125 G18 G3 X111.454 Z-2.8 K0.2
N5130 G0 Z5
N5135 Y143.808
N5140 G1 Z-1 F600
N5145 Z-3.35
N5150 G2 X111.654 Z-3.55 I0.2
N5155 G1 X111.854 F300
N5160 G17 G3 X112.054 Y144.008 J0.2
N5165 X110.554 I-0.75 F600
N5170 X112.054 I0.75
N5175 X111.854 Y144.208 I-0.2
N5180 G1 X111.654
N5185 G18 G3 X111.454 Z-3.35 K0.2
N5190 G0 Z5
N5195 Y143.808
N5200 G1 Z-1.55 F600
N5205 Z-3.9
N5210 G2 X111.654 Z-4.1 I0.2
N5215 G1 X111.854 F300
N5220 G17 G3 X112.054 Y144.008 J0.2
N5225 X110.554 I-0.75 F600
N5230 X112.054 I0.75
N5235 X111.854 Y144.208 I-0.2
N5240 G1 X111.654
N5245 G18 G3 X111.454 Z-3.9 K0.2
N5250 G0 Z5
N5255 X53.65 Y174.8
N5260 G1 Z2 F600
N5265 Z-0.8
N5270 G2 X53.85 Z-1 I0.2
N5275 G1 X54.05 F300
N5280 G17 G3 X54.25 Y175 J0.2
N5285 X52.75 I-0.75 F600
N5290 X54.25 I0.75
N5295 X54.05 Y175.2 I-0.2
N5300 G1 X53.85
N5305 G18 G3 X53.65 Z-0.8 K0.2
N5310 G0 Z5
N5315 Y174.8
N5320 G1 Z1 F600
N5325 Z-1.8
N5330 G2 X53.85 Z-2 I0.2
N5335 G1 X54.05 F300
N5340 G17 G3 X54.25 Y175 J0.2
N5345 X52.75 I-0.75 F600
N5350 X54.25 I0.75
N5355 X54.05 Y175.2 I-0.2
N5360 G1 X53.85
N5365 G18 G3 X53.65 Z-1.8 K0.2
N5370 G0 Z5
N5375 Y174.8
N5380 G1 Z0 F600
N5385 Z-2.8
N5390 G2 X53.85 Z-3 I0.2
N5395 G1 X54.05 F300
N5400 G17 G3 X54.25 Y175 J0.2
N5405 X52.75 I-0.75 F600
N5410 X54.25 I0.75
N5415 X54.05 Y175.2 I-0.2
N5420 G1 X53.85
N5425 G18 G3 X53.65 Z-2.8 K0.2
N5430 G0 Z5
N5435 Y174.8
N5440 G1 Z-1 F600
N5445 Z-3.35
N5450 G2 X53.85 Z-3.55 I0.2
N5455 G1 X54.05 F300
N5460 G17 G3 X54.25 Y175 J0.2
N5465 X52.75 I-0.75 F600
N5470 X54.25 I0.75
N5475 X54.05 Y175.2 I-0.2
N5480 G1 X53.85
N5485 G18 G3 X53.65 Z-3.35 K0.2
N5490 G0 Z5
N5495 Y174.8
N5500 G1 Z-1.55 F600
N5505 Z-3.9
N5510 G2 X53.85 Z-4.1 I0.2
N5515 G1 X54.05 F300
N5520 G17 G3 X54.25 Y175 J0.2
N5525 X52.75 I-0.75 F600
N5530 X54.25 I0.75
N5535 X54.05 Y175.2 I-0.2
N5540 G1 X53.85
N5545 G18 G3 X53.65 Z-3.9 K0.2
N5550 G0 Z5
N5555 X40.9 Y88.141
N5560 G1 Z2 F600
N5565 Z-0.8
N5570 G2 X41.1 Z-1 I0.2
N5575 G1 X41.3 F300
N5580 G17 G3 X41.5 Y88.341 J0.2
N5585 G1 Y97.51 F600
N5590 G3 X24.5 I-8.5
N5595 G1 Y88.341
N5600 G2 X24.292 Y87.73 I-1
N5605 G3 X41.708 Y74.29 I8.708 J-6.72
N5610 Y87.73 I-8.708 J6.72
N5615 G2 X41.5 Y88.341 I0.792 J0.611
N5620 G3 X41.3 Y88.541 I-0.2
N5625 G1 X41.1
N5630 G18 G3 X40.9 Z-0.8 K0.2
N5635 G0 Z5
N5640 Y88.141
N5645 G1 Z1 F600
N5650 Z-1.8
N5655 G2 X41.1 Z-2 I0.2
N5660 G1 X41.3 F300
N5665 G17 G3 X41.5 Y88.341 J0.2
N5670 G1 Y97.51 F600
N5675 G3 X24.5 I-8.5
N5680 G1 Y88.341
N5685 G2 X24.292 Y87.73 I-1
N5690 G3 X41.708 Y74.29 I8.708 J-6.72
N5695 Y87.73 I-8.708 J6.72
N5700 G2 X41.5 Y88.341 I0.792 J0.611
N5705 G3 X41.3 Y88.541 I-0.2
N5710 G1 X41.1
N5715 G18 G3 X40.9 Z-1.8 K0.2
N5720 G0 Z5
N5725 Y88.141
N5730 G1 Z0 F600
N5735 Z-2.8
N5740 G2 X41.1 Z-3 I0.2
N5745 G1 X41.3 F300
N5750 G17 G3 X41.5 Y88.341 J0.2
N5755 G1 Y97.51 F600
N5760 G3 X24.5 I-8.5
N5765 G1 Y88.341
N5770 G2 X24.292 Y87.73 I-1
N5775 G3 X41.708 Y74.29 I8.708 J-6.72
N5780 Y87.73 I-8.708 J6.72
N5785 G2 X41.5 Y88.341 I0.792 J0.611
N5790 G3 X41.3 Y88.541 I-0.2
N5795 G1 X41.1
N5800 G18 G3 X40.9 Z-2.8 K0.2
N5805 G0 Z5
N5810 Y88.141
N5815 G1 Z-1 F600
N5820 Z-3.355
N5825 G2 X41.1 Z-3.555 I0.2
N5830 G1 X41.3 F300
N5835 G17 G3 X41.5 Y88.341 J0.2
N5840 G1 Y97.51 F600
N5845 G3 X24.5 I-8.5
N5850 G1 Y88.341
N5855 G2 X24.292 Y87.73 I-1
N5860 G3 X41.708 Y74.29 I8.708 J-6.72
N5865 Y87.73 I-8.708 J6.72
N5870 G2 X41.5 Y88.341 I0.792 J0.611
N5875 G3 X41.3 Y88.541 I-0.2
N5880 G1 X41.1
N5885 G18 G3 X40.9 Z-3.355 K0.2
N5890 G0 Z5
N5895 Y88.141
N5900 G1 Z-1.555 F600
N5905 Z-3.91
N5910 G2 X41.1 Z-4.11 I0.2
N5915 G1 X41.3 F300
N5920 G17 G3 X41.5 Y88.341 J0.2
N5925 G1 Y97.51 F600
N5930 G3 X24.5 I-8.5
N5935 G1 Y88.341
N5940 G2 X24.292 Y87.73 I-1
N5945 G3 X41.708 Y74.29 I8.708 J-6.72
N5950 Y87.73 I-8.708 J6.72
N5955 G2 X41.5 Y88.341 I0.792 J0.611
N5960 G3 X41.3 Y88.541 I-0.2
N5965 G1 X41.1
N5970 G18 G3 X40.9 Z-3.91 K0.2
N5975 G0 Z5
N5980 G17

(2D ??31)
N5985 G0 Z15
N5990 X48.587 Y88.775
N5995 Z5
N6000 G1 Z2 F600
N6005 Z-0.8
N6010 X48.593 Y88.774 Z-0.852
N6015 X48.612 Y88.768 Z-0.9
N6020 X48.643 Y88.759 Z-0.941
N6025 X48.682 Y88.747 Z-0.973
N6030 X48.729 Y88.733 Z-0.993
N6035 X48.778 Y88.718 Z-1
N6040 X48.97 Y88.661 F300
N6045 G3 X49.219 Y88.796 I0.057 J0.192
N6050 X47.781 Y89.224 I-0.719 J0.214 F600
N6055 X49.219 Y88.796 I0.719 J-0.214
N6060 X49.084 Y89.045 I-0.192 J0.057
N6065 G1 X48.893 Y89.102
N6070 X48.843 Y89.116 Z-0.993
N6075 X48.797 Y89.13 Z-0.973
N6080 X48.757 Y89.142 Z-0.941
N6085 X48.727 Y89.151 Z-0.9
N6090 X48.707 Y89.157 Z-0.852
N6095 X48.701 Y89.159 Z-0.8
N6100 G0 Z5
N6105 X48.587 Y88.775
N6110 G1 Z1 F600
N6115 Z-1.8
N6120 X48.593 Y88.774 Z-1.852
N6125 X48.612 Y88.768 Z-1.9
N6130 X48.643 Y88.759 Z-1.941
N6135 X48.682 Y88.747 Z-1.973
N6140 X48.729 Y88.733 Z-1.993
N6145 X48.778 Y88.718 Z-2
N6150 X48.97 Y88.661 F300
N6155 G3 X49.219 Y88.796 I0.057 J0.192
N6160 X47.781 Y89.224 I-0.719 J0.214 F600
N6165 X49.219 Y88.796 I0.719 J-0.214
N6170 X49.084 Y89.045 I-0.192 J0.057
N6175 G1 X48.893 Y89.102
N6180 X48.843 Y89.116 Z-1.993
N6185 X48.797 Y89.13 Z-1.973
N6190 X48.757 Y89.142 Z-1.941
N6195 X48.727 Y89.151 Z-1.9
N6200 X48.707 Y89.157 Z-1.852
N6205 X48.701 Y89.159 Z-1.8
N6210 G0 Z5
N6215 X48.587 Y88.775
N6220 G1 Z0 F600
N6225 Z-2.8
N6230 X48.593 Y88.774 Z-2.852
N6235 X48.612 Y88.768 Z-2.9
N6240 X48.643 Y88.759 Z-2.941
N6245 X48.682 Y88.747 Z-2.973
N6250 X48.729 Y88.733 Z-2.993
N6255 X48.778 Y88.718 Z-3
N6260 X48.97 Y88.661 F300
N6265 G3 X49.219 Y88.796 I0.057 J0.192
N6270 X47.781 Y89.224 I-0.719 J0.214 F600
N6275 X49.219 Y88.796 I0.719 J-0.214
N6280 X49.084 Y89.045 I-0.192 J0.057
N6285 G1 X48.893 Y89.102
N6290 X48.843 Y89.116 Z-2.993
N6295 X48.797 Y89.13 Z-2.973
N6300 X48.757 Y89.142 Z-2.941
N6305 X48.727 Y89.151 Z-2.9
N6310 X48.707 Y89.157 Z-2.852
N6315 X48.701 Y89.159 Z-2.8
N6320 G0 Z5
N6325 X48.587 Y88.775
N6330 G1 Z-1 F600
N6335 Z-3.355
N6340 X48.593 Y88.774 Z-3.407
N6345 X48.612 Y88.768 Z-3.455
N6350 X48.643 Y88.759 Z-3.496
N6355 X48.682 Y88.747 Z-3.528
N6360 X48.729 Y88.733 Z-3.548
N6365 X48.778 Y88.718 Z-3.555
N6370 X48.97 Y88.661 F300
N6375 G3 X49.219 Y88.796 I0.057 J0.192
N6380 X47.781 Y89.224 I-0.719 J0.214 F600
N6385 X49.219 Y88.796 I0.719 J-0.214
N6390 X49.084 Y89.045 I-0.192 J0.057
N6395 G1 X48.893 Y89.102
N6400 X48.843 Y89.116 Z-3.548
N6405 X48.797 Y89.13 Z-3.528
N6410 X48.757 Y89.142 Z-3.496
N6415 X48.727 Y89.151 Z-3.455
N6420 X48.707 Y89.157 Z-3.407
N6425 X48.701 Y89.159 Z-3.355
N6430 G0 Z5
N6435 X48.587 Y88.775
N6440 G1 Z-1.555 F600
N6445 Z-3.91
N6450 X48.593 Y88.774 Z-3.962
N6455 X48.612 Y88.768 Z-4.01
N6460 X48.643 Y88.759 Z-4.051
N6465 X48.682 Y88.747 Z-4.083
N6470 X48.729 Y88.733 Z-4.103
N6475 X48.778 Y88.718 Z-4.11
N6480 X48.97 Y88.661 F300
N6485 G3 X49.219 Y88.796 I0.057 J0.192
N6490 X47.781 Y89.224 I-0.719 J0.214 F600
N6495 X49.219 Y88.796 I0.719 J-0.214
N6500 X49.084 Y89.045 I-0.192 J0.057
N6505 G1 X48.893 Y89.102
N6510 X48.843 Y89.116 Z-4.103
N6515 X48.797 Y89.13 Z-4.083
N6520 X48.757 Y89.142 Z-4.051
N6525 X48.727 Y89.151 Z-4.01
N6530 X48.707 Y89.157 Z-3.962
N6535 X48.701 Y89.159 Z-3.91
N6540 G0 Z5
N6545 X45.65 Y56.26
N6550 G1 Z2 F600
N6555 Z-0.8
N6560 G18 G2 X45.85 Z-1 I0.2
N6565 G1 X46.05 F300
N6570 G17 G3 X46.25 Y56.46 J0.2
N6575 X44.75 I-0.75 F600
N6580 X46.25 I0.75
N6585 X46.05 Y56.66 I-0.2
N6590 G1 X45.85
N6595 G18 G3 X45.65 Z-0.8 K0.2
N6600 G0 Z5
N6605 Y56.26
N6610 G1 Z1 F600
N6615 Z-1.8
N6620 G2 X45.85 Z-2 I0.2
N6625 G1 X46.05 F300
N6630 G17 G3 X46.25 Y56.46 J0.2
N6635 X44.75 I-0.75 F600
N6640 X46.25 I0.75
N6645 X46.05 Y56.66 I-0.2
N6650 G1 X45.85
N6655 G18 G3 X45.65 Z-1.8 K0.2
N6660 G0 Z5
N6665 Y56.26
N6670 G1 Z0 F600
N6675 Z-2.8
N6680 G2 X45.85 Z-3 I0.2
N6685 G1 X46.05 F300
N6690 G17 G3 X46.25 Y56.46 J0.2
N6695 X44.75 I-0.75 F600
N6700 X46.25 I0.75
N6705 X46.05 Y56.66 I-0.2
N6710 G1 X45.85
N6715 G18 G3 X45.65 Z-2.8 K0.2
N6720 G0 Z5
N6725 Y56.26
N6730 G1 Z-1 F600
N6735 Z-3.355
N6740 G2 X45.85 Z-3.555 I0.2
N6745 G1 X46.05 F300
N6750 G17 G3 X46.25 Y56.46 J0.2
N6755 X44.75 I-0.75 F600
N6760 X46.25 I0.75
N6765 X46.05 Y56.66 I-0.2
N6770 G1 X45.85
N6775 G18 G3 X45.65 Z-3.355 K0.2
N6780 G0 Z5
N6785 Y56.26
N6790 G1 Z-1.555 F600
N6795 Z-3.91
N6800 G2 X45.85 Z-4.11 I0.2
N6805 G1 X46.05 F300
N6810 G17 G3 X46.25 Y56.46 J0.2
N6815 X44.75 I-0.75 F600
N6820 X46.25 I0.75
N6825 X46.05 Y56.66 I-0.2
N6830 G1 X45.85
N6835 G18 G3 X45.65 Z-3.91 K0.2
N6840 G0 Z5
N6845 X8.65 Y54.81
N6850 G1 Z2 F600
N6855 Z-0.8
N6860 G2 X8.85 Z-1 I0.2
N6865 G1 X9.05 F300
N6870 G17 G3 X9.25 Y55.01 J0.2
N6875 X7.75 I-0.75 F600
N6880 X9.25 I0.75
N6885 X9.05 Y55.21 I-0.2
N6890 G1 X8.85
N6895 G18 G3 X8.65 Z-0.8 K0.2
N6900 G0 Z5
N6905 Y54.81
N6910 G1 Z1 F600
N6915 Z-1.8
N6920 G2 X8.85 Z-2 I0.2
N6925 G1 X9.05 F300
N6930 G17 G3 X9.25 Y55.01 J0.2
N6935 X7.75 I-0.75 F600
N6940 X9.25 I0.75
N6945 X9.05 Y55.21 I-0.2
N6950 G1 X8.85
N6955 G18 G3 X8.65 Z-1.8 K0.2
N6960 G0 Z5
N6965 Y54.81
N6970 G1 Z0 F600
N6975 Z-2.8
N6980 G2 X8.85 Z-3 I0.2
N6985 G1 X9.05 F300
N6990 G17 G3 X9.25 Y55.01 J0.2
N6995 X7.75 I-0.75 F600
N7000 X9.25 I0.75
N7005 X9.05 Y55.21 I-0.2
N7010 G1 X8.85
N7015 G18 G3 X8.65 Z-2.8 K0.2
N7020 G0 Z5
N7025 Y54.81
N7030 G1 Z-1 F600
N7035 Z-3.355
N7040 G2 X8.85 Z-3.555 I0.2
N7045 G1 X9.05 F300
N7050 G17 G3 X9.25 Y55.01 J0.2
N7055 X7.75 I-0.75 F600
N7060 X9.25 I0.75
N7065 X9.05 Y55.21 I-0.2
N7070 G1 X8.85
N7075 G18 G3 X8.65 Z-3.355 K0.2
N7080 G0 Z5
N7085 Y54.81
N7090 G1 Z-1.555 F600
N7095 Z-3.91
N7100 G2 X8.85 Z-4.11 I0.2
N7105 G1 X9.05 F300
N7110 G17 G3 X9.25 Y55.01 J0.2
N7115 X7.75 I-0.75 F600
N7120 X9.25 I0.75
N7125 X9.05 Y55.21 I-0.2
N7130 G1 X8.85
N7135 G18 G3 X8.65 Z-3.91 K0.2
N7140 G0 Z5
N7145 Y64.81
N7150 G1 Z2 F600
N7155 Z-0.8
N7160 G2 X8.85 Z-1 I0.2
N7165 G1 X9.05 F300
N7170 G17 G3 X9.25 Y65.01 J0.2
N7175 X7.75 I-0.75 F600
N7180 X9.25 I0.75
N7185 X9.05 Y65.21 I-0.2
N7190 G1 X8.85
N7195 G18 G3 X8.65 Z-0.8 K0.2
N7200 G0 Z5
N7205 Y64.81
N7210 G1 Z1 F600
N7215 Z-1.8
N7220 G2 X8.85 Z-2 I0.2
N7225 G1 X9.05 F300
N7230 G17 G3 X9.25 Y65.01 J0.2
N7235 X7.75 I-0.75 F600
N7240 X9.25 I0.75
N7245 X9.05 Y65.21 I-0.2
N7250 G1 X8.85
N7255 G18 G3 X8.65 Z-1.8 K0.2
N7260 G0 Z5
N7265 Y64.81
N7270 G1 Z0 F600
N7275 Z-2.8
N7280 G2 X8.85 Z-3 I0.2
N7285 G1 X9.05 F300
N7290 G17 G3 X9.25 Y65.01 J0.2
N7295 X7.75 I-0.75 F600
N7300 X9.25 I0.75
N7305 X9.05 Y65.21 I-0.2
N7310 G1 X8.85
N7315 G18 G3 X8.65 Z-2.8 K0.2
N7320 G0 Z5
N7325 Y64.81
N7330 G1 Z-1 F600
N7335 Z-3.355
N7340 G2 X8.85 Z-3.555 I0.2
N7345 G1 X9.05 F300
N7350 G17 G3 X9.25 Y65.01 J0.2
N7355 X7.75 I-0.75 F600
N7360 X9.25 I0.75
N7365 X9.05 Y65.21 I-0.2
N7370 G1 X8.85
N7375 G18 G3 X8.65 Z-3.355 K0.2
N7380 G0 Z5
N7385 Y64.81
N7390 G1 Z-1.555 F600
N7395 Z-3.91
N7400 G2 X8.85 Z-4.11 I0.2
N7405 G1 X9.05 F300
N7410 G17 G3 X9.25 Y65.01 J0.2
N7415 X7.75 I-0.75 F600
N7420 X9.25 I0.75
N7425 X9.05 Y65.21 I-0.2
N7430 G1 X8.85
N7435 G18 G3 X8.65 Z-3.91 K0.2
N7440 G0 Z5
N7445 Y41.81
N7450 G1 Z2 F600
N7455 Z-0.8
N7460 G2 X8.85 Z-1 I0.2
N7465 G1 X9.05 F300
N7470 G17 G3 X9.25 Y42.01 J0.2
N7475 X7.75 I-0.75 F600
N7480 X9.25 I0.75
N7485 X9.05 Y42.21 I-0.2
N7490 G1 X8.85
N7495 G18 G3 X8.65 Z-0.8 K0.2
N7500 G0 Z5
N7505 Y41.81
N7510 G1 Z1 F600
N7515 Z-1.8
N7520 G2 X8.85 Z-2 I0.2
N7525 G1 X9.05 F300
N7530 G17 G3 X9.25 Y42.01 J0.2
N7535 X7.75 I-0.75 F600
N7540 X9.25 I0.75
N7545 X9.05 Y42.21 I-0.2
N7550 G1 X8.85
N7555 G18 G3 X8.65 Z-1.8 K0.2
N7560 G0 Z5
N7565 Y41.81
N7570 G1 Z0 F600
N7575 Z-2.8
N7580 G2 X8.85 Z-3 I0.2
N7585 G1 X9.05 F300
N7590 G17 G3 X9.25 Y42.01 J0.2
N7595 X7.75 I-0.75 F600
N7600 X9.25 I0.75
N7605 X9.05 Y42.21 I-0.2
N7610 G1 X8.85
N7615 G18 G3 X8.65 Z-2.8 K0.2
N7620 G0 Z5
N7625 Y41.81
N7630 G1 Z-1 F600
N7635 Z-3.355
N7640 G2 X8.85 Z-3.555 I0.2
N7645 G1 X9.05 F300
N7650 G17 G3 X9.25 Y42.01 J0.2
N7655 X7.75 I-0.75 F600
N7660 X9.25 I0.75
N7665 X9.05 Y42.21 I-0.2
N7670 G1 X8.85
N7675 G18 G3 X8.65 Z-3.355 K0.2
N7680 G0 Z5
N7685 Y41.81
N7690 G1 Z-1.555 F600
N7695 Z-3.91
N7700 G2 X8.85 Z-4.11 I0.2
N7705 G1 X9.05 F300
N7710 G17 G3 X9.25 Y42.01 J0.2
N7715 X7.75 I-0.75 F600
N7720 X9.25 I0.75
N7725 X9.05 Y42.21 I-0.2
N7730 G1 X8.85
N7735 G18 G3 X8.65 Z-3.91 K0.2
N7740 G0 Z5
N7745 X46.453 Y143.818
N7750 G1 Z2 F600
N7755 Z-0.8
N7760 G2 X46.653 Z-1 I0.2
N7765 G1 X46.854 F300
N7770 G17 G3 X47.054 Y144.018 J0.2
N7775 X45.554 I-0.75 F600
N7780 X47.054 I0.75
N7785 X46.854 Y144.218 I-0.2
N7790 G1 X46.653
N7795 G18 G3 X46.453 Z-0.8 K0.2
N7800 G0 Z5
N7805 Y143.818
N7810 G1 Z1 F600
N7815 Z-1.8
N7820 G2 X46.653 Z-2 I0.2
N7825 G1 X46.854 F300
N7830 G17 G3 X47.054 Y144.018 J0.2
N7835 X45.554 I-0.75 F600
N7840 X47.054 I0.75
N7845 X46.854 Y144.218 I-0.2
N7850 G1 X46.653
N7855 G18 G3 X46.453 Z-1.8 K0.2
N7860 G0 Z5
N7865 Y143.818
N7870 G1 Z0 F600
N7875 Z-2.8
N7880 G2 X46.653 Z-3 I0.2
N7885 G1 X46.854 F300
N7890 G17 G3 X47.054 Y144.018 J0.2
N7895 X45.554 I-0.75 F600
N7900 X47.054 I0.75
N7905 X46.854 Y144.218 I-0.2
N7910 G1 X46.653
N7915 G18 G3 X46.453 Z-2.8 K0.2
N7920 G0 Z5
N7925 Y143.818
N7930 G1 Z-1 F600
N7935 Z-3.355
N7940 G2 X46.653 Z-3.555 I0.2
N7945 G1 X46.854 F300
N7950 G17 G3 X47.054 Y144.018 J0.2
N7955 X45.554 I-0.75 F600
N7960 X47.054 I0.75
N7965 X46.854 Y144.218 I-0.2
N7970 G1 X46.653
N7975 G18 G3 X46.453 Z-3.355 K0.2
N7980 G0 Z5
N7985 Y143.818
N7990 G1 Z-1.555 F600
N7995 Z-3.91
N8000 G2 X46.653 Z-4.11 I0.2
N8005 G1 X46.854 F300
N8010 G17 G3 X47.054 Y144.018 J0.2
N8015 X45.554 I-0.75 F600
N8020 X47.054 I0.75
N8025 X46.854 Y144.218 I-0.2
N8030 G1 X46.653
N8035 G18 G3 X46.453 Z-3.91 K0.2
N8040 G0 Z15
N8045 G17

(2D ??32)
N8050 G0 X98.9 Y-0.2
N8055 Z15
N8060 Z5
N8065 G1 Z2 F600
N8070 Z-0.8
N8075 G18 G2 X99.1 Z-1 I0.2
N8080 G1 X99.3 F300
N8085 G17 G3 X99.5 Y0 J0.2
N8090 G1 Y20 F600
N8095 X80.5
N8100 Y0
N8105 G2 X79.5 Y-1 I-1
N8110 G1 X65
N8115 G2 X64 Y0 J1
N8120 G1 Y58.134
N8125 G2 X64.034 Y58.393 I1
N8130 G1 X84.593 Y135.118
N8135 G2 X113.375 Y151.736 I22.7 J-6.082
N8140 X129.992 Y122.953 I-6.082 J-22.699
N8145 G1 X120 Y85.666
N8150 Y0
N8155 G2 X119 Y-1 I-1
N8160 G1 X100.5
N8165 G2 X99.5 Y0 J1
N8170 G3 X99.3 Y0.2 I-0.2
N8175 G1 X99.1
N8180 G18 G3 X98.9 Z-0.8 K0.2
N8185 G0 Z5
N8190 Y-0.2
N8195 G1 Z1 F600
N8200 Z-1.8
N8205 G2 X99.1 Z-2 I0.2
N8210 G1 X99.3 F300
N8215 G17 G3 X99.5 Y0 J0.2
N8220 G1 Y20 F600
N8225 X80.5
N8230 Y0
N8235 G2 X79.5 Y-1 I-1
N8240 G1 X65
N8245 G2 X64 Y0 J1
N8250 G1 Y58.134
N8255 G2 X64.034 Y58.393 I1
N8260 G1 X84.593 Y135.118
N8265 G2 X113.375 Y151.736 I22.7 J-6.082
N8270 X129.992 Y122.953 I-6.082 J-22.699
N8275 G1 X120 Y85.666
N8280 Y0
N8285 G2 X119 Y-1 I-1
N8290 G1 X100.5
N8295 G2 X99.5 Y0 J1
N8300 G3 X99.3 Y0.2 I-0.2
N8305 G1 X99.1
N8310 G18 G3 X98.9 Z-1.8 K0.2
N8315 G0 Z5
N8320 Y-0.2
N8325 G1 Z0 F600
N8330 Z-2.8
N8335 G2 X99.1 Z-3 I0.2
N8340 G1 X99.3 F300
N8345 G17 G3 X99.5 Y0 J0.2
N8350 G1 Y20 F600
N8355 X80.5
N8360 Y0
N8365 G2 X79.5 Y-1 I-1
N8370 G1 X65
N8375 G2 X64 Y0 J1
N8380 G1 Y58.134
N8385 G2 X64.034 Y58.393 I1
N8390 G1 X84.593 Y135.118
N8395 G2 X113.375 Y151.736 I22.7 J-6.082
N8400 X129.992 Y122.953 I-6.082 J-22.699
N8405 G1 X120 Y85.666
N8410 Y0
N8415 G2 X119 Y-1 I-1
N8420 G1 X100.5
N8425 G2 X99.5 Y0 J1
N8430 G3 X99.3 Y0.2 I-0.2
N8435 G1 X99.1
N8440 G18 G3 X98.9 Z-2.8 K0.2
N8445 G0 Z5
N8450 Y-0.2
N8455 G1 Z-1 F600
N8460 Z-3.35
N8465 G2 X99.1 Z-3.55 I0.2
N8470 G1 X99.3 F300
N8475 G17 G3 X99.5 Y0 J0.2
N8480 G1 Y20 F600
N8485 X80.5
N8490 Y0
N8495 G2 X79.5 Y-1 I-1
N8500 G1 X65
N8505 G2 X64 Y0 J1
N8510 G1 Y58.134
N8515 G2 X64.034 Y58.393 I1
N8520 G1 X84.593 Y135.118
N8525 G2 X113.375 Y151.736 I22.7 J-6.082
N8530 X129.992 Y122.953 I-6.082 J-22.699
N8535 G1 X120 Y85.666
N8540 Y0
N8545 G2 X119 Y-1 I-1
N8550 G1 X100.5
N8555 G2 X99.5 Y0 J1
N8560 G3 X99.3 Y0.2 I-0.2
N8565 G1 X99.1
N8570 G18 G3 X98.9 Z-3.35 K0.2
N8575 G0 Z5
N8580 Y-0.2
N8585 G1 Z-1.55 F600
N8590 Z-3.9
N8595 G2 X99.1 Z-4.1 I0.2
N8600 G1 X99.3 F300
N8605 G17 G3 X99.5 Y0 J0.2
N8610 G1 Y20 F600
N8615 X80.5
N8620 Y0
N8625 G2 X79.5 Y-1 I-1
N8630 G1 X65
N8635 G2 X64 Y0 J1
N8640 G1 Y58.134
N8645 G2 X64.034 Y58.393 I1
N8650 G1 X84.593 Y135.118
N8655 G2 X113.375 Y151.736 I22.7 J-6.082
N8660 X129.992 Y122.953 I-6.082 J-22.699
N8665 G1 X120 Y85.666
N8670 Y0
N8675 G2 X119 Y-1 I-1
N8680 G1 X100.5
N8685 G2 X99.5 Y0 J1
N8690 G3 X99.3 Y0.2 I-0.2
N8695 G1 X99.1
N8700 G18 G3 X98.9 Z-3.9 K0.2
N8705 G0 Z5
N8710 X86.052 Y179.93
N8715 G1 Z2 F600
N8720 Z-0.8
N8725 X86.047 Y179.926 Z-0.852
N8730 X86.031 Y179.914 Z-0.9
N8735 X86.006 Y179.895 Z-0.941
N8740 X85.973 Y179.87 Z-0.973
N8745 X85.934 Y179.841 Z-0.993
N8750 X85.893 Y179.809 Z-1
N8755 X85.733 Y179.689 F300
N8760 G17 G3 X85.694 Y179.409 I0.12 J-0.16
N8765 G2 X86.5 Y177 I-3.193 J-2.409 F600
N8770 G1 Y158
N8775 G2 X82.5 Y154 I-4
N8780 G1 X61.504
N8785 G2 X57.501 Y157.935 I-0.004 J4
N8790 G1 X57.5 Y157.951
N8795 Y167
N8800 G3 X55.5 Y169 I-2
N8805 G1 X51.504
N8810 G2 X47.501 Y172.935 I-0.004 J4
N8815 G1 X47.5 Y172.951
N8820 Y177.049
N8825 X47.501 Y177.065
N8830 G2 X51.5 Y181 I3.999 J-0.065
N8835 G1 X82.5
N8840 G2 X85.694 Y179.409 J-4
N8845 G3 X85.974 Y179.37 I0.16 J0.12
N8850 G1 X86.134 Y179.49
N8855 X86.175 Y179.521 Z-0.993
N8860 X86.213 Y179.55 Z-0.973
N8865 X86.246 Y179.575 Z-0.941
N8870 X86.272 Y179.594 Z-0.9
N8875 X86.288 Y179.606 Z-0.852
N8880 X86.293 Y179.61 Z-0.8
N8885 G0 Z5
N8890 X86.052 Y179.93
N8895 G1 Z1 F600
N8900 Z-1.8
N8905 X86.047 Y179.926 Z-1.852
N8910 X86.031 Y179.914 Z-1.9
N8915 X86.006 Y179.895 Z-1.941
N8920 X85.973 Y179.87 Z-1.973
N8925 X85.934 Y179.841 Z-1.993
N8930 X85.893 Y179.809 Z-2
N8935 X85.733 Y179.689 F300
N8940 G3 X85.694 Y179.409 I0.12 J-0.16
N8945 G2 X86.5 Y177 I-3.193 J-2.409 F600
N8950 G1 Y158
N8955 G2 X82.5 Y154 I-4
N8960 G1 X61.504
N8965 G2 X57.501 Y157.935 I-0.004 J4
N8970 G1 X57.5 Y157.951
N8975 Y167
N8980 G3 X55.5 Y169 I-2
N8985 G1 X51.504
N8990 G2 X47.501 Y172.935 I-0.004 J4
N8995 G1 X47.5 Y172.951
N9000 Y177.049
N9005 X47.501 Y177.065
N9010 G2 X51.5 Y181 I3.999 J-0.065
N9015 G1 X82.5
N9020 G2 X85.694 Y179.409 J-4
N9025 G3 X85.974 Y179.37 I0.16 J0.12
N9030 G1 X86.134 Y179.49
N9035 X86.175 Y179.521 Z-1.993
N9040 X86.213 Y179.55 Z-1.973
N9045 X86.246 Y179.575 Z-1.941
N9050 X86.272 Y179.594 Z-1.9
N9055 X86.288 Y179.606 Z-1.852
N9060 X86.293 Y179.61 Z-1.8
N9065 G0 Z5
N9070 X86.052 Y179.93
N9075 G1 Z0 F600
N9080 Z-2.8
N9085 X86.047 Y179.926 Z-2.852
N9090 X86.031 Y179.914 Z-2.9
N9095 X86.006 Y179.895 Z-2.941
N9100 X85.973 Y179.87 Z-2.973
N9105 X85.934 Y179.841 Z-2.993
N9110 X85.893 Y179.809 Z-3
N9115 X85.733 Y179.689 F300
N9120 G3 X85.694 Y179.409 I0.12 J-0.16
N9125 G2 X86.5 Y177 I-3.193 J-2.409 F600
N9130 G1 Y158
N9135 G2 X82.5 Y154 I-4
N9140 G1 X61.504
N9145 G2 X57.501 Y157.935 I-0.004 J4
N9150 G1 X57.5 Y157.951
N9155 Y167
N9160 G3 X55.5 Y169 I-2
N9165 G1 X51.504
N9170 G2 X47.501 Y172.935 I-0.004 J4
N9175 G1 X47.5 Y172.951
N9180 Y177.049
N9185 X47.501 Y177.065
N9190 G2 X51.5 Y181 I3.999 J-0.065
N9195 G1 X82.5
N9200 G2 X85.694 Y179.409 J-4
N9205 G3 X85.974 Y179.37 I0.16 J0.12
N9210 G1 X86.134 Y179.49
N9215 X86.175 Y179.521 Z-2.993
N9220 X86.213 Y179.55 Z-2.973
N9225 X86.246 Y179.575 Z-2.941
N9230 X86.272 Y179.594 Z-2.9
N9235 X86.288 Y179.606 Z-2.852
N9240 X86.293 Y179.61 Z-2.8
N9245 G0 Z5
N9250 X86.052 Y179.93
N9255 G1 Z-1 F600
N9260 Z-3.35
N9265 X86.047 Y179.926 Z-3.402
N9270 X86.031 Y179.914 Z-3.45
N9275 X86.006 Y179.895 Z-3.491
N9280 X85.973 Y179.87 Z-3.523
N9285 X85.934 Y179.841 Z-3.543
N9290 X85.893 Y179.809 Z-3.55
N9295 X85.733 Y179.689 F300
N9300 G3 X85.694 Y179.409 I0.12 J-0.16
N9305 G2 X86.5 Y177 I-3.193 J-2.409 F600
N9310 G1 Y158
N9315 G2 X82.5 Y154 I-4
N9320 G1 X61.504
N9325 G2 X57.501 Y157.935 I-0.004 J4
N9330 G1 X57.5 Y157.951
N9335 Y167
N9340 G3 X55.5 Y169 I-2
N9345 G1 X51.504
N9350 G2 X47.501 Y172.935 I-0.004 J4
N9355 G1 X47.5 Y172.951
N9360 Y177.049
N9365 X47.501 Y177.065
N9370 G2 X51.5 Y181 I3.999 J-0.065
N9375 G1 X82.5
N9380 G2 X85.694 Y179.409 J-4
N9385 G3 X85.974 Y179.37 I0.16 J0.12
N9390 G1 X86.134 Y179.49
N9395 X86.175 Y179.521 Z-3.543
N9400 X86.213 Y179.55 Z-3.523
N9405 X86.246 Y179.575 Z-3.491
N9410 X86.272 Y179.594 Z-3.45
N9415 X86.288 Y179.606 Z-3.402
N9420 X86.293 Y179.61 Z-3.35
N9425 G0 Z5
N9430 X86.052 Y179.93
N9435 G1 Z-1.55 F600
N9440 Z-3.9
N9445 X86.047 Y179.926 Z-3.952
N9450 X86.031 Y179.914 Z-4
N9455 X86.006 Y179.895 Z-4.041
N9460 X85.973 Y179.87 Z-4.073
N9465 X85.934 Y179.841 Z-4.093
N9470 X85.893 Y179.809 Z-4.1
N9475 X85.733 Y179.689 F300
N9480 G3 X85.694 Y179.409 I0.12 J-0.16
N9485 G2 X86.5 Y177 I-3.193 J-2.409 F600
N9490 G1 Y158
N9495 G2 X82.5 Y154 I-4
N9500 G1 X61.504
N9505 G2 X57.501 Y157.935 I-0.004 J4
N9510 G1 X57.5 Y157.951
N9515 Y167
N9520 G3 X55.5 Y169 I-2
N9525 G1 X51.504
N9530 G2 X47.501 Y172.935 I-0.004 J4
N9535 G1 X47.5 Y172.951
N9540 Y177.049
N9545 X47.501 Y177.065
N9550 G2 X51.5 Y181 I3.999 J-0.065
N9555 G1 X82.5
N9560 G2 X85.694 Y179.409 J-4
N9565 G3 X85.974 Y179.37 I0.16 J0.12
N9570 G1 X86.134 Y179.49
N9575 X86.175 Y179.521 Z-4.093
N9580 X86.213 Y179.55 Z-4.073
N9585 X86.246 Y179.575 Z-4.041
N9590 X86.272 Y179.594 Z-4
N9595 X86.288 Y179.606 Z-3.952
N9600 X86.293 Y179.61 Z-3.9
N9605 G0 Z15
N9610 X-1.6 Y-0.19
N9615 Z5
N9620 G1 Z2 F600
N9625 Z-0.8
N9630 G18 G2 X-1.4 Z-1 I0.2
N9635 G1 X-1.2 F300
N9640 G17 G3 X-1 Y0.01 J0.2
N9645 G1 Y58.144 F600
N9650 G2 X-0.966 Y58.403 I1
N9655 G1 X19.593 Y135.128
N9660 G2 X48.374 Y151.745 I22.699 J-6.082
N9665 X64.991 Y122.963 I-6.082 J-22.699
N9670 G1 X55 Y85.676
N9675 Y0.01
N9680 G2 X54 Y-0.99 I-1
N9685 G1 X0
N9690 G2 X-1 Y0.01 J1
N9695 G3 X-1.2 Y0.21 I-0.2
N9700 G1 X-1.4
N9705 G18 G3 X-1.6 Z-0.8 K0.2
N9710 G0 Z5
N9715 Y-0.19
N9720 G1 Z1 F600
N9725 Z-1.8
N9730 G2 X-1.4 Z-2 I0.2
N9735 G1 X-1.2 F300
N9740 G17 G3 X-1 Y0.01 J0.2
N9745 G1 Y58.144 F600
N9750 G2 X-0.966 Y58.403 I1
N9755 G1 X19.593 Y135.128
N9760 G2 X48.374 Y151.745 I22.699 J-6.082
N9765 X64.991 Y122.963 I-6.082 J-22.699
N9770 G1 X55 Y85.676
N9775 Y0.01
N9780 G2 X54 Y-0.99 I-1
N9785 G1 X0
N9790 G2 X-1 Y0.01 J1
N9795 G3 X-1.2 Y0.21 I-0.2
N9800 G1 X-1.4
N9805 G18 G3 X-1.6 Z-1.8 K0.2
N9810 G0 Z5
N9815 Y-0.19
N9820 G1 Z0 F600
N9825 Z-2.8
N9830 G2 X-1.4 Z-3 I0.2
N9835 G1 X-1.2 F300
N9840 G17 G3 X-1 Y0.01 J0.2
N9845 G1 Y58.144 F600
N9850 G2 X-0.966 Y58.403 I1
N9855 G1 X19.593 Y135.128
N9860 G2 X48.374 Y151.745 I22.699 J-6.082
N9865 X64.991 Y122.963 I-6.082 J-22.699
N9870 G1 X55 Y85.676
N9875 Y0.01
N9880 G2 X54 Y-0.99 I-1
N9885 G1 X0
N9890 G2 X-1 Y0.01 J1
N9895 G3 X-1.2 Y0.21 I-0.2
N9900 G1 X-1.4
N9905 G18 G3 X-1.6 Z-2.8 K0.2
N9910 G0 Z5
N9915 Y-0.19
N9920 G1 Z-1 F600
N9925 Z-3.355
N9930 G2 X-1.4 Z-3.555 I0.2
N9935 G1 X-1.2 F300
N9940 G17 G3 X-1 Y0.01 J0.2
N9945 G1 Y58.144 F600
N9950 G2 X-0.966 Y58.403 I1
N9955 G1 X19.593 Y135.128
N9960 G2 X48.374 Y151.745 I22.699 J-6.082
N9965 X64.991 Y122.963 I-6.082 J-22.699
N9970 G1 X55 Y85.676
N9975 Y0.01
N9980 G2 X54 Y-0.99 I-1
N9985 G1 X0
N9990 G2 X-1 Y0.01 J1
N9995 G3 X-1.2 Y0.21 I-0.2
N10000 G1 X-1.4
N10005 G18 G3 X-1.6 Z-3.355 K0.2
N10010 G0 Z5
N10015 Y-0.19
N10020 G1 Z-1.555 F600
N10025 Z-3.91
N10030 G2 X-1.4 Z-4.11 I0.2
N10035 G1 X-1.2 F300
N10040 G17 G3 X-1 Y0.01 J0.2
N10045 G1 Y58.144 F600
N10050 G2 X-0.966 Y58.403 I1
N10055 G1 X19.593 Y135.128
N10060 G2 X48.374 Y151.745 I22.699 J-6.082
N10065 X64.991 Y122.963 I-6.082 J-22.699
N10070 G1 X55 Y85.676
N10075 Y0.01
N10080 G2 X54 Y-0.99 I-1
N10085 G1 X0
N10090 G2 X-1 Y0.01 J1
N10095 G3 X-1.2 Y0.21 I-0.2
N10100 G1 X-1.4
N10105 G18 G3 X-1.6 Z-3.91 K0.2
N10110 G0 Z15
N10115 G17
N10120 M9
N10125 G28
N10130 M30
%
