%
(1001)
(T1 D=2 CR=0 - ZMIN=-5.511 - flat end mill)
N10 G90 G94
N15 G17
N20 G21
N25 M9
N30 G28

(2D ????20)
N35 T1 M6
(0)
N40 S23873 M3
N45 G54
N50 M8
N55 G0 X7.98 Y16.232
N60 G43 Z15
N65 Z5
N70 G1 Z-0.8 F300
N75 G19 G3 Y16.432 Z-1 J0.2
N80 G1 Y18.553
N85 Y22.299 F600
N90 G17 G3 X7.197 Y22.301 I-0.391
N95 G1 X7.189 Y20.508
N100 X7.191 Y20.467
N105 X7.197 Y20.426
N110 X7.588 Y18.553
N115 G3 X7.812 Y18.276 I0.383 J0.08
N120 G1 X8.993 Y17.749
N125 G3 X9.544 Y18.106 I0.159 J0.357
N130 G1 Y22.887
N135 G3 X8.762 Y22.888 I-0.391
N140 G1 X8.757 Y20.561
N145 X8.762 Y20.496
N150 X9.153 Y18.106
N155 G3 X9.519 Y17.778 I0.386 J0.063
N160 G1 X10.697 Y17.717
N165 G3 X11.108 Y18.108 I0.02 J0.391
N170 G1 Y26.553
N175 G3 X10.326 I-0.391
N180 G1 Y22.331
N185 X10.717 Y18.108
N190 G3 X11.095 Y17.753 I0.389 J0.036
N195 G1 X12.27 Y17.719
N200 G3 X12.673 Y18.11 I0.011 J0.391
N205 G1 Y26.828
N210 G3 X11.891 I-0.391
N215 G1 Y22.469
N220 X12.282 Y18.11
N225 G3 X12.66 Y17.754 I0.39 J0.035
N230 G1 X13.835 Y17.721
N235 G3 X14.237 Y18.112 I0.011 J0.391
N240 G1 Y26.83
N245 G3 X13.455 I-0.391
N250 G1 Y22.471
N255 X13.846 Y18.112
N260 G3 X14.22 Y17.756 I0.39 J0.035
N265 G1 X15.395 Y17.71
N270 G3 X15.802 Y18.1 I0.015 J0.391
N275 G1 Y22.064
N280 Y22.895
N285 Y26.832
N290 G2 X16.201 Y26.849 I0.2
N295 G1 X16.967 Y18.085
N300 G3 X17.366 Y18.103 I0.199 J0.017
N305 G1 Y26.82
N310 G3 X16.584 I-0.391
N315 G1 Y22.461
N320 X16.975 Y18.103
N325 G3 X17.354 Y17.747 I0.39 J0.035
N330 G1 X18.529 Y17.714
N335 G3 X18.931 Y18.105 I0.011 J0.391
N340 G1 Y26.822
N345 G3 X18.148 Y26.823 I-0.391
N350 G1 Y22.463
N355 X18.539 Y18.105
N360 G3 X18.919 Y17.749 I0.39 J0.035
N365 G1 X20.099 Y17.718
N370 G3 X20.5 Y18.109 I0.01 J0.391
N375 G1 Y26.831
N380 G3 X20.179 Y26.99 I-0.2
N385 G1 X8.3 Y17.986
N390 G2 X7.98 Y18.146 I-0.121 J0.159
N395 G19 G2 Y18.346 Z-1.2 K-0.2 F300
N400 G1 Z-1.8
N405 G3 Y18.546 Z-2 J0.2
N410 G1 Y18.553
N415 Y22.299 F600
N420 G17 G3 X7.197 Y22.301 I-0.391
N425 G1 X7.189 Y20.508
N430 X7.191 Y20.467
N435 X7.197 Y20.426
N440 X7.588 Y18.553
N445 G3 X7.812 Y18.276 I0.383 J0.08
N450 G1 X8.993 Y17.749
N455 G3 X9.544 Y18.106 I0.159 J0.357
N460 G1 Y22.887
N465 G3 X8.762 Y22.888 I-0.391
N470 G1 X8.757 Y20.561
N475 X8.762 Y20.496
N480 X9.153 Y18.106
N485 G3 X9.519 Y17.778 I0.386 J0.063
N490 G1 X10.697 Y17.717
N495 G3 X11.108 Y18.108 I0.02 J0.391
N500 G1 Y26.553
N505 G3 X10.326 I-0.391
N510 G1 Y22.331
N515 X10.717 Y18.108
N520 G3 X11.095 Y17.753 I0.389 J0.036
N525 G1 X12.27 Y17.719
N530 G3 X12.673 Y18.11 I0.011 J0.391
N535 G1 Y26.828
N540 G3 X11.891 I-0.391
N545 G1 Y22.469
N550 X12.282 Y18.11
N555 G3 X12.66 Y17.754 I0.39 J0.035
N560 G1 X13.835 Y17.721
N565 G3 X14.237 Y18.112 I0.011 J0.391
N570 G1 Y26.83
N575 G3 X13.455 I-0.391
N580 G1 Y22.471
N585 X13.846 Y18.112
N590 G3 X14.22 Y17.756 I0.39 J0.035
N595 G1 X15.395 Y17.71
N600 G3 X15.802 Y18.1 I0.015 J0.391
N605 G1 Y22.064
N610 Y22.895
N615 Y26.832
N620 G2 X16.201 Y26.849 I0.2
N625 G1 X16.967 Y18.085
N630 G3 X17.366 Y18.103 I0.199 J0.017
N635 G1 Y26.82
N640 G3 X16.584 I-0.391
N645 G1 Y22.461
N650 X16.975 Y18.103
N655 G3 X17.354 Y17.747 I0.39 J0.035
N660 G1 X18.529 Y17.714
N665 G3 X18.931 Y18.105 I0.011 J0.391
N670 G1 Y26.822
N675 G3 X18.148 Y26.823 I-0.391
N680 G1 Y22.463
N685 X18.539 Y18.105
N690 G3 X18.919 Y17.749 I0.39 J0.035
N695 G1 X20.099 Y17.718
N700 G3 X20.5 Y18.109 I0.01 J0.391
N705 G1 Y26.831
N710 G3 X20.179 Y26.99 I-0.2
N715 G1 X8.3 Y17.986
N720 G2 X7.98 Y18.146 I-0.121 J0.159
N725 G19 G2 Y18.346 Z-2.2 K-0.2 F300
N730 G1 Z-2.8
N735 G3 Y18.546 Z-3 J0.2
N740 G1 Y18.553
N745 Y22.299 F600
N750 G17 G3 X7.197 Y22.301 I-0.391
N755 G1 X7.189 Y20.508
N760 X7.191 Y20.467
N765 X7.197 Y20.426
N770 X7.588 Y18.553
N775 G3 X7.812 Y18.276 I0.383 J0.08
N780 G1 X8.993 Y17.749
N785 G3 X9.544 Y18.106 I0.159 J0.357
N790 G1 Y22.887
N795 G3 X8.762 Y22.888 I-0.391
N800 G1 X8.757 Y20.561
N805 X8.762 Y20.496
N810 X9.153 Y18.106
N815 G3 X9.519 Y17.778 I0.386 J0.063
N820 G1 X10.697 Y17.717
N825 G3 X11.108 Y18.108 I0.02 J0.391
N830 G1 Y26.553
N835 G3 X10.326 I-0.391
N840 G1 Y22.331
N845 X10.717 Y18.108
N850 G3 X11.095 Y17.753 I0.389 J0.036
N855 G1 X12.27 Y17.719
N860 G3 X12.673 Y18.11 I0.011 J0.391
N865 G1 Y26.828
N870 G3 X11.891 I-0.391
N875 G1 Y22.469
N880 X12.282 Y18.11
N885 G3 X12.66 Y17.754 I0.39 J0.035
N890 G1 X13.835 Y17.721
N895 G3 X14.237 Y18.112 I0.011 J0.391
N900 G1 Y26.83
N905 G3 X13.455 I-0.391
N910 G1 Y22.471
N915 X13.846 Y18.112
N920 G3 X14.22 Y17.756 I0.39 J0.035
N925 G1 X15.395 Y17.71
N930 G3 X15.802 Y18.1 I0.015 J0.391
N935 G1 Y22.064
N940 Y22.895
N945 Y26.832
N950 G2 X16.201 Y26.849 I0.2
N955 G1 X16.967 Y18.085
N960 G3 X17.366 Y18.103 I0.199 J0.017
N965 G1 Y26.82
N970 G3 X16.584 I-0.391
N975 G1 Y22.461
N980 X16.975 Y18.103
N985 G3 X17.354 Y17.747 I0.39 J0.035
N990 G1 X18.529 Y17.714
N995 G3 X18.931 Y18.105 I0.011 J0.391
N1000 G1 Y26.822
N1005 G3 X18.148 Y26.823 I-0.391
N1010 G1 Y22.463
N1015 X18.539 Y18.105
N1020 G3 X18.919 Y17.749 I0.39 J0.035
N1025 G1 X20.099 Y17.718
N1030 G3 X20.5 Y18.109 I0.01 J0.391
N1035 G1 Y26.831
N1040 G3 X18.866 Y27.49 Z-3.063 I-0.95
N1045 G1 X9.613 Y17.894 Z-3.438
N1050 G2 X7.98 Y18.553 Z-3.501 I-0.684 J0.659
N1055 G1 Y22.299
N1060 G3 X7.197 Y22.301 I-0.391
N1065 G1 X7.189 Y20.508
N1070 X7.191 Y20.467
N1075 X7.197 Y20.426
N1080 X7.588 Y18.553
N1085 G3 X7.812 Y18.276 I0.383 J0.08
N1090 G1 X8.993 Y17.749
N1095 G3 X9.544 Y18.106 I0.159 J0.357
N1100 G1 Y22.887
N1105 G3 X8.762 Y22.888 I-0.391
N1110 G1 X8.757 Y20.561
N1115 X8.762 Y20.496
N1120 X9.153 Y18.106
N1125 G3 X9.519 Y17.778 I0.386 J0.063
N1130 G1 X10.697 Y17.717
N1135 G3 X11.108 Y18.108 I0.02 J0.391
N1140 G1 Y26.553
N1145 G3 X10.326 I-0.391
N1150 G1 Y22.331
N1155 X10.717 Y18.108
N1160 G3 X11.095 Y17.753 I0.389 J0.036
N1165 G1 X12.27 Y17.719
N1170 G3 X12.673 Y18.11 I0.011 J0.391
N1175 G1 Y26.828
N1180 G3 X11.891 I-0.391
N1185 G1 Y22.469
N1190 X12.282 Y18.11
N1195 G3 X12.66 Y17.754 I0.39 J0.035
N1200 G1 X13.835 Y17.721
N1205 G3 X14.237 Y18.112 I0.011 J0.391
N1210 G1 Y26.83
N1215 G3 X13.455 I-0.391
N1220 G1 Y22.471
N1225 X13.846 Y18.112
N1230 G3 X14.22 Y17.756 I0.39 J0.035
N1235 G1 X15.395 Y17.71
N1240 G3 X15.802 Y18.1 I0.015 J0.391
N1245 G1 Y22.064
N1250 Y22.895
N1255 Y26.832
N1260 G2 X16.201 Y26.849 I0.2
N1265 G1 X16.967 Y18.085
N1270 G3 X17.366 Y18.103 I0.199 J0.017
N1275 G1 Y26.82
N1280 G3 X16.584 I-0.391
N1285 G1 Y22.461
N1290 X16.975 Y18.103
N1295 G3 X17.354 Y17.747 I0.39 J0.035
N1300 G1 X18.529 Y17.714
N1305 G3 X18.931 Y18.105 I0.011 J0.391
N1310 G1 Y26.822
N1315 G3 X18.148 Y26.823 I-0.391
N1320 G1 Y22.463
N1325 X18.539 Y18.105
N1330 G3 X18.919 Y17.749 I0.39 J0.035
N1335 G1 X20.099 Y17.718
N1340 G3 X20.5 Y18.109 I0.01 J0.391
N1345 G1 Y26.831
N1350 X20.498 Y26.862
N1355 X20.341 Y27.85
N1360 X20.333 Y27.901 Z-3.494
N1365 X20.325 Y27.949 Z-3.474
N1370 X20.319 Y27.99 Z-3.442
N1375 X20.314 Y28.021 Z-3.401
N1380 X20.311 Y28.041 Z-3.353
N1385 X20.31 Y28.048 Z-3.301
N1390 G0 Z15
N1395 X7.98 Y133.135
N1400 Z5
N1405 G1 Z-0.8 F300
N1410 G19 G3 Y133.335 Z-1 J0.2
N1415 G1 Y135.558
N1420 Y139.168 F600
N1425 G17 G3 X7.197 Y139.17 I-0.391
N1430 G1 X7.188 Y137.448
N1435 X7.191 Y137.406
N1440 X7.197 Y137.363
N1445 X7.588 Y135.558
N1450 G3 X7.779 Y135.301 I0.382 J0.083
N1455 G1 X8.961 Y134.634
N1460 G3 X9.544 Y134.975 I0.192 J0.341
N1465 G1 Y139.756
N1470 G3 X8.762 Y139.757 I-0.391
N1475 G1 X8.757 Y137.429
N1480 X8.762 Y137.365
N1485 X9.153 Y134.975
N1490 X9.166 Y134.92
N1495 X10.344 Y131.195
N1500 G3 X11.108 Y131.313 I0.373 J0.118
N1505 G1 Y139.758
N1510 G3 X10.326 I-0.391
N1515 G1 Y135.535
N1520 X10.717 Y131.313
N1525 G3 X11.008 Y130.97 I0.389 J0.036
N1530 G1 X12.183 Y130.664
N1535 G3 X12.673 Y131.042 I0.099 J0.378
N1540 G1 Y139.76
N1545 G3 X11.891 I-0.391
N1550 G1 Y135.401
N1555 X12.282 Y131.042
N1560 G3 X12.66 Y130.686 I0.39 J0.035
N1565 G1 X13.81 Y130.652
N1570 G3 X14.212 Y131.044 I0.012 J0.391
N1575 G1 X14.192 Y138.864
N1580 X14.196 Y139.763
N1585 G3 X13.806 Y140.156 I-0.391 J0.002
N1590 X13.414 Y139.764 I-0.001 J-0.391
N1595 G1 X13.419 Y135.402
N1600 X13.821 Y131.043
N1605 G3 X14.195 Y130.688 I0.389 J0.036
N1610 G1 X15.395 Y130.642
N1615 G3 X15.802 Y131.033 I0.015 J0.391
N1620 G1 Y134.969
N1625 Y135.8
N1630 Y139.751
N1635 G2 X16.201 Y139.768 I0.2
N1640 G1 X16.967 Y131.017
N1645 G3 X17.366 Y131.035 I0.199 J0.017
N1650 G1 Y139.753
N1655 G3 X16.584 I-0.391
N1660 G1 Y135.394
N1665 X16.975 Y131.035
N1670 G3 X17.354 Y130.679 I0.39 J0.035
N1675 G1 X18.529 Y130.646
N1680 G3 X18.931 Y131.037 I0.011 J0.391
N1685 G1 Y139.755
N1690 G3 X18.148 I-0.391
N1695 G1 Y135.396
N1700 X18.539 Y131.037
N1705 G3 X18.919 Y130.681 I0.39 J0.035
N1710 G1 X20.099 Y130.65
N1715 G3 X20.5 Y131.041 I0.01 J0.391
N1720 G1 Y139.763
N1725 G3 X20.223 Y139.948 I-0.2
N1730 G1 X8.256 Y134.966
N1735 G2 X7.98 Y135.151 I-0.077 J0.185
N1740 G19 G2 Y135.351 Z-1.2 K-0.2 F300
N1745 G1 Z-1.8
N1750 G3 Y135.551 Z-2 J0.2
N1755 G1 Y135.558
N1760 Y139.168 F600
N1765 G17 G3 X7.197 Y139.17 I-0.391
N1770 G1 X7.188 Y137.448
N1775 X7.191 Y137.406
N1780 X7.197 Y137.363
N1785 X7.588 Y135.558
N1790 G3 X7.779 Y135.301 I0.382 J0.083
N1795 G1 X8.961 Y134.634
N1800 G3 X9.544 Y134.975 I0.192 J0.341
N1805 G1 Y139.756
N1810 G3 X8.762 Y139.757 I-0.391
N1815 G1 X8.757 Y137.429
N1820 X8.762 Y137.365
N1825 X9.153 Y134.975
N1830 X9.166 Y134.92
N1835 X10.344 Y131.195
N1840 G3 X11.108 Y131.313 I0.373 J0.118
N1845 G1 Y139.758
N1850 G3 X10.326 I-0.391
N1855 G1 Y135.535
N1860 X10.717 Y131.313
N1865 G3 X11.008 Y130.97 I0.389 J0.036
N1870 G1 X12.183 Y130.664
N1875 G3 X12.673 Y131.042 I0.099 J0.378
N1880 G1 Y139.76
N1885 G3 X11.891 I-0.391
N1890 G1 Y135.401
N1895 X12.282 Y131.042
N1900 G3 X12.66 Y130.686 I0.39 J0.035
N1905 G1 X13.81 Y130.652
N1910 G3 X14.212 Y131.044 I0.012 J0.391
N1915 G1 X14.192 Y138.864
N1920 X14.196 Y139.763
N1925 G3 X13.806 Y140.156 I-0.391 J0.002
N1930 X13.414 Y139.764 I-0.001 J-0.391
N1935 G1 X13.419 Y135.402
N1940 X13.821 Y131.043
N1945 G3 X14.195 Y130.688 I0.389 J0.036
N1950 G1 X15.395 Y130.642
N1955 G3 X15.802 Y131.033 I0.015 J0.391
N1960 G1 Y134.969
N1965 Y135.8
N1970 Y139.751
N1975 G2 X16.201 Y139.768 I0.2
N1980 G1 X16.967 Y131.017
N1985 G3 X17.366 Y131.035 I0.199 J0.017
N1990 G1 Y139.753
N1995 G3 X16.584 I-0.391
N2000 G1 Y135.394
N2005 X16.975 Y131.035
N2010 G3 X17.354 Y130.679 I0.39 J0.035
N2015 G1 X18.529 Y130.646
N2020 G3 X18.931 Y131.037 I0.011 J0.391
N2025 G1 Y139.755
N2030 G3 X18.148 I-0.391
N2035 G1 Y135.396
N2040 X18.539 Y131.037
N2045 G3 X18.919 Y130.681 I0.39 J0.035
N2050 G1 X20.099 Y130.65
N2055 G3 X20.5 Y131.041 I0.01 J0.391
N2060 G1 Y139.763
N2065 G3 X20.223 Y139.948 I-0.2
N2070 G1 X8.256 Y134.966
N2075 G2 X7.98 Y135.151 I-0.077 J0.185
N2080 G19 G2 Y135.351 Z-2.2 K-0.2 F300
N2085 G1 Z-2.8
N2090 G3 Y135.551 Z-3 J0.2
N2095 G1 Y135.558
N2100 Y139.168 F600
N2105 G17 G3 X7.197 Y139.17 I-0.391
N2110 G1 X7.188 Y137.448
N2115 X7.191 Y137.406
N2120 X7.197 Y137.363
N2125 X7.588 Y135.558
N2130 G3 X7.779 Y135.301 I0.382 J0.083
N2135 G1 X8.961 Y134.634
N2140 G3 X9.544 Y134.975 I0.192 J0.341
N2145 G1 Y139.756
N2150 G3 X8.762 Y139.757 I-0.391
N2155 G1 X8.757 Y137.429
N2160 X8.762 Y137.365
N2165 X9.153 Y134.975
N2170 X9.166 Y134.92
N2175 X10.344 Y131.195
N2180 G3 X11.108 Y131.313 I0.373 J0.118
N2185 G1 Y139.758
N2190 G3 X10.326 I-0.391
N2195 G1 Y135.535
N2200 X10.717 Y131.313
N2205 G3 X11.008 Y130.97 I0.389 J0.036
N2210 G1 X12.183 Y130.664
N2215 G3 X12.673 Y131.042 I0.099 J0.378
N2220 G1 Y139.76
N2225 G3 X11.891 I-0.391
N2230 G1 Y135.401
N2235 X12.282 Y131.042
N2240 G3 X12.66 Y130.686 I0.39 J0.035
N2245 G1 X13.81 Y130.652
N2250 G3 X14.212 Y131.044 I0.012 J0.391
N2255 G1 X14.192 Y138.864
N2260 X14.196 Y139.763
N2265 G3 X13.806 Y140.156 I-0.391 J0.002
N2270 X13.414 Y139.764 I-0.001 J-0.391
N2275 G1 X13.419 Y135.402
N2280 X13.821 Y131.043
N2285 G3 X14.195 Y130.688 I0.389 J0.036
N2290 G1 X15.395 Y130.642
N2295 G3 X15.802 Y131.033 I0.015 J0.391
N2300 G1 Y134.969
N2305 Y135.8
N2310 Y139.751
N2315 G2 X16.201 Y139.768 I0.2
N2320 G1 X16.967 Y131.017
N2325 G3 X17.366 Y131.035 I0.199 J0.017
N2330 G1 Y139.753
N2335 G3 X16.584 I-0.391
N2340 G1 Y135.394
N2345 X16.975 Y131.035
N2350 G3 X17.354 Y130.679 I0.39 J0.035
N2355 G1 X18.529 Y130.646
N2360 G3 X18.931 Y131.037 I0.011 J0.391
N2365 G1 Y139.755
N2370 G3 X18.148 I-0.391
N2375 G1 Y135.396
N2380 X18.539 Y131.037
N2385 G3 X18.919 Y130.681 I0.39 J0.035
N2390 G1 X20.099 Y130.65
N2395 G3 X20.5 Y131.041 I0.01 J0.391
N2400 G1 Y139.763
N2405 G3 X19.058 Y140.576 Z-3.066 I-0.95
N2410 G1 X9.421 Y134.746 Z-3.435
N2415 G2 X7.98 Y135.558 Z-3.501 I-0.492 J0.813
N2420 G1 Y139.168
N2425 G3 X7.197 Y139.17 I-0.391
N2430 G1 X7.188 Y137.448
N2435 X7.191 Y137.406
N2440 X7.197 Y137.363
N2445 X7.588 Y135.558
N2450 G3 X7.779 Y135.301 I0.382 J0.083
N2455 G1 X8.961 Y134.634
N2460 G3 X9.544 Y134.975 I0.192 J0.341
N2465 G1 Y139.756
N2470 G3 X8.762 Y139.757 I-0.391
N2475 G1 X8.757 Y137.429
N2480 X8.762 Y137.365
N2485 X9.153 Y134.975
N2490 X9.166 Y134.92
N2495 X10.344 Y131.195
N2500 G3 X11.108 Y131.313 I0.373 J0.118
N2505 G1 Y139.758
N2510 G3 X10.326 I-0.391
N2515 G1 Y135.535
N2520 X10.717 Y131.313
N2525 G3 X11.008 Y130.97 I0.389 J0.036
N2530 G1 X12.183 Y130.664
N2535 G3 X12.673 Y131.042 I0.099 J0.378
N2540 G1 Y139.76
N2545 G3 X11.891 I-0.391
N2550 G1 Y135.401
N2555 X12.282 Y131.042
N2560 G3 X12.66 Y130.686 I0.39 J0.035
N2565 G1 X13.81 Y130.652
N2570 G3 X14.212 Y131.044 I0.012 J0.391
N2575 G1 X14.192 Y138.864
N2580 X14.196 Y139.763
N2585 G3 X13.806 Y140.156 I-0.391 J0.002
N2590 X13.414 Y139.764 I-0.001 J-0.391
N2595 G1 X13.419 Y135.402
N2600 X13.821 Y131.043
N2605 G3 X14.195 Y130.688 I0.389 J0.036
N2610 G1 X15.395 Y130.642
N2615 G3 X15.802 Y131.033 I0.015 J0.391
N2620 G1 Y134.969
N2625 Y135.8
N2630 Y139.751
N2635 G2 X16.201 Y139.768 I0.2
N2640 G1 X16.967 Y131.017
N2645 G3 X17.366 Y131.035 I0.199 J0.017
N2650 G1 Y139.753
N2655 G3 X16.584 I-0.391
N2660 G1 Y135.394
N2665 X16.975 Y131.035
N2670 G3 X17.354 Y130.679 I0.39 J0.035
N2675 G1 X18.529 Y130.646
N2680 G3 X18.931 Y131.037 I0.011 J0.391
N2685 G1 Y139.755
N2690 G3 X18.148 I-0.391
N2695 G1 Y135.396
N2700 X18.539 Y131.037
N2705 G3 X18.919 Y130.681 I0.39 J0.035
N2710 G1 X20.099 Y130.65
N2715 G3 X20.5 Y131.041 I0.01 J0.391
N2720 G1 Y139.763
N2725 X20.498 Y139.794
N2730 X20.341 Y140.782
N2735 X20.333 Y140.833 Z-3.494
N2740 X20.325 Y140.881 Z-3.474
N2745 X20.319 Y140.922 Z-3.442
N2750 X20.314 Y140.953 Z-3.401
N2755 X20.311 Y140.973 Z-3.353
N2760 X20.31 Y140.98 Z-3.301
N2765 G0 Z15
N2770 X34.996 Y161.843
N2775 Z5
N2780 G1 Z2.7 F300
N2785 X35.019 Y161.855 Z2.602 F600
N2790 X35.08 Y161.89 Z2.529
N2795 X35.159 Y161.947 Z2.5
N2800 G3 X33.981 Y163.437 Z2.396 I-0.589 J0.745
N2805 X35.159 Y161.947 Z2.292 I0.589 J-0.745
N2810 X33.981 Y163.437 Z2.187 I-0.589 J0.745
N2815 X35.159 Y161.947 Z2.083 I0.589 J-0.745
N2820 X33.981 Y163.437 Z1.979 I-0.589 J0.745
N2825 X35.159 Y161.947 Z1.875 I0.589 J-0.745
N2830 X33.981 Y163.437 Z1.77 I-0.589 J0.745
N2835 X35.159 Y161.947 Z1.666 I0.589 J-0.745
N2840 X33.981 Y163.437 Z1.562 I-0.589 J0.745
N2845 X35.159 Y161.947 Z1.458 I0.589 J-0.745
N2850 X33.981 Y163.437 Z1.354 I-0.589 J0.745
N2855 X35.159 Y161.947 Z1.249 I0.589 J-0.745
N2860 X33.981 Y163.437 Z1.145 I-0.589 J0.745
N2865 X35.159 Y161.947 Z1.041 I0.589 J-0.745
N2870 X33.981 Y163.437 Z0.937 I-0.589 J0.745
N2875 X35.159 Y161.947 Z0.832 I0.589 J-0.745
N2880 X33.981 Y163.437 Z0.728 I-0.589 J0.745
N2885 X35.159 Y161.947 Z0.624 I0.589 J-0.745
N2890 X33.981 Y163.437 Z0.52 I-0.589 J0.745
N2895 X35.159 Y161.947 Z0.416 I0.589 J-0.745
N2900 X33.981 Y163.437 Z0.311 I-0.589 J0.745
N2905 X35.159 Y161.947 Z0.207 I0.589 J-0.745
N2910 X33.981 Y163.437 Z0.103 I-0.589 J0.745
N2915 X35.159 Y161.947 Z-0.001 I0.589 J-0.745
N2920 X33.981 Y163.437 Z-0.106 I-0.589 J0.745
N2925 X35.159 Y161.947 Z-0.21 I0.589 J-0.745
N2930 X33.981 Y163.437 Z-0.314 I-0.589 J0.745
N2935 X35.159 Y161.947 Z-0.418 I0.589 J-0.745
N2940 X33.981 Y163.437 Z-0.522 I-0.589 J0.745
N2945 X35.159 Y161.947 Z-0.627 I0.589 J-0.745
N2950 X33.981 Y163.437 Z-0.731 I-0.589 J0.745
N2955 X35.159 Y161.947 Z-0.835 I0.589 J-0.745
N2960 X33.981 Y163.437 Z-0.939 I-0.589 J0.745
N2965 X34 Y161.932 Z-1 I0.589 J-0.745
N2970 X37 Y165.932 I1.5 J2
N2975 X34 Y161.932 I-1.5 J-2
N2980 X37 Y165.932 Z-1.274 I1.5 J2
N2985 X34 Y161.932 Z-1.549 I-1.5 J-2
N2990 X37 Y165.932 Z-1.823 I1.5 J2
N2995 X33.042 Y164.391 Z-2 I-1.5 J-2
N3000 X37.958 Y163.473 I2.458 J-0.459
N3005 X33.042 Y164.391 I-2.458 J0.459
N3010 X37.958 Y163.473 Z-2.274 I2.458 J-0.459
N3015 X33.042 Y164.391 Z-2.549 I-2.458 J0.459
N3020 X37.958 Y163.473 Z-2.823 I2.458 J-0.459
N3025 X34.552 Y166.245 Z-3.01 I-2.458 J0.459
N3030 X36.448 Y161.619 I0.948 J-2.313
N3035 X34.552 Y166.245 I-0.948 J2.313
N3040 G1 X34.509 Y166.221 Z-2.997
N3045 X34.473 Y166.186 Z-2.983
N3050 X34.452 Y166.156 Z-2.947
N3055 X34.438 Y166.122 Z-2.91
N3060 X34.431 Y166.096 Z-2.81
N3065 G0 Z15
N3070 X34.996 Y51.843
N3075 Z5
N3080 G1 Z2.7 F300
N3085 X35.019 Y51.855 Z2.602 F600
N3090 X35.08 Y51.89 Z2.529
N3095 X35.159 Y51.947 Z2.5
N3100 G3 X33.981 Y53.437 Z2.396 I-0.589 J0.745
N3105 X35.159 Y51.947 Z2.292 I0.589 J-0.745
N3110 X33.981 Y53.437 Z2.187 I-0.589 J0.745
N3115 X35.159 Y51.947 Z2.083 I0.589 J-0.745
N3120 X33.981 Y53.437 Z1.979 I-0.589 J0.745
N3125 X35.159 Y51.947 Z1.875 I0.589 J-0.745
N3130 X33.981 Y53.437 Z1.77 I-0.589 J0.745
N3135 X35.159 Y51.947 Z1.666 I0.589 J-0.745
N3140 X33.981 Y53.437 Z1.562 I-0.589 J0.745
N3145 X35.159 Y51.947 Z1.458 I0.589 J-0.745
N3150 X33.981 Y53.437 Z1.354 I-0.589 J0.745
N3155 X35.159 Y51.947 Z1.249 I0.589 J-0.745
N3160 X33.981 Y53.437 Z1.145 I-0.589 J0.745
N3165 X35.159 Y51.947 Z1.041 I0.589 J-0.745
N3170 X33.981 Y53.437 Z0.937 I-0.589 J0.745
N3175 X35.159 Y51.947 Z0.832 I0.589 J-0.745
N3180 X33.981 Y53.437 Z0.728 I-0.589 J0.745
N3185 X35.159 Y51.947 Z0.624 I0.589 J-0.745
N3190 X33.981 Y53.437 Z0.52 I-0.589 J0.745
N3195 X35.159 Y51.947 Z0.416 I0.589 J-0.745
N3200 X33.981 Y53.437 Z0.311 I-0.589 J0.745
N3205 X35.159 Y51.947 Z0.207 I0.589 J-0.745
N3210 X33.981 Y53.437 Z0.103 I-0.589 J0.745
N3215 X35.159 Y51.947 Z-0.001 I0.589 J-0.745
N3220 X33.981 Y53.437 Z-0.106 I-0.589 J0.745
N3225 X35.159 Y51.947 Z-0.21 I0.589 J-0.745
N3230 X33.981 Y53.437 Z-0.314 I-0.589 J0.745
N3235 X35.159 Y51.947 Z-0.418 I0.589 J-0.745
N3240 X33.981 Y53.437 Z-0.522 I-0.589 J0.745
N3245 X35.159 Y51.947 Z-0.627 I0.589 J-0.745
N3250 X33.981 Y53.437 Z-0.731 I-0.589 J0.745
N3255 X35.159 Y51.947 Z-0.835 I0.589 J-0.745
N3260 X33.981 Y53.437 Z-0.939 I-0.589 J0.745
N3265 X34 Y51.932 Z-1 I0.589 J-0.745
N3270 X37 Y55.932 I1.5 J2
N3275 X34 Y51.932 I-1.5 J-2
N3280 X37 Y55.932 Z-1.274 I1.5 J2
N3285 X34 Y51.932 Z-1.549 I-1.5 J-2
N3290 X37 Y55.932 Z-1.823 I1.5 J2
N3295 X33.042 Y54.391 Z-2 I-1.5 J-2
N3300 X37.958 Y53.473 I2.458 J-0.459
N3305 X33.042 Y54.391 I-2.458 J0.459
N3310 X37.958 Y53.473 Z-2.274 I2.458 J-0.459
N3315 X33.042 Y54.391 Z-2.549 I-2.458 J0.459
N3320 X37.958 Y53.473 Z-2.823 I2.458 J-0.459
N3325 X34.552 Y56.245 Z-3.01 I-2.458 J0.459
N3330 X36.448 Y51.619 I0.948 J-2.313
N3335 X34.552 Y56.245 I-0.948 J2.313
N3340 G1 X34.509 Y56.221 Z-2.997
N3345 X34.473 Y56.186 Z-2.983
N3350 X34.452 Y56.156 Z-2.947
N3355 X34.438 Y56.122 Z-2.91
N3360 X34.431 Y56.096 Z-2.81
N3365 G0 Z15
N3370 X65.327 Y28.792
N3375 Z5
N3380 G1 Z-0.8 F300
N3385 G19 G2 Y28.592 Z-1 J-0.2
N3390 G1 Y26.83
N3395 Y25.078 F600
N3400 G17 G3 X65.646 Y24.759 I0.319
N3405 G1 X66.9
N3410 X66.907
N3415 G18 G2 X67.107 Z-0.8 K0.2
N3420 G1 X63.763 Y28.79
N3425 G19 G2 Y28.59 Z-1 J-0.2 F300
N3430 G1 Y26.828
N3435 Y23.514 F600
N3440 G17 G3 X64.082 Y23.195 I0.319
N3445 G1 X66.888
N3450 X66.896
N3455 G18 G2 X67.096 Z-0.8 K0.2
N3460 G1 Z2
N3465 X62.135 Y21.884
N3470 Z-0.8 F300
N3475 X62.14 Y21.879 Z-0.852
N3480 X62.154 Y21.865 Z-0.9
N3485 X62.176 Y21.842 Z-0.941
N3490 X62.205 Y21.812 Z-0.973
N3495 X62.239 Y21.778 Z-0.993
N3500 X62.275 Y21.741 Z-1
N3505 X62.289 Y21.727
N3510 X62.338 Y21.686 F600
N3515 X62.394 Y21.655
N3520 X62.454 Y21.637
N3525 X62.518 Y21.63
N3530 X66.89
N3535 G17 G3 X67.039 Y21.964 J0.2
N3540 G1 X62.547 Y26.96
N3545 G3 X62.198 Y26.826 I-0.149 J-0.134
N3550 G1 Y22.344
N3555 G3 X62.98 Y22.343 I0.391
N3560 G1 X62.986 Y24.517
N3565 X62.981 Y24.585
N3570 X62.589 Y26.826
N3575 G3 X62.226 Y27.149 I-0.385 J-0.067
N3580 G1 X61.047 Y27.214
N3585 G3 X60.634 Y26.824 I-0.022 J-0.391
N3590 G1 Y20.385
N3595 G3 X60.953 Y20.066 I0.319
N3600 G1 X66.892
N3605 X66.9
N3610 G18 G2 X67.1 Z-0.8 K0.2
N3615 G1 X59.069 Y28.792
N3620 G19 G2 Y28.592 Z-1 J-0.2 F300
N3625 G1 Y26.822
N3630 Y18.821 F600
N3635 G17 G3 X59.389 Y18.501 I0.319
N3640 G1 X66.894
N3645 X67.894
N3650 G18 G2 X68.094 Z-0.8 K0.2
N3655 G1 X57.808 Y28.792
N3660 Z-0.82
N3665 X57.807 Y28.785 Z-0.867 F300
N3670 X57.804 Y28.768 Z-0.91
N3675 X57.8 Y28.739 Z-0.947
N3680 X57.794 Y28.703 Z-0.976
N3685 X57.787 Y28.66 Z-0.994
N3690 X57.78 Y28.614 Z-1
N3695 X57.502 Y26.862
N3700 X57.5 Y26.831
N3705 Y16.932 F600
N3710 X66
N3715 X66.899
N3720 X66.934 Y16.938
N3725 X66.965 Y16.957
N3730 X66.987 Y16.985
N3735 X66.998 Y17.019
N3740 X67.877 Y23.849
N3745 X67.881 Y23.878
N3750 X67.876 Y23.907
N3755 X67.863 Y23.934
N3760 X65.509 Y27.295
N3765 X65.483 Y27.32
N3770 X65.451 Y27.335
N3775 X65.415 Y27.337
N3780 X65.38 Y27.326
N3785 X65.352 Y27.304
N3790 X65.334 Y27.273
N3795 X65.327 Y27.238
N3800 G19 G3 Y27.038 Z-1.2 K-0.2 F300
N3805 G1 Z-1.8
N3810 G2 Y26.838 Z-2 J-0.2
N3815 G1 Y26.83
N3820 Y25.078 F600
N3825 G17 G3 X65.646 Y24.759 I0.319
N3830 G1 X66.9
N3835 X66.907
N3840 G18 G2 X67.107 Z-1.8 K0.2
N3845 G1 X63.763 Y28.79
N3850 G19 G2 Y28.59 Z-2 J-0.2 F300
N3855 G1 Y26.828
N3860 Y23.514 F600
N3865 G17 G3 X64.082 Y23.195 I0.319
N3870 G1 X66.888
N3875 X66.896
N3880 G18 G2 X67.096 Z-1.8 K0.2
N3885 G1 Z1
N3890 X62.135 Y21.884
N3895 Z-1.8 F300
N3900 X62.14 Y21.879 Z-1.852
N3905 X62.154 Y21.865 Z-1.9
N3910 X62.176 Y21.842 Z-1.941
N3915 X62.205 Y21.812 Z-1.973
N3920 X62.239 Y21.778 Z-1.993
N3925 X62.275 Y21.741 Z-2
N3930 X62.289 Y21.727
N3935 X62.338 Y21.686 F600
N3940 X62.394 Y21.655
N3945 X62.454 Y21.637
N3950 X62.518 Y21.63
N3955 X66.89
N3960 G17 G3 X67.039 Y21.964 J0.2
N3965 G1 X62.547 Y26.96
N3970 G3 X62.198 Y26.826 I-0.149 J-0.134
N3975 G1 Y22.344
N3980 G3 X62.98 Y22.343 I0.391
N3985 G1 X62.986 Y24.517
N3990 X62.981 Y24.585
N3995 X62.589 Y26.826
N4000 G3 X62.226 Y27.149 I-0.385 J-0.067
N4005 G1 X61.047 Y27.214
N4010 G3 X60.634 Y26.824 I-0.022 J-0.391
N4015 G1 Y20.385
N4020 G3 X60.953 Y20.066 I0.319
N4025 G1 X66.892
N4030 X66.9
N4035 G18 G2 X67.1 Z-1.8 K0.2
N4040 G1 X59.069 Y28.792
N4045 G19 G2 Y28.592 Z-2 J-0.2 F300
N4050 G1 Y26.822
N4055 Y18.821 F600
N4060 G17 G3 X59.389 Y18.501 I0.319
N4065 G1 X66.894
N4070 X67.894
N4075 G18 G2 X68.094 Z-1.8 K0.2
N4080 G1 X57.808 Y28.792
N4085 Z-1.82
N4090 X57.807 Y28.785 Z-1.867 F300
N4095 X57.804 Y28.768 Z-1.91
N4100 X57.8 Y28.739 Z-1.947
N4105 X57.794 Y28.703 Z-1.976
N4110 X57.787 Y28.66 Z-1.994
N4115 X57.78 Y28.614 Z-2
N4120 X57.502 Y26.862
N4125 X57.5 Y26.831
N4130 Y16.932 F600
N4135 X66
N4140 X66.899
N4145 X66.934 Y16.938
N4150 X66.965 Y16.957
N4155 X66.987 Y16.985
N4160 X66.998 Y17.019
N4165 X67.877 Y23.849
N4170 X67.881 Y23.878
N4175 X67.876 Y23.907
N4180 X67.863 Y23.934
N4185 X65.509 Y27.295
N4190 X65.483 Y27.32
N4195 X65.451 Y27.335
N4200 X65.415 Y27.337
N4205 X65.38 Y27.326
N4210 X65.352 Y27.304
N4215 X65.334 Y27.273
N4220 X65.327 Y27.238
N4225 G19 G3 Y27.038 Z-2.2 K-0.2 F300
N4230 G1 Z-2.8
N4235 G2 Y26.838 Z-3 J-0.2
N4240 G1 Y26.83
N4245 Y25.078 F600
N4250 G17 G3 X65.646 Y24.759 I0.319
N4255 G1 X66.9
N4260 X66.907
N4265 G18 G2 X67.107 Z-2.8 K0.2
N4270 G1 X63.763 Y28.79
N4275 G19 G2 Y28.59 Z-3 J-0.2 F300
N4280 G1 Y26.828
N4285 Y23.514 F600
N4290 G17 G3 X64.082 Y23.195 I0.319
N4295 G1 X66.888
N4300 X66.896
N4305 G18 G2 X67.096 Z-2.8 K0.2
N4310 G1 Z0
N4315 X62.135 Y21.884
N4320 Z-2.8 F300
N4325 X62.14 Y21.879 Z-2.852
N4330 X62.154 Y21.865 Z-2.9
N4335 X62.176 Y21.842 Z-2.941
N4340 X62.205 Y21.812 Z-2.973
N4345 X62.239 Y21.778 Z-2.993
N4350 X62.275 Y21.741 Z-3
N4355 X62.289 Y21.727
N4360 X62.338 Y21.686 F600
N4365 X62.394 Y21.655
N4370 X62.454 Y21.637
N4375 X62.518 Y21.63
N4380 X66.89
N4385 G17 G3 X67.039 Y21.964 J0.2
N4390 G1 X62.547 Y26.96
N4395 G3 X62.198 Y26.826 I-0.149 J-0.134
N4400 G1 Y22.344
N4405 G3 X62.98 Y22.343 I0.391
N4410 G1 X62.986 Y24.517
N4415 X62.981 Y24.585
N4420 X62.589 Y26.826
N4425 G3 X62.226 Y27.149 I-0.385 J-0.067
N4430 G1 X61.047 Y27.214
N4435 G3 X60.634 Y26.824 I-0.022 J-0.391
N4440 G1 Y20.385
N4445 G3 X60.953 Y20.066 I0.319
N4450 G1 X66.892
N4455 X66.9
N4460 G18 G2 X67.1 Z-2.8 K0.2
N4465 G1 X59.069 Y28.792
N4470 G19 G2 Y28.592 Z-3 J-0.2 F300
N4475 G1 Y26.822
N4480 Y18.821 F600
N4485 G17 G3 X59.389 Y18.501 I0.319
N4490 G1 X66.894
N4495 X67.894
N4500 G18 G2 X68.094 Z-2.8 K0.2
N4505 G1 X57.808 Y28.792
N4510 Z-2.82
N4515 X57.807 Y28.785 Z-2.867 F300
N4520 X57.804 Y28.768 Z-2.91
N4525 X57.8 Y28.739 Z-2.947
N4530 X57.794 Y28.703 Z-2.976
N4535 X57.787 Y28.66 Z-2.994
N4540 X57.78 Y28.614 Z-3
N4545 X57.502 Y26.862
N4550 X57.5 Y26.831
N4555 Y16.932 F600
N4560 X66
N4565 X66.899
N4570 X66.934 Y16.938
N4575 X66.965 Y16.957
N4580 X66.987 Y16.985
N4585 X66.998 Y17.019
N4590 X67.877 Y23.849
N4595 X67.881 Y23.878
N4600 X67.876 Y23.907
N4605 X67.863 Y23.934
N4610 X65.509 Y27.295
N4615 X65.483 Y27.32
N4620 X65.451 Y27.335
N4625 X65.415 Y27.337
N4630 X65.38 Y27.326
N4635 X65.352 Y27.304
N4640 X65.334 Y27.273
N4645 X65.327 Y27.238
N4650 G19 G3 Y27.038 Z-3.2 K-0.2 F300
N4655 G1 Z-3.311
N4660 G2 Y26.838 Z-3.511 J-0.2
N4665 G1 Y26.83
N4670 Y25.078 F600
N4675 G17 G3 X65.646 Y24.759 I0.319
N4680 G1 X66.9
N4685 X66.907
N4690 G18 G2 X67.107 Z-3.311 K0.2
N4695 G1 X63.763 Y28.79
N4700 G19 G2 Y28.59 Z-3.511 J-0.2 F300
N4705 G1 Y26.828
N4710 Y23.514 F600
N4715 G17 G3 X64.082 Y23.195 I0.319
N4720 G1 X66.888
N4725 X66.896
N4730 G18 G2 X67.096 Z-3.311 K0.2
N4735 G1 Z-1
N4740 X62.135 Y21.884
N4745 Z-3.311 F300
N4750 X62.14 Y21.879 Z-3.363
N4755 X62.154 Y21.865 Z-3.411
N4760 X62.176 Y21.842 Z-3.452
N4765 X62.205 Y21.812 Z-3.484
N4770 X62.239 Y21.778 Z-3.504
N4775 X62.275 Y21.741 Z-3.511
N4780 X62.289 Y21.727
N4785 X62.338 Y21.686 F600
N4790 X62.394 Y21.655
N4795 X62.454 Y21.637
N4800 X62.518 Y21.63
N4805 X66.89
N4810 G17 G3 X67.039 Y21.964 J0.2
N4815 G1 X62.547 Y26.96
N4820 G3 X62.198 Y26.826 I-0.149 J-0.134
N4825 G1 Y22.344
N4830 G3 X62.98 Y22.343 I0.391
N4835 G1 X62.986 Y24.517
N4840 X62.981 Y24.585
N4845 X62.589 Y26.826
N4850 G3 X62.226 Y27.149 I-0.385 J-0.067
N4855 G1 X61.047 Y27.214
N4860 G3 X60.634 Y26.824 I-0.022 J-0.391
N4865 G1 Y20.385
N4870 G3 X60.953 Y20.066 I0.319
N4875 G1 X66.892
N4880 X66.9
N4885 G18 G2 X67.1 Z-3.311 K0.2
N4890 G1 X59.069 Y28.792
N4895 G19 G2 Y28.592 Z-3.511 J-0.2 F300
N4900 G1 Y26.822
N4905 Y18.821 F600
N4910 G17 G3 X59.389 Y18.501 I0.319
N4915 G1 X66.894
N4920 X67.894
N4925 G18 G2 X68.094 Z-3.311 K0.2
N4930 G1 X57.808 Y28.792
N4935 Z-3.331
N4940 X57.807 Y28.785 Z-3.378 F300
N4945 X57.804 Y28.768 Z-3.421
N4950 X57.8 Y28.739 Z-3.458
N4955 X57.794 Y28.703 Z-3.487
N4960 X57.787 Y28.66 Z-3.505
N4965 X57.78 Y28.614 Z-3.511
N4970 X57.502 Y26.862
N4975 X57.5 Y26.831
N4980 Y16.932 F600
N4985 X66
N4990 X66.899
N4995 X66.93 Y16.934
N5000 X67.918 Y17.091
N5005 X67.969 Y17.099 Z-3.504
N5010 X68.017 Y17.107 Z-3.484
N5015 X68.058 Y17.113 Z-3.452
N5020 X68.089 Y17.118 Z-3.411
N5025 X68.109 Y17.121 Z-3.363
N5030 X68.116 Y17.122 Z-3.311
N5035 G0 Z15
N5040 X68.899 Y103.105
N5045 Z5
N5050 G1 Z-0.8 F300
N5055 G3 X68.699 Z-1 I-0.2
N5060 G1 X66.898
N5065 X65.646 F600
N5070 G17 G3 X65.327 Y102.786 J-0.319
N5075 G1 Y101.042
N5080 G3 X66.109 I0.391
N5085 X66.088 Y101.171 I-0.391
N5090 G1 X65.708 Y102.26
N5095 G2 X66.109 Y102.779 I0.369 J0.129
N5100 G1 X66.898 Y102.714
N5105 G3 X67.321 Y103.115 I0.032 J0.39
N5110 G1 X67.287 Y104.29
N5115 G3 X66.896 Y104.669 I-0.391 J-0.011
N5120 G1 X64.082
N5125 G3 X63.763 Y104.35 J-0.319
N5130 G1 Y101.04
N5135 G3 X64.181 Y100.65 I0.391
N5140 X64.541 Y101.094 I-0.027 J0.39
N5145 G1 X64.146 Y103.901
N5150 G2 X64.545 Y104.346 I0.387 J0.054
N5155 G1 X66.896 Y104.278
N5160 G3 X66.98 Y105.053 I0.011 J0.391
N5165 G1 X62.663 Y105.876
N5170 G3 X62.198 Y105.492 I-0.073 J-0.384
N5175 G1 Y101.038
N5180 G3 X62.547 Y100.904 I0.2
N5185 G1 X67.043 Y105.9
N5190 G3 X66.894 Y106.234 I-0.149 J0.134
N5195 G1 X62.518
N5200 X62.456 Y106.228
N5205 X62.397 Y106.21
N5210 X62.343 Y106.182
N5215 X62.295 Y106.143
N5220 G3 X62.563 Y105.472 I0.273 J-0.28
N5225 G1 X64.512 Y105.446
N5230 X64.582 Y105.451
N5235 X66.894 Y105.843
N5240 G3 X67.219 Y106.207 I-0.065 J0.386
N5245 G1 X67.282 Y107.386
N5250 G3 X66.892 Y107.798 I-0.391 J0.021
N5255 G1 X60.953
N5260 G3 X60.634 Y107.479 J-0.319
N5265 G1 Y101.036
N5270 G3 X61.038 Y100.645 I0.391
N5275 X61.415 Y101.061 I-0.013 J0.391
N5280 G1 X61.021 Y107.061
N5285 G2 X61.416 Y107.477 I0.39 J0.026
N5290 G1 X66.892 Y107.407
N5295 G3 X67.288 Y107.8 I0.005 J0.391
N5300 G1 X67.281 Y108.974
N5305 G3 X66.89 Y109.363 I-0.391 J-0.002
N5310 G1 X59.389
N5315 G3 X59.069 Y109.043 J-0.319
N5320 G1 Y101.034
N5325 G3 X59.471 Y100.643 I0.391
N5330 X59.851 Y101.054 I-0.01 J0.391
N5335 G1 X59.457 Y108.628
N5340 G2 X59.852 Y109.04 I0.391 J0.02
N5345 G1 X66.89 Y108.971
N5350 G3 X67.285 Y109.361 I0.004 J0.391
N5355 G1 X67.29 Y110.539
N5360 G3 X66.899 Y110.932 I-0.391 J0.002
N5365 G1 X57.5
N5370 Y101.932
N5375 Y101.033
N5380 X57.507 Y100.997
N5385 X57.527 Y100.965
N5390 X57.556 Y100.943
N5395 X57.592 Y100.933
N5400 X64.057 Y100.415
N5405 X64.085 Y100.414
N5410 X64.112 Y100.42
N5415 X64.136 Y100.434
N5420 X67.367 Y102.926
N5425 X67.391 Y102.952
N5430 X67.404 Y102.985
N5435 X67.405 Y103.02
N5440 X67.393 Y103.053
N5445 X67.371 Y103.081
N5450 X67.341 Y103.099
N5455 X67.306 Y103.105
N5460 G18 G2 X67.106 Z-1.2 K-0.2 F300
N5465 G1 Z-1.8
N5470 G3 X66.906 Z-2 I-0.2
N5475 G1 X66.898
N5480 X65.646 F600
N5485 G17 G3 X65.327 Y102.786 J-0.319
N5490 G1 Y101.042
N5495 G3 X66.109 I0.391
N5500 X66.088 Y101.171 I-0.391
N5505 G1 X65.708 Y102.26
N5510 G2 X66.109 Y102.779 I0.369 J0.129
N5515 G1 X66.898 Y102.714
N5520 G3 X67.321 Y103.115 I0.032 J0.39
N5525 G1 X67.287 Y104.29
N5530 G3 X66.896 Y104.669 I-0.391 J-0.011
N5535 G1 X64.082
N5540 G3 X63.763 Y104.35 J-0.319
N5545 G1 Y101.04
N5550 G3 X64.181 Y100.65 I0.391
N5555 X64.541 Y101.094 I-0.027 J0.39
N5560 G1 X64.146 Y103.901
N5565 G2 X64.545 Y104.346 I0.387 J0.054
N5570 G1 X66.896 Y104.278
N5575 G3 X66.98 Y105.053 I0.011 J0.391
N5580 G1 X62.663 Y105.876
N5585 G3 X62.198 Y105.492 I-0.073 J-0.384
N5590 G1 Y101.038
N5595 G3 X62.547 Y100.904 I0.2
N5600 G1 X67.043 Y105.9
N5605 G3 X66.894 Y106.234 I-0.149 J0.134
N5610 G1 X62.518
N5615 X62.456 Y106.228
N5620 X62.397 Y106.21
N5625 X62.343 Y106.182
N5630 X62.295 Y106.143
N5635 G3 X62.563 Y105.472 I0.273 J-0.28
N5640 G1 X64.512 Y105.446
N5645 X64.582 Y105.451
N5650 X66.894 Y105.843
N5655 G3 X67.219 Y106.207 I-0.065 J0.386
N5660 G1 X67.282 Y107.386
N5665 G3 X66.892 Y107.798 I-0.391 J0.021
N5670 G1 X60.953
N5675 G3 X60.634 Y107.479 J-0.319
N5680 G1 Y101.036
N5685 G3 X61.038 Y100.645 I0.391
N5690 X61.415 Y101.061 I-0.013 J0.391
N5695 G1 X61.021 Y107.061
N5700 G2 X61.416 Y107.477 I0.39 J0.026
N5705 G1 X66.892 Y107.407
N5710 G3 X67.288 Y107.8 I0.005 J0.391
N5715 G1 X67.281 Y108.974
N5720 G3 X66.89 Y109.363 I-0.391 J-0.002
N5725 G1 X59.389
N5730 G3 X59.069 Y109.043 J-0.319
N5735 G1 Y101.034
N5740 G3 X59.471 Y100.643 I0.391
N5745 X59.851 Y101.054 I-0.01 J0.391
N5750 G1 X59.457 Y108.628
N5755 G2 X59.852 Y109.04 I0.391 J0.02
N5760 G1 X66.89 Y108.971
N5765 G3 X67.285 Y109.361 I0.004 J0.391
N5770 G1 X67.29 Y110.539
N5775 G3 X66.899 Y110.932 I-0.391 J0.002
N5780 G1 X57.5
N5785 Y101.932
N5790 Y101.033
N5795 X57.507 Y100.997
N5800 X57.527 Y100.965
N5805 X57.556 Y100.943
N5810 X57.592 Y100.933
N5815 X64.057 Y100.415
N5820 X64.085 Y100.414
N5825 X64.112 Y100.42
N5830 X64.136 Y100.434
N5835 X67.367 Y102.926
N5840 X67.391 Y102.952
N5845 X67.404 Y102.985
N5850 X67.405 Y103.02
N5855 X67.393 Y103.053
N5860 X67.371 Y103.081
N5865 X67.341 Y103.099
N5870 X67.306 Y103.105
N5875 G18 G2 X67.106 Z-2.2 K-0.2 F300
N5880 G1 Z-2.8
N5885 G3 X66.906 Z-3 I-0.2
N5890 G1 X66.898
N5895 X65.646 F600
N5900 G17 G3 X65.327 Y102.786 J-0.319
N5905 G1 Y101.042
N5910 G3 X66.109 I0.391
N5915 X66.088 Y101.171 I-0.391
N5920 G1 X65.708 Y102.26
N5925 G2 X66.109 Y102.779 I0.369 J0.129
N5930 G1 X66.898 Y102.714
N5935 G3 X67.321 Y103.115 I0.032 J0.39
N5940 G1 X67.287 Y104.29
N5945 G3 X66.896 Y104.669 I-0.391 J-0.011
N5950 G1 X64.082
N5955 G3 X63.763 Y104.35 J-0.319
N5960 G1 Y101.04
N5965 G3 X64.181 Y100.65 I0.391
N5970 X64.541 Y101.094 I-0.027 J0.39
N5975 G1 X64.146 Y103.901
N5980 G2 X64.545 Y104.346 I0.387 J0.054
N5985 G1 X66.896 Y104.278
N5990 G3 X66.98 Y105.053 I0.011 J0.391
N5995 G1 X62.663 Y105.876
N6000 G3 X62.198 Y105.492 I-0.073 J-0.384
N6005 G1 Y101.038
N6010 G3 X62.547 Y100.904 I0.2
N6015 G1 X67.043 Y105.9
N6020 G3 X66.894 Y106.234 I-0.149 J0.134
N6025 G1 X62.518
N6030 X62.456 Y106.228
N6035 X62.397 Y106.21
N6040 X62.343 Y106.182
N6045 X62.295 Y106.143
N6050 G3 X62.563 Y105.472 I0.273 J-0.28
N6055 G1 X64.512 Y105.446
N6060 X64.582 Y105.451
N6065 X66.894 Y105.843
N6070 G3 X67.219 Y106.207 I-0.065 J0.386
N6075 G1 X67.282 Y107.386
N6080 G3 X66.892 Y107.798 I-0.391 J0.021
N6085 G1 X60.953
N6090 G3 X60.634 Y107.479 J-0.319
N6095 G1 Y101.036
N6100 G3 X61.038 Y100.645 I0.391
N6105 X61.415 Y101.061 I-0.013 J0.391
N6110 G1 X61.021 Y107.061
N6115 G2 X61.416 Y107.477 I0.39 J0.026
N6120 G1 X66.892 Y107.407
N6125 G3 X67.288 Y107.8 I0.005 J0.391
N6130 G1 X67.281 Y108.974
N6135 G3 X66.89 Y109.363 I-0.391 J-0.002
N6140 G1 X59.389
N6145 G3 X59.069 Y109.043 J-0.319
N6150 G1 Y101.034
N6155 G3 X59.471 Y100.643 I0.391
N6160 X59.851 Y101.054 I-0.01 J0.391
N6165 G1 X59.457 Y108.628
N6170 G2 X59.852 Y109.04 I0.391 J0.02
N6175 G1 X66.89 Y108.971
N6180 G3 X67.285 Y109.361 I0.004 J0.391
N6185 G1 X67.29 Y110.539
N6190 G3 X66.899 Y110.932 I-0.391 J0.002
N6195 G1 X57.5
N6200 Y101.932
N6205 Y101.033
N6210 X57.507 Y100.997
N6215 X57.527 Y100.965
N6220 X57.556 Y100.943
N6225 X57.592 Y100.933
N6230 X64.057 Y100.415
N6235 X64.085 Y100.414
N6240 X64.112 Y100.42
N6245 X64.136 Y100.434
N6250 X67.367 Y102.926
N6255 X67.391 Y102.952
N6260 X67.404 Y102.985
N6265 X67.405 Y103.02
N6270 X67.393 Y103.053
N6275 X67.371 Y103.081
N6280 X67.341 Y103.099
N6285 X67.306 Y103.105
N6290 G18 G2 X67.106 Z-3.2 K-0.2 F300
N6295 G1 Z-3.311
N6300 G3 X66.906 Z-3.511 I-0.2
N6305 G1 X66.898
N6310 X65.646 F600
N6315 G17 G3 X65.327 Y102.786 J-0.319
N6320 G1 Y101.042
N6325 G3 X66.109 I0.391
N6330 X66.088 Y101.171 I-0.391
N6335 G1 X65.708 Y102.26
N6340 G2 X66.109 Y102.779 I0.369 J0.129
N6345 G1 X66.898 Y102.714
N6350 G3 X67.321 Y103.115 I0.032 J0.39
N6355 G1 X67.287 Y104.29
N6360 G3 X66.896 Y104.669 I-0.391 J-0.011
N6365 G1 X64.082
N6370 G3 X63.763 Y104.35 J-0.319
N6375 G1 Y101.04
N6380 G3 X64.181 Y100.65 I0.391
N6385 X64.541 Y101.094 I-0.027 J0.39
N6390 G1 X64.146 Y103.901
N6395 G2 X64.545 Y104.346 I0.387 J0.054
N6400 G1 X66.896 Y104.278
N6405 G3 X66.98 Y105.053 I0.011 J0.391
N6410 G1 X62.663 Y105.876
N6415 G3 X62.198 Y105.492 I-0.073 J-0.384
N6420 G1 Y101.038
N6425 G3 X62.547 Y100.904 I0.2
N6430 G1 X67.043 Y105.9
N6435 G3 X66.894 Y106.234 I-0.149 J0.134
N6440 G1 X62.518
N6445 X62.456 Y106.228
N6450 X62.397 Y106.21
N6455 X62.343 Y106.182
N6460 X62.295 Y106.143
N6465 G3 X62.563 Y105.472 I0.273 J-0.28
N6470 G1 X64.512 Y105.446
N6475 X64.582 Y105.451
N6480 X66.894 Y105.843
N6485 G3 X67.219 Y106.207 I-0.065 J0.386
N6490 G1 X67.282 Y107.386
N6495 G3 X66.892 Y107.798 I-0.391 J0.021
N6500 G1 X60.953
N6505 G3 X60.634 Y107.479 J-0.319
N6510 G1 Y101.036
N6515 G3 X61.038 Y100.645 I0.391
N6520 X61.415 Y101.061 I-0.013 J0.391
N6525 G1 X61.021 Y107.061
N6530 G2 X61.416 Y107.477 I0.39 J0.026
N6535 G1 X66.892 Y107.407
N6540 G3 X67.288 Y107.8 I0.005 J0.391
N6545 G1 X67.281 Y108.974
N6550 G3 X66.89 Y109.363 I-0.391 J-0.002
N6555 G1 X59.389
N6560 G3 X59.069 Y109.043 J-0.319
N6565 G1 Y101.034
N6570 G3 X59.471 Y100.643 I0.391
N6575 X59.851 Y101.054 I-0.01 J0.391
N6580 G1 X59.457 Y108.628
N6585 G2 X59.852 Y109.04 I0.391 J0.02
N6590 G1 X66.89 Y108.971
N6595 G3 X67.285 Y109.361 I0.004 J0.391
N6600 G1 X67.29 Y110.539
N6605 G3 X66.899 Y110.932 I-0.391 J0.002
N6610 G1 X57.5
N6615 Y101.932
N6620 Y101.033
N6625 X57.502 Y101.002
N6630 X57.659 Y100.014
N6635 X57.667 Y99.963 Z-3.504
N6640 X57.675 Y99.915 Z-3.484
N6645 X57.681 Y99.874 Z-3.452
N6650 X57.686 Y99.843 Z-3.411
N6655 X57.689 Y99.823 Z-3.363
N6660 X57.69 Y99.816 Z-3.311
N6665 G0 Z15

(2D ??36)
N6670 X8.65 Y7.282
N6675 Z15
N6680 Z5
N6685 G1 Z2 F600
N6690 Z-0.8
N6695 G18 G2 X8.85 Z-1 I0.2
N6700 G1 X9.05 F300
N6705 G17 G3 X9.25 Y7.482 J0.2
N6710 X7.75 I-0.75 F600
N6715 X9.25 I0.75
N6720 X9.05 Y7.682 I-0.2
N6725 G1 X8.85
N6730 G18 G3 X8.65 Z-0.8 K0.2
N6735 G0 Z5
N6740 Y7.282
N6745 G1 Z1 F600
N6750 Z-1.8
N6755 G2 X8.85 Z-2 I0.2
N6760 G1 X9.05 F300
N6765 G17 G3 X9.25 Y7.482 J0.2
N6770 X7.75 I-0.75 F600
N6775 X9.25 I0.75
N6780 X9.05 Y7.682 I-0.2
N6785 G1 X8.85
N6790 G18 G3 X8.65 Z-1.8 K0.2
N6795 G0 Z5
N6800 Y120.182
N6805 G1 Z2 F600
N6810 Z-0.8
N6815 G2 X8.85 Z-1 I0.2
N6820 G1 X9.05 F300
N6825 G17 G3 X9.25 Y120.382 J0.2
N6830 X7.75 I-0.75 F600
N6835 X9.25 I0.75
N6840 X9.05 Y120.582 I-0.2
N6845 G1 X8.85
N6850 G18 G3 X8.65 Z-0.8 K0.2
N6855 G0 Z5
N6860 Y120.182
N6865 G1 Z1 F600
N6870 Z-1.8
N6875 G2 X8.85 Z-2 I0.2
N6880 G1 X9.05 F300
N6885 G17 G3 X9.25 Y120.382 J0.2
N6890 X7.75 I-0.75 F600
N6895 X9.25 I0.75
N6900 X9.05 Y120.582 I-0.2
N6905 G1 X8.85
N6910 G18 G3 X8.65 Z-1.8 K0.2
N6915 G0 Z15
N6920 X35.62 Y66.713
N6925 Z5
N6930 G1 Z2 F600
N6935 Z-0.8
N6940 X35.627 Y66.712 Z-0.852
N6945 X35.646 Y66.709 Z-0.9
N6950 X35.678 Y66.704 Z-0.941
N6955 X35.719 Y66.698 Z-0.973
N6960 X35.767 Y66.691 Z-0.993
N6965 X35.818 Y66.684 Z-1
N6970 X36.016 Y66.656 F300
N6975 G17 G3 X36.242 Y66.825 I0.029 J0.198
N6980 X34.758 Y67.039 I-0.742 J0.107 F600
N6985 X36.242 Y66.825 I0.742 J-0.107
N6990 X36.073 Y67.051 I-0.198 J0.029
N6995 G1 X35.875 Y67.08
N7000 X35.824 Y67.087 Z-0.993
N7005 X35.776 Y67.094 Z-0.973
N7010 X35.735 Y67.1 Z-0.941
N7015 X35.704 Y67.105 Z-0.9
N7020 X35.684 Y67.108 Z-0.852
N7025 X35.677 Y67.109 Z-0.8
N7030 G0 Z5
N7035 X35.62 Y66.713
N7040 G1 Z1 F600
N7045 Z-1.305
N7050 X35.627 Y66.712 Z-1.357
N7055 X35.646 Y66.709 Z-1.405
N7060 X35.678 Y66.704 Z-1.446
N7065 X35.719 Y66.698 Z-1.478
N7070 X35.767 Y66.691 Z-1.498
N7075 X35.818 Y66.684 Z-1.505
N7080 X36.016 Y66.656 F300
N7085 G3 X36.242 Y66.825 I0.029 J0.198
N7090 X34.758 Y67.039 I-0.742 J0.107 F600
N7095 X36.242 Y66.825 I0.742 J-0.107
N7100 X36.073 Y67.051 I-0.198 J0.029
N7105 G1 X35.875 Y67.08
N7110 X35.824 Y67.087 Z-1.498
N7115 X35.776 Y67.094 Z-1.478
N7120 X35.735 Y67.1 Z-1.446
N7125 X35.704 Y67.105 Z-1.405
N7130 X35.684 Y67.108 Z-1.357
N7135 X35.677 Y67.109 Z-1.305
N7140 G0 Z5
N7145 X35.62 Y66.713
N7150 G1 Z0.495 F600
N7155 Z-1.81
N7160 X35.627 Y66.712 Z-1.862
N7165 X35.646 Y66.709 Z-1.91
N7170 X35.678 Y66.704 Z-1.951
N7175 X35.719 Y66.698 Z-1.983
N7180 X35.767 Y66.691 Z-2.003
N7185 X35.818 Y66.684 Z-2.01
N7190 X36.016 Y66.656 F300
N7195 G3 X36.242 Y66.825 I0.029 J0.198
N7200 X34.758 Y67.039 I-0.742 J0.107 F600
N7205 X36.242 Y66.825 I0.742 J-0.107
N7210 X36.073 Y67.051 I-0.198 J0.029
N7215 G1 X35.875 Y67.08
N7220 X35.824 Y67.087 Z-2.003
N7225 X35.776 Y67.094 Z-1.983
N7230 X35.735 Y67.1 Z-1.951
N7235 X35.704 Y67.105 Z-1.91
N7240 X35.684 Y67.108 Z-1.862
N7245 X35.677 Y67.109 Z-1.81
N7250 G0 Z5
N7255 X35.62 Y150.713
N7260 G1 Z2 F600
N7265 Z-0.8
N7270 X35.627 Y150.712 Z-0.852
N7275 X35.646 Y150.709 Z-0.9
N7280 X35.678 Y150.704 Z-0.941
N7285 X35.719 Y150.698 Z-0.973
N7290 X35.767 Y150.691 Z-0.993
N7295 X35.818 Y150.684 Z-1
N7300 X36.016 Y150.655 F300
N7305 G3 X36.242 Y150.825 I0.029 J0.198
N7310 X34.758 Y151.039 I-0.742 J0.107 F600
N7315 X36.242 Y150.825 I0.742 J-0.107
N7320 X36.073 Y151.051 I-0.198 J0.029
N7325 G1 X35.875 Y151.08
N7330 X35.824 Y151.087 Z-0.993
N7335 X35.776 Y151.094 Z-0.973
N7340 X35.735 Y151.1 Z-0.941
N7345 X35.704 Y151.105 Z-0.9
N7350 X35.684 Y151.108 Z-0.852
N7355 X35.677 Y151.109 Z-0.8
N7360 G0 Z5
N7365 X35.62 Y150.713
N7370 G1 Z1 F600
N7375 Z-1.305
N7380 X35.627 Y150.712 Z-1.357
N7385 X35.646 Y150.709 Z-1.405
N7390 X35.678 Y150.704 Z-1.446
N7395 X35.719 Y150.698 Z-1.478
N7400 X35.767 Y150.691 Z-1.498
N7405 X35.818 Y150.684 Z-1.505
N7410 X36.016 Y150.655 F300
N7415 G3 X36.242 Y150.825 I0.029 J0.198
N7420 X34.758 Y151.039 I-0.742 J0.107 F600
N7425 X36.242 Y150.825 I0.742 J-0.107
N7430 X36.073 Y151.051 I-0.198 J0.029
N7435 G1 X35.875 Y151.08
N7440 X35.824 Y151.087 Z-1.498
N7445 X35.776 Y151.094 Z-1.478
N7450 X35.735 Y151.1 Z-1.446
N7455 X35.704 Y151.105 Z-1.405
N7460 X35.684 Y151.108 Z-1.357
N7465 X35.677 Y151.109 Z-1.305
N7470 G0 Z5
N7475 X35.62 Y150.713
N7480 G1 Z0.495 F600
N7485 Z-1.81
N7490 X35.627 Y150.712 Z-1.862
N7495 X35.646 Y150.709 Z-1.91
N7500 X35.678 Y150.704 Z-1.951
N7505 X35.719 Y150.698 Z-1.983
N7510 X35.767 Y150.691 Z-2.003
N7515 X35.818 Y150.684 Z-2.01
N7520 X36.016 Y150.655 F300
N7525 G3 X36.242 Y150.825 I0.029 J0.198
N7530 X34.758 Y151.039 I-0.742 J0.107 F600
N7535 X36.242 Y150.825 I0.742 J-0.107
N7540 X36.073 Y151.051 I-0.198 J0.029
N7545 G1 X35.875 Y151.08
N7550 X35.824 Y151.087 Z-2.003
N7555 X35.776 Y151.094 Z-1.983
N7560 X35.735 Y151.1 Z-1.951
N7565 X35.704 Y151.105 Z-1.91
N7570 X35.684 Y151.108 Z-1.862
N7575 X35.677 Y151.109 Z-1.81
N7580 G0 Z15
N7585 X61.65 Y118.732
N7590 Z5
N7595 G1 Z2 F600
N7600 Z-0.8
N7605 G18 G2 X61.85 Z-1 I0.2
N7610 G1 X62.05 F300
N7615 G17 G3 X62.25 Y118.932 J0.2
N7620 X60.75 I-0.75 F600
N7625 X62.25 I0.75
N7630 X62.05 Y119.132 I-0.2
N7635 G1 X61.85
N7640 G18 G3 X61.65 Z-0.8 K0.2
N7645 G0 Z5
N7650 Y118.732
N7655 G1 Z1 F600
N7660 Z-1.306
N7665 G2 X61.85 Z-1.506 I0.2
N7670 G1 X62.05 F300
N7675 G17 G3 X62.25 Y118.932 J0.2
N7680 X60.75 I-0.75 F600
N7685 X62.25 I0.75
N7690 X62.05 Y119.132 I-0.2
N7695 G1 X61.85
N7700 G18 G3 X61.65 Z-1.306 K0.2
N7705 G0 Z5
N7710 Y118.732
N7715 G1 Z0.494 F600
N7720 Z-1.811
N7725 G2 X61.85 Z-2.011 I0.2
N7730 G1 X62.05 F300
N7735 G17 G3 X62.25 Y118.932 J0.2
N7740 X60.75 I-0.75 F600
N7745 X62.25 I0.75
N7750 X62.05 Y119.132 I-0.2
N7755 G1 X61.85
N7760 G18 G3 X61.65 Z-1.811 K0.2
N7765 G0 Z5
N7770 Y8.732
N7775 G1 Z2 F600
N7780 Z-0.8
N7785 G2 X61.85 Z-1 I0.2
N7790 G1 X62.05 F300
N7795 G17 G3 X62.25 Y8.932 J0.2
N7800 X61.5 Y9.682 I-0.75 F600
N7805 Y8.182 J-0.75
N7810 X62.25 Y8.932 J0.75
N7815 X62.05 Y9.132 I-0.2
N7820 G1 X61.85
N7825 G18 G3 X61.65 Z-0.8 K0.2
N7830 G0 Z5
N7835 Y8.732
N7840 G1 Z1 F600
N7845 Z-1.306
N7850 G2 X61.85 Z-1.506 I0.2
N7855 G1 X62.05 F300
N7860 G17 G3 X62.25 Y8.932 J0.2
N7865 X61.5 Y9.682 I-0.75 F600
N7870 Y8.182 J-0.75
N7875 X62.25 Y8.932 J0.75
N7880 X62.05 Y9.132 I-0.2
N7885 G1 X61.85
N7890 G18 G3 X61.65 Z-1.306 K0.2
N7895 G0 Z5
N7900 Y8.732
N7905 G1 Z0.494 F600
N7910 Z-1.811
N7915 G2 X61.85 Z-2.011 I0.2
N7920 G1 X62.05 F300
N7925 G17 G3 X62.25 Y8.932 J0.2
N7930 X61.5 Y9.682 I-0.75 F600
N7935 Y8.182 J-0.75
N7940 X62.25 Y8.932 J0.75
N7945 X62.05 Y9.132 I-0.2
N7950 G1 X61.85
N7955 G18 G3 X61.65 Z-1.811 K0.2
N7960 G0 Z15
N7965 X35.65 Y53.732
N7970 Z5
N7975 G1 Z2 F600
N7980 Z-0.8
N7985 G2 X35.85 Z-1 I0.2
N7990 G1 X36.05 F300
N7995 G17 G3 X36.25 Y53.932 J0.2
N8000 X34.75 I-0.75 F600
N8005 X36.25 I0.75
N8010 X36.05 Y54.132 I-0.2
N8015 G1 X35.85
N8020 G18 G3 X35.65 Z-0.8 K0.2
N8025 G0 Z5
N8030 Y53.732
N8035 G1 Z1 F600
N8040 Z-1.8
N8045 G2 X35.85 Z-2 I0.2
N8050 G1 X36.05 F300
N8055 G17 G3 X36.25 Y53.932 J0.2
N8060 X34.75 I-0.75 F600
N8065 X36.25 I0.75
N8070 X36.05 Y54.132 I-0.2
N8075 G1 X35.85
N8080 G18 G3 X35.65 Z-1.8 K0.2
N8085 G0 Z5
N8090 Y53.732
N8095 G1 Z0 F600
N8100 Z-2.8
N8105 G2 X35.85 Z-3 I0.2
N8110 G1 X36.05 F300
N8115 G17 G3 X36.25 Y53.932 J0.2
N8120 X34.75 I-0.75 F600
N8125 X36.25 I0.75
N8130 X36.05 Y54.132 I-0.2
N8135 G1 X35.85
N8140 G18 G3 X35.65 Z-2.8 K0.2
N8145 G0 Z5
N8150 Y53.732
N8155 G1 Z-1 F600
N8160 Z-3.8
N8165 G2 X35.85 Z-4 I0.2
N8170 G1 X36.05 F300
N8175 G17 G3 X36.25 Y53.932 J0.2
N8180 X34.75 I-0.75 F600
N8185 X36.25 I0.75
N8190 X36.05 Y54.132 I-0.2
N8195 G1 X35.85
N8200 G18 G3 X35.65 Z-3.8 K0.2
N8205 G0 Z5
N8210 Y53.732
N8215 G1 Z-2 F600
N8220 Z-4.81
N8225 G2 X35.85 Z-5.01 I0.2
N8230 G1 X36.05 F300
N8235 G17 G3 X36.25 Y53.932 J0.2
N8240 X34.75 I-0.75 F600
N8245 X36.25 I0.75
N8250 X36.05 Y54.132 I-0.2
N8255 G1 X35.85
N8260 G18 G3 X35.65 Z-4.81 K0.2
N8265 G0 Z5
N8270 Y163.732
N8275 G1 Z2 F600
N8280 Z-0.8
N8285 G2 X35.85 Z-1 I0.2
N8290 G1 X36.05 F300
N8295 G17 G3 X36.25 Y163.932 J0.2
N8300 X34.75 I-0.75 F600
N8305 X36.25 I0.75
N8310 X36.05 Y164.132 I-0.2
N8315 G1 X35.85
N8320 G18 G3 X35.65 Z-0.8 K0.2
N8325 G0 Z5
N8330 Y163.732
N8335 G1 Z1 F600
N8340 Z-1.8
N8345 G2 X35.85 Z-2 I0.2
N8350 G1 X36.05 F300
N8355 G17 G3 X36.25 Y163.932 J0.2
N8360 X34.75 I-0.75 F600
N8365 X36.25 I0.75
N8370 X36.05 Y164.132 I-0.2
N8375 G1 X35.85
N8380 G18 G3 X35.65 Z-1.8 K0.2
N8385 G0 Z5
N8390 Y163.732
N8395 G1 Z0 F600
N8400 Z-2.8
N8405 G2 X35.85 Z-3 I0.2
N8410 G1 X36.05 F300
N8415 G17 G3 X36.25 Y163.932 J0.2
N8420 X34.75 I-0.75 F600
N8425 X36.25 I0.75
N8430 X36.05 Y164.132 I-0.2
N8435 G1 X35.85
N8440 G18 G3 X35.65 Z-2.8 K0.2
N8445 G0 Z5
N8450 Y163.732
N8455 G1 Z-1 F600
N8460 Z-3.8
N8465 G2 X35.85 Z-4 I0.2
N8470 G1 X36.05 F300
N8475 G17 G3 X36.25 Y163.932 J0.2
N8480 X34.75 I-0.75 F600
N8485 X36.25 I0.75
N8490 X36.05 Y164.132 I-0.2
N8495 G1 X35.85
N8500 G18 G3 X35.65 Z-3.8 K0.2
N8505 G0 Z5
N8510 Y163.732
N8515 G1 Z-2 F600
N8520 Z-4.81
N8525 G2 X35.85 Z-5.01 I0.2
N8530 G1 X36.05 F300
N8535 G17 G3 X36.25 Y163.932 J0.2
N8540 X34.75 I-0.75 F600
N8545 X36.25 I0.75
N8550 X36.05 Y164.132 I-0.2
N8555 G1 X35.85
N8560 G18 G3 X35.65 Z-4.81 K0.2
N8565 G0 Z15
N8570 X16.65 Y22.282
N8575 Z5
N8580 G1 Z2 F600
N8585 Z-0.8
N8590 G2 X16.85 Z-1 I0.2
N8595 G1 X17.05 F300
N8600 G17 G3 X17.25 Y22.482 J0.2
N8605 X15.75 I-0.75 F600
N8610 X17.25 I0.75
N8615 X17.05 Y22.682 I-0.2
N8620 G1 X16.85
N8625 G18 G3 X16.65 Z-0.8 K0.2
N8630 G0 Z5
N8635 Y22.282
N8640 G1 Z1 F600
N8645 Z-1.8
N8650 G2 X16.85 Z-2 I0.2
N8655 G1 X17.05 F300
N8660 G17 G3 X17.25 Y22.482 J0.2
N8665 X15.75 I-0.75 F600
N8670 X17.25 I0.75
N8675 X17.05 Y22.682 I-0.2
N8680 G1 X16.85
N8685 G18 G3 X16.65 Z-1.8 K0.2
N8690 G0 Z5
N8695 Y22.282
N8700 G1 Z0 F600
N8705 Z-2.8
N8710 G2 X16.85 Z-3 I0.2
N8715 G1 X17.05 F300
N8720 G17 G3 X17.25 Y22.482 J0.2
N8725 X15.75 I-0.75 F600
N8730 X17.25 I0.75
N8735 X17.05 Y22.682 I-0.2
N8740 G1 X16.85
N8745 G18 G3 X16.65 Z-2.8 K0.2
N8750 G0 Z5
N8755 Y22.282
N8760 G1 Z-1 F600
N8765 Z-3.8
N8770 G2 X16.85 Z-4 I0.2
N8775 G1 X17.05 F300
N8780 G17 G3 X17.25 Y22.482 J0.2
N8785 X15.75 I-0.75 F600
N8790 X17.25 I0.75
N8795 X17.05 Y22.682 I-0.2
N8800 G1 X16.85
N8805 G18 G3 X16.65 Z-3.8 K0.2
N8810 G0 Z5
N8815 Y22.282
N8820 G1 Z-2 F600
N8825 Z-4.8
N8830 G2 X16.85 Z-5 I0.2
N8835 G1 X17.05 F300
N8840 G17 G3 X17.25 Y22.482 J0.2
N8845 X15.75 I-0.75 F600
N8850 X17.25 I0.75
N8855 X17.05 Y22.682 I-0.2
N8860 G1 X16.85
N8865 G18 G3 X16.65 Z-4.8 K0.2
N8870 G0 Z5
N8875 Y22.282
N8880 G1 Z-3 F600
N8885 Z-5.301
N8890 G2 X16.85 Z-5.501 I0.2
N8895 G1 X17.05 F300
N8900 G17 G3 X17.25 Y22.482 J0.2
N8905 X15.75 I-0.75 F600
N8910 X17.25 I0.75
N8915 X17.05 Y22.682 I-0.2
N8920 G1 X16.85
N8925 G18 G3 X16.65 Z-5.301 K0.2
N8930 G0 Z5
N8935 Y135.182
N8940 G1 Z2 F600
N8945 Z-0.8
N8950 G2 X16.85 Z-1 I0.2
N8955 G1 X17.05 F300
N8960 G17 G3 X17.25 Y135.382 J0.2
N8965 X15.75 I-0.75 F600
N8970 X17.25 I0.75
N8975 X17.05 Y135.582 I-0.2
N8980 G1 X16.85
N8985 G18 G3 X16.65 Z-0.8 K0.2
N8990 G0 Z5
N8995 Y135.182
N9000 G1 Z1 F600
N9005 Z-1.8
N9010 G2 X16.85 Z-2 I0.2
N9015 G1 X17.05 F300
N9020 G17 G3 X17.25 Y135.382 J0.2
N9025 X15.75 I-0.75 F600
N9030 X17.25 I0.75
N9035 X17.05 Y135.582 I-0.2
N9040 G1 X16.85
N9045 G18 G3 X16.65 Z-1.8 K0.2
N9050 G0 Z5
N9055 Y135.182
N9060 G1 Z0 F600
N9065 Z-2.8
N9070 G2 X16.85 Z-3 I0.2
N9075 G1 X17.05 F300
N9080 G17 G3 X17.25 Y135.382 J0.2
N9085 X15.75 I-0.75 F600
N9090 X17.25 I0.75
N9095 X17.05 Y135.582 I-0.2
N9100 G1 X16.85
N9105 G18 G3 X16.65 Z-2.8 K0.2
N9110 G0 Z5
N9115 Y135.182
N9120 G1 Z-1 F600
N9125 Z-3.8
N9130 G2 X16.85 Z-4 I0.2
N9135 G1 X17.05 F300
N9140 G17 G3 X17.25 Y135.382 J0.2
N9145 X15.75 I-0.75 F600
N9150 X17.25 I0.75
N9155 X17.05 Y135.582 I-0.2
N9160 G1 X16.85
N9165 G18 G3 X16.65 Z-3.8 K0.2
N9170 G0 Z5
N9175 Y135.182
N9180 G1 Z-2 F600
N9185 Z-4.8
N9190 G2 X16.85 Z-5 I0.2
N9195 G1 X17.05 F300
N9200 G17 G3 X17.25 Y135.382 J0.2
N9205 X15.75 I-0.75 F600
N9210 X17.25 I0.75
N9215 X17.05 Y135.582 I-0.2
N9220 G1 X16.85
N9225 G18 G3 X16.65 Z-4.8 K0.2
N9230 G0 Z5
N9235 Y135.182
N9240 G1 Z-3 F600
N9245 Z-5.301
N9250 G2 X16.85 Z-5.501 I0.2
N9255 G1 X17.05 F300
N9260 G17 G3 X17.25 Y135.382 J0.2
N9265 X15.75 I-0.75 F600
N9270 X17.25 I0.75
N9275 X17.05 Y135.582 I-0.2
N9280 G1 X16.85
N9285 G18 G3 X16.65 Z-5.301 K0.2
N9290 G0 Z15
N9295 X61.677 Y21.756
N9300 Z5
N9305 G1 Z2 F600
N9310 Z-0.8
N9315 X61.684 Y21.757 Z-0.852
N9320 X61.704 Y21.759 Z-0.9
N9325 X61.735 Y21.764 Z-0.941
N9330 X61.776 Y21.77 Z-0.973
N9335 X61.824 Y21.777 Z-0.993
N9340 X61.875 Y21.784 Z-1
N9345 X62.073 Y21.813 F300
N9350 G17 G3 X62.242 Y22.039 I-0.029 J0.198
N9355 X60.758 Y21.825 I-0.742 J-0.107 F600
N9360 X62.242 Y22.039 I0.742 J0.107
N9365 X62.016 Y22.209 I-0.198 J-0.029
N9370 G1 X61.818 Y22.18
N9375 X61.767 Y22.173 Z-0.993
N9380 X61.719 Y22.166 Z-0.973
N9385 X61.678 Y22.16 Z-0.941
N9390 X61.646 Y22.155 Z-0.9
N9395 X61.627 Y22.152 Z-0.852
N9400 X61.62 Y22.151 Z-0.8
N9405 G0 Z5
N9410 X61.677 Y21.756
N9415 G1 Z1 F600
N9420 Z-1.8
N9425 X61.684 Y21.757 Z-1.852
N9430 X61.704 Y21.759 Z-1.9
N9435 X61.735 Y21.764 Z-1.941
N9440 X61.776 Y21.77 Z-1.973
N9445 X61.824 Y21.777 Z-1.993
N9450 X61.875 Y21.784 Z-2
N9455 X62.073 Y21.813 F300
N9460 G3 X62.242 Y22.039 I-0.029 J0.198
N9465 X60.758 Y21.825 I-0.742 J-0.107 F600
N9470 X62.242 Y22.039 I0.742 J0.107
N9475 X62.016 Y22.209 I-0.198 J-0.029
N9480 G1 X61.818 Y22.18
N9485 X61.767 Y22.173 Z-1.993
N9490 X61.719 Y22.166 Z-1.973
N9495 X61.678 Y22.16 Z-1.941
N9500 X61.646 Y22.155 Z-1.9
N9505 X61.627 Y22.152 Z-1.852
N9510 X61.62 Y22.151 Z-1.8
N9515 G0 Z5
N9520 X61.677 Y21.756
N9525 G1 Z0 F600
N9530 Z-2.8
N9535 X61.684 Y21.757 Z-2.852
N9540 X61.704 Y21.759 Z-2.9
N9545 X61.735 Y21.764 Z-2.941
N9550 X61.776 Y21.77 Z-2.973
N9555 X61.824 Y21.777 Z-2.993
N9560 X61.875 Y21.784 Z-3
N9565 X62.073 Y21.813 F300
N9570 G3 X62.242 Y22.039 I-0.029 J0.198
N9575 X60.758 Y21.825 I-0.742 J-0.107 F600
N9580 X62.242 Y22.039 I0.742 J0.107
N9585 X62.016 Y22.209 I-0.198 J-0.029
N9590 G1 X61.818 Y22.18
N9595 X61.767 Y22.173 Z-2.993
N9600 X61.719 Y22.166 Z-2.973
N9605 X61.678 Y22.16 Z-2.941
N9610 X61.646 Y22.155 Z-2.9
N9615 X61.627 Y22.152 Z-2.852
N9620 X61.62 Y22.151 Z-2.8
N9625 G0 Z5
N9630 X61.677 Y21.756
N9635 G1 Z-1 F600
N9640 Z-3.8
N9645 X61.684 Y21.757 Z-3.852
N9650 X61.704 Y21.759 Z-3.9
N9655 X61.735 Y21.764 Z-3.941
N9660 X61.776 Y21.77 Z-3.973
N9665 X61.824 Y21.777 Z-3.993
N9670 X61.875 Y21.784 Z-4
N9675 X62.073 Y21.813 F300
N9680 G3 X62.242 Y22.039 I-0.029 J0.198
N9685 X60.758 Y21.825 I-0.742 J-0.107 F600
N9690 X62.242 Y22.039 I0.742 J0.107
N9695 X62.016 Y22.209 I-0.198 J-0.029
N9700 G1 X61.818 Y22.18
N9705 X61.767 Y22.173 Z-3.993
N9710 X61.719 Y22.166 Z-3.973
N9715 X61.678 Y22.16 Z-3.941
N9720 X61.646 Y22.155 Z-3.9
N9725 X61.627 Y22.152 Z-3.852
N9730 X61.62 Y22.151 Z-3.8
N9735 G0 Z5
N9740 X61.677 Y21.756
N9745 G1 Z-2 F600
N9750 Z-4.8
N9755 X61.684 Y21.757 Z-4.852
N9760 X61.704 Y21.759 Z-4.9
N9765 X61.735 Y21.764 Z-4.941
N9770 X61.776 Y21.77 Z-4.973
N9775 X61.824 Y21.777 Z-4.993
N9780 X61.875 Y21.784 Z-5
N9785 X62.073 Y21.813 F300
N9790 G3 X62.242 Y22.039 I-0.029 J0.198
N9795 X60.758 Y21.825 I-0.742 J-0.107 F600
N9800 X62.242 Y22.039 I0.742 J0.107
N9805 X62.016 Y22.209 I-0.198 J-0.029
N9810 G1 X61.818 Y22.18
N9815 X61.767 Y22.173 Z-4.993
N9820 X61.719 Y22.166 Z-4.973
N9825 X61.678 Y22.16 Z-4.941
N9830 X61.646 Y22.155 Z-4.9
N9835 X61.627 Y22.152 Z-4.852
N9840 X61.62 Y22.151 Z-4.8
N9845 G0 Z5
N9850 X61.677 Y21.756
N9855 G1 Z-3 F600
N9860 Z-5.311
N9865 X61.684 Y21.757 Z-5.363
N9870 X61.704 Y21.759 Z-5.411
N9875 X61.735 Y21.764 Z-5.452
N9880 X61.776 Y21.77 Z-5.484
N9885 X61.824 Y21.777 Z-5.504
N9890 X61.875 Y21.784 Z-5.511
N9895 X62.073 Y21.813 F300
N9900 G3 X62.242 Y22.039 I-0.029 J0.198
N9905 X60.758 Y21.825 I-0.742 J-0.107 F600
N9910 X62.242 Y22.039 I0.742 J0.107
N9915 X62.016 Y22.209 I-0.198 J-0.029
N9920 G1 X61.818 Y22.18
N9925 X61.767 Y22.173 Z-5.504
N9930 X61.719 Y22.166 Z-5.484
N9935 X61.678 Y22.16 Z-5.452
N9940 X61.646 Y22.155 Z-5.411
N9945 X61.627 Y22.152 Z-5.363
N9950 X61.62 Y22.151 Z-5.311
N9955 G0 Z5
N9960 X61.677 Y105.755
N9965 G1 Z2 F600
N9970 Z-0.8
N9975 X61.684 Y105.756 Z-0.852
N9980 X61.704 Y105.759 Z-0.9
N9985 X61.735 Y105.764 Z-0.941
N9990 X61.776 Y105.77 Z-0.973
N9995 X61.824 Y105.777 Z-0.993
N10000 X61.875 Y105.784 Z-1
N10005 X62.073 Y105.813 F300
N10010 G3 X62.242 Y106.039 I-0.029 J0.198
N10015 X60.758 Y105.825 I-0.742 J-0.107 F600
N10020 X62.242 Y106.039 I0.742 J0.107
N10025 X62.016 Y106.209 I-0.198 J-0.029
N10030 G1 X61.818 Y106.18
N10035 X61.767 Y106.173 Z-0.993
N10040 X61.719 Y106.166 Z-0.973
N10045 X61.678 Y106.16 Z-0.941
N10050 X61.646 Y106.155 Z-0.9
N10055 X61.627 Y106.152 Z-0.852
N10060 X61.62 Y106.151 Z-0.8
N10065 G0 Z5
N10070 X61.677 Y105.755
N10075 G1 Z1 F600
N10080 Z-1.8
N10085 X61.684 Y105.756 Z-1.852
N10090 X61.704 Y105.759 Z-1.9
N10095 X61.735 Y105.764 Z-1.941
N10100 X61.776 Y105.77 Z-1.973
N10105 X61.824 Y105.777 Z-1.993
N10110 X61.875 Y105.784 Z-2
N10115 X62.073 Y105.813 F300
N10120 G3 X62.242 Y106.039 I-0.029 J0.198
N10125 X60.758 Y105.825 I-0.742 J-0.107 F600
N10130 X62.242 Y106.039 I0.742 J0.107
N10135 X62.016 Y106.209 I-0.198 J-0.029
N10140 G1 X61.818 Y106.18
N10145 X61.767 Y106.173 Z-1.993
N10150 X61.719 Y106.166 Z-1.973
N10155 X61.678 Y106.16 Z-1.941
N10160 X61.646 Y106.155 Z-1.9
N10165 X61.627 Y106.152 Z-1.852
N10170 X61.62 Y106.151 Z-1.8
N10175 G0 Z5
N10180 X61.677 Y105.755
N10185 G1 Z0 F600
N10190 Z-2.8
N10195 X61.684 Y105.756 Z-2.852
N10200 X61.704 Y105.759 Z-2.9
N10205 X61.735 Y105.764 Z-2.941
N10210 X61.776 Y105.77 Z-2.973
N10215 X61.824 Y105.777 Z-2.993
N10220 X61.875 Y105.784 Z-3
N10225 X62.073 Y105.813 F300
N10230 G3 X62.242 Y106.039 I-0.029 J0.198
N10235 X60.758 Y105.825 I-0.742 J-0.107 F600
N10240 X62.242 Y106.039 I0.742 J0.107
N10245 X62.016 Y106.209 I-0.198 J-0.029
N10250 G1 X61.818 Y106.18
N10255 X61.767 Y106.173 Z-2.993
N10260 X61.719 Y106.166 Z-2.973
N10265 X61.678 Y106.16 Z-2.941
N10270 X61.646 Y106.155 Z-2.9
N10275 X61.627 Y106.152 Z-2.852
N10280 X61.62 Y106.151 Z-2.8
N10285 G0 Z5
N10290 X61.677 Y105.755
N10295 G1 Z-1 F600
N10300 Z-3.8
N10305 X61.684 Y105.756 Z-3.852
N10310 X61.704 Y105.759 Z-3.9
N10315 X61.735 Y105.764 Z-3.941
N10320 X61.776 Y105.77 Z-3.973
N10325 X61.824 Y105.777 Z-3.993
N10330 X61.875 Y105.784 Z-4
N10335 X62.073 Y105.813 F300
N10340 G3 X62.242 Y106.039 I-0.029 J0.198
N10345 X60.758 Y105.825 I-0.742 J-0.107 F600
N10350 X62.242 Y106.039 I0.742 J0.107
N10355 X62.016 Y106.209 I-0.198 J-0.029
N10360 G1 X61.818 Y106.18
N10365 X61.767 Y106.173 Z-3.993
N10370 X61.719 Y106.166 Z-3.973
N10375 X61.678 Y106.16 Z-3.941
N10380 X61.646 Y106.155 Z-3.9
N10385 X61.627 Y106.152 Z-3.852
N10390 X61.62 Y106.151 Z-3.8
N10395 G0 Z5
N10400 X61.677 Y105.755
N10405 G1 Z-2 F600
N10410 Z-4.8
N10415 X61.684 Y105.756 Z-4.852
N10420 X61.704 Y105.759 Z-4.9
N10425 X61.735 Y105.764 Z-4.941
N10430 X61.776 Y105.77 Z-4.973
N10435 X61.824 Y105.777 Z-4.993
N10440 X61.875 Y105.784 Z-5
N10445 X62.073 Y105.813 F300
N10450 G3 X62.242 Y106.039 I-0.029 J0.198
N10455 X60.758 Y105.825 I-0.742 J-0.107 F600
N10460 X62.242 Y106.039 I0.742 J0.107
N10465 X62.016 Y106.209 I-0.198 J-0.029
N10470 G1 X61.818 Y106.18
N10475 X61.767 Y106.173 Z-4.993
N10480 X61.719 Y106.166 Z-4.973
N10485 X61.678 Y106.16 Z-4.941
N10490 X61.646 Y106.155 Z-4.9
N10495 X61.627 Y106.152 Z-4.852
N10500 X61.62 Y106.151 Z-4.8
N10505 G0 Z5
N10510 X61.677 Y105.755
N10515 G1 Z-3 F600
N10520 Z-5.311
N10525 X61.684 Y105.756 Z-5.363
N10530 X61.704 Y105.759 Z-5.411
N10535 X61.735 Y105.764 Z-5.452
N10540 X61.776 Y105.77 Z-5.484
N10545 X61.824 Y105.777 Z-5.504
N10550 X61.875 Y105.784 Z-5.511
N10555 X62.073 Y105.813 F300
N10560 G3 X62.242 Y106.039 I-0.029 J0.198
N10565 X60.758 Y105.825 I-0.742 J-0.107 F600
N10570 X62.242 Y106.039 I0.742 J0.107
N10575 X62.016 Y106.209 I-0.198 J-0.029
N10580 G1 X61.818 Y106.18
N10585 X61.767 Y106.173 Z-5.504
N10590 X61.719 Y106.166 Z-5.484
N10595 X61.678 Y106.16 Z-5.452
N10600 X61.646 Y106.155 Z-5.411
N10605 X61.627 Y106.152 Z-5.363
N10610 X61.62 Y106.151 Z-5.311
N10615 G0 Z15

(2D ????23)
N10620 X19.095 Y33.195
N10625 Z15
N10630 Z5
N10635 G1 Z-0.3 F300
N10640 G18 G2 X19.295 Z-0.5 I0.2
N10645 G1 X20.61
N10650 X25.895 F600
N10655 G17 G3 X26.095 Y33.396 J0.2
N10660 G1 X26.09 Y34.47
N10665 G3 X25.89 Y34.669 I-0.2 J-0.001
N10670 G1 X20.605
N10675 G3 X20.405 Y34.469 J-0.2
N10680 G1 X20.412 Y31.83
N10685 G3 X20.612 Y31.63 I0.2 J0.001
N10690 G1 X25.898
N10695 G3 X26.098 Y31.831 J0.2
N10700 G1 X26.088 Y36.034
N10705 G3 X25.888 Y36.234 I-0.2
N10710 G1 X20.602
N10715 G3 Y35.452 J-0.391
N10720 G1 X23.187 Y35.447
N10725 X23.245 Y35.452
N10730 X25.888 Y35.843
N10735 G3 X26.221 Y36.207 I-0.057 J0.387
N10740 G1 X26.29 Y37.384
N10745 G3 X25.899 Y37.798 I-0.39 J0.023
N10750 G1 X20.6
N10755 G3 Y37.016 J-0.391
N10760 G1 X23.192 Y37.012
N10765 X23.25 Y37.016
N10770 X25.899 Y37.407
N10775 G3 X26.233 Y37.776 I-0.057 J0.387
N10780 G1 X26.288 Y38.953
N10785 G3 X25.897 Y39.363 I-0.391 J0.018
N10790 G1 X20.612
N10795 G3 X20.611 Y38.58 J-0.391
N10800 G1 X23.197 Y38.576
N10805 X23.255 Y38.58
N10810 X25.897 Y38.972
N10815 G3 X26.231 Y39.341 I-0.057 J0.387
N10820 G1 X26.283 Y40.524
N10825 G3 X25.893 Y40.932 I-0.391 J0.017
N10830 G1 X20.601
N10835 G3 X20.401 Y40.732 J-0.2
N10840 G1 Y30.266
N10845 G3 X20.601 Y30.066 I0.2
N10850 G1 X25.9
N10855 G3 Y30.848 J0.391
N10860 G1 X23.308 Y30.852
N10865 X23.25 Y30.848
N10870 X20.601 Y30.457
N10875 G3 X20.267 Y30.088 I0.057 J-0.387
N10880 G1 X20.212 Y28.911
N10885 G3 X20.603 Y28.502 I0.391 J-0.018
N10890 G1 X25.888
N10895 G3 X25.889 Y29.284 J0.391
N10900 G1 X23.303 Y29.288
N10905 X23.245 Y29.284
N10910 X20.603 Y28.893
N10915 G3 X20.269 Y28.523 I0.057 J-0.387
N10920 G1 X20.217 Y27.341
N10925 G3 X20.607 Y26.932 I0.391 J-0.017
N10930 G1 X25.899
N10935 G3 X26.099 Y27.121 J0.2
N10940 G1 X26.505 Y34.458
N10945 G3 X26.305 Y34.669 I-0.2 J0.011
N10950 G18 G2 X26.105 Z-0.7 K-0.2 F300
N10955 G1 Z-0.8
N10960 G3 X25.905 Z-1 I-0.2
N10965 G1 X25.89
N10970 X20.605 F600
N10975 G17 G3 X20.405 Y34.468 J-0.2
N10980 G1 X20.41 Y33.394
N10985 G3 X20.61 Y33.195 I0.2 J0.001
N10990 G1 X25.895
N10995 G3 X26.095 Y33.395 J0.2
N11000 G1 X26.088 Y36.034
N11005 G3 X25.888 Y36.234 I-0.2 J-0.001
N11010 G1 X20.602
N11015 G3 X20.402 Y36.033 J-0.2
N11020 G1 X20.412 Y31.83
N11025 G3 X20.612 Y31.63 I0.2
N11030 G1 X25.898
N11035 G3 Y32.413 J0.391
N11040 G1 X23.313 Y32.417
N11045 X23.255 Y32.413
N11050 X20.612 Y32.021
N11055 G3 X20.279 Y31.657 I0.057 J-0.387
N11060 G1 X20.21 Y30.48
N11065 G3 X20.601 Y30.066 I0.39 J-0.023
N11070 G1 X25.9
N11075 G3 Y30.848 J0.391
N11080 G1 X23.308 Y30.852
N11085 X23.25 Y30.848
N11090 X20.601 Y30.457
N11095 G3 X20.267 Y30.088 I0.057 J-0.387
N11100 G1 X20.212 Y28.911
N11105 G3 X20.603 Y28.502 I0.391 J-0.018
N11110 G1 X25.888
N11115 G3 X25.889 Y29.284 J0.391
N11120 G1 X23.303 Y29.288
N11125 X23.245 Y29.284
N11130 X20.603 Y28.893
N11135 G3 X20.269 Y28.523 I0.057 J-0.387
N11140 G1 X20.217 Y27.341
N11145 G3 X20.607 Y26.932 I0.391 J-0.017
N11150 G1 X25.899
N11155 G3 X26.099 Y27.132 J0.2
N11160 G1 Y37.598
N11165 G3 X25.899 Y37.798 I-0.2
N11170 G1 X20.6
N11175 G3 Y37.016 J-0.391
N11180 G1 X23.192 Y37.012
N11185 X23.25 Y37.016
N11190 X25.899 Y37.407
N11195 G3 X26.233 Y37.776 I-0.057 J0.387
N11200 G1 X26.288 Y38.953
N11205 G3 X25.897 Y39.363 I-0.391 J0.018
N11210 G1 X20.612
N11215 G3 X20.611 Y38.58 J-0.391
N11220 G1 X23.197 Y38.576
N11225 X23.255 Y38.58
N11230 X25.897 Y38.972
N11235 G3 X26.231 Y39.341 I-0.057 J0.387
N11240 G1 X26.283 Y40.524
N11245 G3 X25.893 Y40.932 I-0.391 J0.017
N11250 G1 X20.601
N11255 G3 X20.401 Y40.743 J-0.2
N11260 G1 X19.995 Y33.406
N11265 G3 X20.195 Y33.195 I0.2 J-0.011
N11270 G18 G3 X20.395 Z-1.2 K-0.2 F300
N11275 G1 Z-1.3
N11280 G2 X20.595 Z-1.5 I0.2
N11285 G1 X20.61
N11290 X25.895 F600
N11295 G17 G3 X26.095 Y33.396 J0.2
N11300 G1 X26.09 Y34.47
N11305 G3 X25.89 Y34.669 I-0.2 J-0.001
N11310 G1 X20.605
N11315 G3 X20.405 Y34.469 J-0.2
N11320 G1 X20.412 Y31.83
N11325 G3 X20.612 Y31.63 I0.2 J0.001
N11330 G1 X25.898
N11335 G3 X26.098 Y31.831 J0.2
N11340 G1 X26.088 Y36.034
N11345 G3 X25.888 Y36.234 I-0.2
N11350 G1 X20.602
N11355 G3 Y35.452 J-0.391
N11360 G1 X23.187 Y35.447
N11365 X23.245 Y35.452
N11370 X25.888 Y35.843
N11375 G3 X26.221 Y36.207 I-0.057 J0.387
N11380 G1 X26.29 Y37.384
N11385 G3 X25.899 Y37.798 I-0.39 J0.023
N11390 G1 X20.6
N11395 G3 Y37.016 J-0.391
N11400 G1 X23.192 Y37.012
N11405 X23.25 Y37.016
N11410 X25.899 Y37.407
N11415 G3 X26.233 Y37.776 I-0.057 J0.387
N11420 G1 X26.288 Y38.953
N11425 G3 X25.897 Y39.363 I-0.391 J0.018
N11430 G1 X20.612
N11435 G3 X20.611 Y38.58 J-0.391
N11440 G1 X23.197 Y38.576
N11445 X23.255 Y38.58
N11450 X25.897 Y38.972
N11455 G3 X26.231 Y39.341 I-0.057 J0.387
N11460 G1 X26.283 Y40.524
N11465 G3 X25.893 Y40.932 I-0.391 J0.017
N11470 G1 X20.601
N11475 G3 X20.401 Y40.732 J-0.2
N11480 G1 Y30.266
N11485 G3 X20.601 Y30.066 I0.2
N11490 G1 X25.9
N11495 G3 Y30.848 J0.391
N11500 G1 X23.308 Y30.852
N11505 X23.25 Y30.848
N11510 X20.601 Y30.457
N11515 G3 X20.267 Y30.088 I0.057 J-0.387
N11520 G1 X20.212 Y28.911
N11525 G3 X20.603 Y28.502 I0.391 J-0.018
N11530 G1 X25.888
N11535 G3 X25.889 Y29.284 J0.391
N11540 G1 X23.303 Y29.288
N11545 X23.245 Y29.284
N11550 X20.603 Y28.893
N11555 G3 X20.269 Y28.523 I0.057 J-0.387
N11560 G1 X20.217 Y27.341
N11565 G3 X20.607 Y26.932 I0.391 J-0.017
N11570 G1 X25.899
N11575 G3 X26.099 Y27.121 J0.2
N11580 G1 X26.505 Y34.458
N11585 G3 X26.305 Y34.669 I-0.2 J0.011
N11590 G18 G2 X26.105 Z-1.7 K-0.2 F300
N11595 G1 Z-1.801
N11600 G3 X25.905 Z-2.001 I-0.2
N11605 G1 X25.89
N11610 X20.605 F600
N11615 G17 G3 X20.405 Y34.468 J-0.2
N11620 G1 X20.41 Y33.394
N11625 G3 X20.61 Y33.195 I0.2 J0.001
N11630 G1 X25.895
N11635 G3 X26.095 Y33.395 J0.2
N11640 G1 X26.088 Y36.034
N11645 G3 X25.888 Y36.234 I-0.2 J-0.001
N11650 G1 X20.602
N11655 G3 X20.402 Y36.033 J-0.2
N11660 G1 X20.412 Y31.83
N11665 G3 X20.612 Y31.63 I0.2
N11670 G1 X25.898
N11675 G3 Y32.413 J0.391
N11680 G1 X23.313 Y32.417
N11685 X23.255 Y32.413
N11690 X20.612 Y32.021
N11695 G3 X20.279 Y31.657 I0.057 J-0.387
N11700 G1 X20.21 Y30.48
N11705 G3 X20.601 Y30.066 I0.39 J-0.023
N11710 G1 X25.9
N11715 G3 Y30.848 J0.391
N11720 G1 X23.308 Y30.852
N11725 X23.25 Y30.848
N11730 X20.601 Y30.457
N11735 G3 X20.267 Y30.088 I0.057 J-0.387
N11740 G1 X20.212 Y28.911
N11745 G3 X20.603 Y28.502 I0.391 J-0.018
N11750 G1 X25.888
N11755 G3 X25.889 Y29.284 J0.391
N11760 G1 X23.303 Y29.288
N11765 X23.245 Y29.284
N11770 X20.603 Y28.893
N11775 G3 X20.269 Y28.523 I0.057 J-0.387
N11780 G1 X20.217 Y27.341
N11785 G3 X20.607 Y26.932 I0.391 J-0.017
N11790 G1 X25.899
N11795 G3 X26.099 Y27.132 J0.2
N11800 G1 Y37.598
N11805 G3 X25.899 Y37.798 I-0.2
N11810 G1 X20.6
N11815 G3 Y37.016 J-0.391
N11820 G1 X23.192 Y37.012
N11825 X23.25 Y37.016
N11830 X25.899 Y37.407
N11835 G3 X26.233 Y37.776 I-0.057 J0.387
N11840 G1 X26.288 Y38.953
N11845 G3 X25.897 Y39.363 I-0.391 J0.018
N11850 G1 X20.612
N11855 G3 X20.611 Y38.58 J-0.391
N11860 G1 X23.197 Y38.576
N11865 X23.255 Y38.58
N11870 X25.897 Y38.972
N11875 G3 X26.231 Y39.341 I-0.057 J0.387
N11880 G1 X26.283 Y40.524
N11885 G3 X25.893 Y40.932 I-0.391 J0.017
N11890 G1 X20.601
N11895 X20.57 Y40.93
N11900 X19.582 Y40.773
N11905 X19.531 Y40.765 Z-1.994
N11910 X19.483 Y40.758 Z-1.974
N11915 X19.442 Y40.751 Z-1.942
N11920 X19.411 Y40.746 Z-1.901
N11925 X19.391 Y40.743 Z-1.853
N11930 X19.384 Y40.742 Z-1.801
N11935 G0 Z15
N11940 X19.097 Y97.296
N11945 Z5
N11950 G1 Z-0.3 F300
N11955 G18 G2 X19.297 Z-0.5 I0.2
N11960 G1 X20.612
N11965 X25.898 F600
N11970 G17 G3 X26.097 Y97.501 J0.2
N11975 G1 X26.088 Y97.874
N11980 G3 X25.888 Y98.068 I-0.2 J-0.005
N11985 G1 X20.603
N11990 G3 X20.403 Y97.867 J-0.2
N11995 G1 X20.408 Y96.7
N12000 G3 X20.608 Y96.501 I0.2 J0.001
N12005 G1 X25.893
N12010 G3 X26.093 Y96.702 J0.2
N12015 G1 X26.092 Y98.663
N12020 G3 X25.892 Y98.863 I-0.2
N12025 G1 X20.607
N12030 G3 X20.407 Y98.662 J-0.2
N12035 G1 X20.413 Y95.132
N12040 G3 X20.613 Y94.932 I0.2
N12045 G1 X25.899
N12050 G3 X26.099 Y95.132 J0.2
N12055 G1 X26.087 Y100.232
N12060 G3 X25.887 Y100.432 I-0.2
N12065 G1 X20.601
N12070 G3 X20.403 Y100.261 J-0.2
N12075 G1 X19.999 Y97.525
N12080 G3 X20.197 Y97.296 I0.198 J-0.029
N12085 G18 G3 X20.397 Z-0.7 K-0.2 F300
N12090 G1 Z-0.8
N12095 G2 X20.597 Z-1 I0.2
N12100 G1 X20.612
N12105 X25.898 F600
N12110 G17 G3 X26.097 Y97.501 J0.2
N12115 G1 X26.088 Y97.874
N12120 G3 X25.888 Y98.068 I-0.2 J-0.005
N12125 G1 X20.603
N12130 G3 X20.403 Y97.867 J-0.2
N12135 G1 X20.408 Y96.7
N12140 G3 X20.608 Y96.501 I0.2 J0.001
N12145 G1 X25.893
N12150 G3 X26.093 Y96.702 J0.2
N12155 G1 X26.092 Y98.663
N12160 G3 X25.892 Y98.863 I-0.2
N12165 G1 X20.607
N12170 G3 X20.407 Y98.662 J-0.2
N12175 G1 X20.413 Y95.132
N12180 G3 X20.613 Y94.932 I0.2
N12185 G1 X25.899
N12190 G3 X26.099 Y95.132 J0.2
N12195 G1 X26.087 Y100.232
N12200 G3 X25.887 Y100.432 I-0.2
N12205 G1 X20.601
N12210 G3 X20.403 Y100.261 J-0.2
N12215 G1 X19.999 Y97.525
N12220 G3 X20.197 Y97.296 I0.198 J-0.029
N12225 G18 G3 X20.397 Z-1.2 K-0.2 F300
N12230 G1 Z-1.3
N12235 G2 X20.597 Z-1.5 I0.2
N12240 G1 X20.612
N12245 X25.898 F600
N12250 G17 G3 X26.097 Y97.501 J0.2
N12255 G1 X26.088 Y97.874
N12260 G3 X25.888 Y98.068 I-0.2 J-0.005
N12265 G1 X20.603
N12270 G3 X20.403 Y97.867 J-0.2
N12275 G1 X20.408 Y96.7
N12280 G3 X20.608 Y96.501 I0.2 J0.001
N12285 G1 X25.893
N12290 G3 X26.093 Y96.702 J0.2
N12295 G1 X26.092 Y98.663
N12300 G3 X25.892 Y98.863 I-0.2
N12305 G1 X20.607
N12310 G3 X20.407 Y98.662 J-0.2
N12315 G1 X20.413 Y95.132
N12320 G3 X20.613 Y94.932 I0.2
N12325 G1 X25.899
N12330 G3 X26.099 Y95.132 J0.2
N12335 G1 X26.087 Y100.232
N12340 G3 X25.887 Y100.432 I-0.2
N12345 G1 X20.601
N12350 G3 X20.403 Y100.261 J-0.2
N12355 G1 X19.999 Y97.525
N12360 G3 X20.197 Y97.296 I0.198 J-0.029
N12365 G18 G3 X20.397 Z-1.7 K-0.2 F300
N12370 G1 Z-1.801
N12375 G2 X20.597 Z-2.001 I0.2
N12380 G1 X20.612
N12385 X25.898 F600
N12390 G17 G3 X26.097 Y97.501 J0.2
N12395 G1 X26.088 Y97.874
N12400 G3 X25.888 Y98.068 I-0.2 J-0.005
N12405 G1 X20.603
N12410 G3 X20.403 Y97.867 J-0.2
N12415 G1 X20.408 Y96.7
N12420 G3 X20.608 Y96.501 I0.2 J0.001
N12425 G1 X25.893
N12430 G3 X26.093 Y96.702 J0.2
N12435 G1 X26.092 Y98.663
N12440 G3 X25.892 Y98.863 I-0.2
N12445 G1 X20.607
N12450 G3 X20.407 Y98.662 J-0.2
N12455 G1 X20.413 Y95.132
N12460 G3 X20.613 Y94.932 I0.2
N12465 G1 X25.899
N12470 G3 X26.099 Y95.132 J0.2
N12475 G1 X26.087 Y100.232
N12480 G3 X25.887 Y100.432 I-0.2
N12485 G1 X20.601
N12490 X20.57 Y100.43
N12495 X19.582 Y100.273
N12500 X19.531 Y100.265 Z-1.994
N12505 X19.483 Y100.257 Z-1.974
N12510 X19.442 Y100.251 Z-1.942
N12515 X19.411 Y100.246 Z-1.901
N12520 X19.391 Y100.243 Z-1.853
N12525 X19.384 Y100.242 Z-1.801
N12530 G0 Z15
N12535 X50.598 Y87.501
N12540 Z5
N12545 G1 Z-0.3 F300
N12550 G18 G2 X50.798 Z-0.5 I0.2
N12555 G1 X52.101
N12560 X57.4 F600
N12565 G17 G3 X57.6 Y87.702 J0.2
N12570 G1 X57.599 Y88.163
N12575 G3 X57.399 Y88.363 I-0.2
N12580 G1 X52.1
N12585 G3 X51.9 Y88.162 J-0.2
N12590 G1 X51.905 Y86.132
N12595 G3 X52.105 Y85.932 I0.2
N12600 G1 X57.399
N12605 G3 X57.599 Y86.132 J0.2
N12610 G1 X57.595 Y89.732
N12615 G3 X57.395 Y89.932 I-0.2
N12620 G1 X52.101
N12625 G3 X51.905 Y89.771 J-0.2
N12630 G1 X51.497 Y87.741
N12635 G3 X51.693 Y87.501 I0.196 J-0.039
N12640 G18 G3 X51.893 Z-0.7 K-0.2 F300
N12645 G1 Z-0.8
N12650 G2 X52.093 Z-1 I0.2
N12655 G1 X52.101
N12660 X57.4 F600
N12665 G17 G3 X57.6 Y87.702 J0.2
N12670 G1 X57.599 Y88.163
N12675 G3 X57.399 Y88.363 I-0.2
N12680 G1 X52.1
N12685 G3 X51.9 Y88.162 J-0.2
N12690 G1 X51.905 Y86.132
N12695 G3 X52.105 Y85.932 I0.2
N12700 G1 X57.399
N12705 G3 X57.599 Y86.132 J0.2
N12710 G1 X57.595 Y89.732
N12715 G3 X57.395 Y89.932 I-0.2
N12720 G1 X52.101
N12725 G3 X51.905 Y89.771 J-0.2
N12730 G1 X51.497 Y87.741
N12735 G3 X51.693 Y87.501 I0.196 J-0.039
N12740 G18 G3 X51.893 Z-1.2 K-0.2 F300
N12745 G1 Z-1.3
N12750 G2 X52.093 Z-1.5 I0.2
N12755 G1 X52.101
N12760 X57.4 F600
N12765 G17 G3 X57.6 Y87.702 J0.2
N12770 G1 X57.599 Y88.163
N12775 G3 X57.399 Y88.363 I-0.2
N12780 G1 X52.1
N12785 G3 X51.9 Y88.162 J-0.2
N12790 G1 X51.905 Y86.132
N12795 G3 X52.105 Y85.932 I0.2
N12800 G1 X57.399
N12805 G3 X57.599 Y86.132 J0.2
N12810 G1 X57.595 Y89.732
N12815 G3 X57.395 Y89.932 I-0.2
N12820 G1 X52.101
N12825 G3 X51.904 Y89.769 J-0.2
N12830 G1 X51.523 Y87.738
N12835 G3 X51.72 Y87.501 I0.197 J-0.037
N12840 G1 X51.768 Z-1.506 F300
N12845 X51.812 Z-1.523
N12850 X51.852 Z-1.55
N12855 X51.884 Z-1.585
N12860 X51.906 Z-1.628
N12865 X51.929 Z-1.67
N12870 X51.961 Z-1.706
N12875 X52.001 Z-1.733
N12880 X52.045 Z-1.75
N12885 X52.093 Z-1.755
N12890 X52.101
N12895 X57.4 F600
N12900 G3 X57.6 Y87.702 J0.2
N12905 G1 X57.599 Y88.163
N12910 G3 X57.399 Y88.363 I-0.2
N12915 G1 X52.1
N12920 G3 X51.9 Y88.162 J-0.2
N12925 G1 X51.905 Y86.132
N12930 G3 X52.105 Y85.932 I0.2
N12935 G1 X57.399
N12940 G3 X57.599 Y86.132 J0.2
N12945 G1 X57.595 Y89.732
N12950 G3 X57.395 Y89.932 I-0.2
N12955 G1 X52.101
N12960 G3 X51.904 Y89.769 J-0.2
N12965 G1 X51.523 Y87.738
N12970 G3 X51.72 Y87.501 I0.197 J-0.037
N12975 G1 X51.768 Z-1.761 F300
N12980 X51.812 Z-1.778
N12985 X51.852 Z-1.805
N12990 X51.884 Z-1.841
N12995 X51.906 Z-1.883
N13000 X51.929 Z-1.926
N13005 X51.961 Z-1.961
N13010 X52.001 Z-1.988
N13015 X52.045 Z-2.005
N13020 X52.093 Z-2.011
N13025 X52.101
N13030 X57.4 F600
N13035 G3 X57.6 Y87.702 J0.2
N13040 G1 X57.599 Y88.163
N13045 G3 X57.399 Y88.363 I-0.2
N13050 G1 X52.1
N13055 G3 X51.9 Y88.162 J-0.2
N13060 G1 X51.905 Y86.132
N13065 G3 X52.105 Y85.932 I0.2
N13070 G1 X57.399
N13075 G3 X57.599 Y86.132 J0.2
N13080 G1 X57.595 Y89.732
N13085 G3 X57.395 Y89.932 I-0.2
N13090 G1 X52.101
N13095 X52.07 Y89.93
N13100 X51.082 Y89.773
N13105 X51.031 Y89.765 Z-2.004
N13110 X50.983 Y89.757 Z-1.984
N13115 X50.942 Y89.751 Z-1.952
N13120 X50.911 Y89.746 Z-1.911
N13125 X50.891 Y89.743 Z-1.863
N13130 X50.884 Y89.742 Z-1.811
N13135 G0 Z15
N13140 M9
N13145 G28
N13150 M30
%
