%
(1001)
(T2 D=4 CR=0 - ZMIN=-9.111 - flat end mill)
N10 G90 G94
N15 G17
N20 G21
N25 M9
N30 G28

(2D ??40)
N35 T2 M6
N40 S10000 M3
N45 G54
N50 M8
N55 G0 X-3.2 Y-0.4
N60 G43 Z15
N65 Z5
N70 G1 Z1.5 F300
N75 Z-0.1
N80 G18 G2 X-2.8 Z-0.5 I0.4
N85 G1 X-2.4 F150
N90 G17 G3 X-2 Y0 J0.4
N95 G1 Y127.864 F300
N100 G2 X0 Y129.864 I2
N105 G1 X3.5
N110 G2 X5.5 Y127.864 J-2
N115 G1 Y125.864
N120 X16.25
N125 G2 X18.25 Y123.864 J-2
N130 G1 Y120.864
N135 G2 X16.25 Y118.864 I-2
N140 G1 X15.25
N145 Y116.932
N150 G2 X13.25 Y114.932 I-2
N155 G1 X5.5
N160 Y12.932
N165 X13.25
N170 G2 X15.25 Y10.932 J-2
N175 G1 Y9
N180 X16.25
N185 G2 X18.25 Y7 J-2
N190 G1 Y4
N195 G2 X16.25 Y2 I-2
N200 G1 X5.5
N205 Y0
N210 G2 X3.5 Y-2 I-2
N215 G1 X0
N220 G2 X-2 Y0 J2
N225 G3 X-2.4 Y0.4 I-0.4
N230 G1 X-2.8
N235 G18 G3 X-3.2 Z-0.1 K0.4
N240 G0 Z5
N245 Y-0.4
N250 G1 Z1 F300
N255 Z-0.6
N260 G2 X-2.8 Z-1 I0.4
N265 G1 X-2.4 F150
N270 G17 G3 X-2 Y0 J0.4
N275 G1 Y127.864 F300
N280 G2 X0 Y129.864 I2
N285 G1 X3.5
N290 G2 X5.5 Y127.864 J-2
N295 G1 Y125.864
N300 X16.25
N305 G2 X18.25 Y123.864 J-2
N310 G1 Y120.864
N315 G2 X16.25 Y118.864 I-2
N320 G1 X15.25
N325 Y116.932
N330 G2 X13.25 Y114.932 I-2
N335 G1 X5.5
N340 Y12.932
N345 X13.25
N350 G2 X15.25 Y10.932 J-2
N355 G1 Y9
N360 X16.25
N365 G2 X18.25 Y7 J-2
N370 G1 Y4
N375 G2 X16.25 Y2 I-2
N380 G1 X5.5
N385 Y0
N390 G2 X3.5 Y-2 I-2
N395 G1 X0
N400 G2 X-2 Y0 J2
N405 G3 X-2.4 Y0.4 I-0.4
N410 G1 X-2.8
N415 G18 G3 X-3.2 Z-0.6 K0.4
N420 G0 Z5
N425 Y-0.4
N430 G1 Z0.5 F300
N435 Z-1.1
N440 G2 X-2.8 Z-1.5 I0.4
N445 G1 X-2.4 F150
N450 G17 G3 X-2 Y0 J0.4
N455 G1 Y127.864 F300
N460 G2 X0 Y129.864 I2
N465 G1 X3.5
N470 G2 X5.5 Y127.864 J-2
N475 G1 Y125.864
N480 X16.25
N485 G2 X18.25 Y123.864 J-2
N490 G1 Y120.864
N495 G2 X16.25 Y118.864 I-2
N500 G1 X15.25
N505 Y116.932
N510 G2 X13.25 Y114.932 I-2
N515 G1 X5.5
N520 Y12.932
N525 X13.25
N530 G2 X15.25 Y10.932 J-2
N535 G1 Y9
N540 X16.25
N545 G2 X18.25 Y7 J-2
N550 G1 Y4
N555 G2 X16.25 Y2 I-2
N560 G1 X5.5
N565 Y0
N570 G2 X3.5 Y-2 I-2
N575 G1 X0
N580 G2 X-2 Y0 J2
N585 G3 X-2.4 Y0.4 I-0.4
N590 G1 X-2.8
N595 G18 G3 X-3.2 Z-1.1 K0.4
N600 G0 Z5
N605 Y-0.4
N610 G1 Z0 F300
N615 Z-1.6
N620 G2 X-2.8 Z-2 I0.4
N625 G1 X-2.4 F150
N630 G17 G3 X-2 Y0 J0.4
N635 G1 Y127.864 F300
N640 G2 X0 Y129.864 I2
N645 G1 X3.5
N650 G2 X5.5 Y127.864 J-2
N655 G1 Y125.864
N660 X16.25
N665 G2 X18.25 Y123.864 J-2
N670 G1 Y120.864
N675 G2 X16.25 Y118.864 I-2
N680 G1 X15.25
N685 Y116.932
N690 G2 X13.25 Y114.932 I-2
N695 G1 X5.5
N700 Y12.932
N705 X13.25
N710 G2 X15.25 Y10.932 J-2
N715 G1 Y9
N720 X16.25
N725 G2 X18.25 Y7 J-2
N730 G1 Y4
N735 G2 X16.25 Y2 I-2
N740 G1 X5.5
N745 Y0
N750 G2 X3.5 Y-2 I-2
N755 G1 X0
N760 G2 X-2 Y0 J2
N765 G3 X-2.4 Y0.4 I-0.4
N770 G1 X-2.8
N775 G18 G3 X-3.2 Z-1.6 K0.4
N780 G0 Z5
N785 Y-0.4
N790 G1 Z-0.5 F300
N795 Z-2.1
N800 G2 X-2.8 Z-2.5 I0.4
N805 G1 X-2.4 F150
N810 G17 G3 X-2 Y0 J0.4
N815 G1 Y127.864 F300
N820 G2 X0 Y129.864 I2
N825 G1 X3.5
N830 G2 X5.5 Y127.864 J-2
N835 G1 Y125.864
N840 X16.25
N845 G2 X18.25 Y123.864 J-2
N850 G1 Y120.864
N855 G2 X16.25 Y118.864 I-2
N860 G1 X15.25
N865 Y116.932
N870 G2 X13.25 Y114.932 I-2
N875 G1 X5.5
N880 Y12.932
N885 X13.25
N890 G2 X15.25 Y10.932 J-2
N895 G1 Y9
N900 X16.25
N905 G2 X18.25 Y7 J-2
N910 G1 Y4
N915 G2 X16.25 Y2 I-2
N920 G1 X5.5
N925 Y0
N930 G2 X3.5 Y-2 I-2
N935 G1 X0
N940 G2 X-2 Y0 J2
N945 G3 X-2.4 Y0.4 I-0.4
N950 G1 X-2.8
N955 G18 G3 X-3.2 Z-2.1 K0.4
N960 G0 Z5
N965 Y-0.4
N970 G1 Z-1 F300
N975 Z-2.6
N980 G2 X-2.8 Z-3 I0.4
N985 G1 X-2.4 F150
N990 G17 G3 X-2 Y0 J0.4
N995 G1 Y127.864 F300
N1000 G2 X0 Y129.864 I2
N1005 G1 X3.5
N1010 G2 X5.5 Y127.864 J-2
N1015 G1 Y125.864
N1020 X16.25
N1025 G2 X18.25 Y123.864 J-2
N1030 G1 Y120.864
N1035 G2 X16.25 Y118.864 I-2
N1040 G1 X15.25
N1045 Y116.932
N1050 G2 X13.25 Y114.932 I-2
N1055 G1 X5.5
N1060 Y12.932
N1065 X13.25
N1070 G2 X15.25 Y10.932 J-2
N1075 G1 Y9
N1080 X16.25
N1085 G2 X18.25 Y7 J-2
N1090 G1 Y4
N1095 G2 X16.25 Y2 I-2
N1100 G1 X5.5
N1105 Y0
N1110 G2 X3.5 Y-2 I-2
N1115 G1 X0
N1120 G2 X-2 Y0 J2
N1125 G3 X-2.4 Y0.4 I-0.4
N1130 G1 X-2.8
N1135 G18 G3 X-3.2 Z-2.6 K0.4
N1140 G0 Z5
N1145 Y-0.4
N1150 G1 Z-1.5 F300
N1155 Z-3.1
N1160 G2 X-2.8 Z-3.5 I0.4
N1165 G1 X-2.4 F150
N1170 G17 G3 X-2 Y0 J0.4
N1175 G1 Y127.864 F300
N1180 G2 X0 Y129.864 I2
N1185 G1 X3.5
N1190 G2 X5.5 Y127.864 J-2
N1195 G1 Y125.864
N1200 X16.25
N1205 G2 X18.25 Y123.864 J-2
N1210 G1 Y120.864
N1215 G2 X16.25 Y118.864 I-2
N1220 G1 X15.25
N1225 Y116.932
N1230 G2 X13.25 Y114.932 I-2
N1235 G1 X5.5
N1240 Y12.932
N1245 X13.25
N1250 G2 X15.25 Y10.932 J-2
N1255 G1 Y9
N1260 X16.25
N1265 G2 X18.25 Y7 J-2
N1270 G1 Y4
N1275 G2 X16.25 Y2 I-2
N1280 G1 X5.5
N1285 Y0
N1290 G2 X3.5 Y-2 I-2
N1295 G1 X0
N1300 G2 X-2 Y0 J2
N1305 G3 X-2.4 Y0.4 I-0.4
N1310 G1 X-2.8
N1315 G18 G3 X-3.2 Z-3.1 K0.4
N1320 G0 Z5
N1325 Y-0.4
N1330 G1 Z-2 F300
N1335 Z-3.6
N1340 G2 X-2.8 Z-4 I0.4
N1345 G1 X-2.4 F150
N1350 G17 G3 X-2 Y0 J0.4
N1355 G1 Y127.864 F300
N1360 G2 X0 Y129.864 I2
N1365 G1 X3.5
N1370 G2 X5.5 Y127.864 J-2
N1375 G1 Y125.864
N1380 X16.25
N1385 G2 X18.25 Y123.864 J-2
N1390 G1 Y120.864
N1395 G2 X16.25 Y118.864 I-2
N1400 G1 X15.25
N1405 Y116.932
N1410 G2 X13.25 Y114.932 I-2
N1415 G1 X5.5
N1420 Y12.932
N1425 X13.25
N1430 G2 X15.25 Y10.932 J-2
N1435 G1 Y9
N1440 X16.25
N1445 G2 X18.25 Y7 J-2
N1450 G1 Y4
N1455 G2 X16.25 Y2 I-2
N1460 G1 X5.5
N1465 Y0
N1470 G2 X3.5 Y-2 I-2
N1475 G1 X0
N1480 G2 X-2 Y0 J2
N1485 G3 X-2.4 Y0.4 I-0.4
N1490 G1 X-2.8
N1495 G18 G3 X-3.2 Z-3.6 K0.4
N1500 G0 Z5
N1505 Y-0.4
N1510 G1 Z-2.5 F300
N1515 Z-4.1
N1520 G2 X-2.8 Z-4.5 I0.4
N1525 G1 X-2.4 F150
N1530 G17 G3 X-2 Y0 J0.4
N1535 G1 Y127.864 F300
N1540 G2 X0 Y129.864 I2
N1545 G1 X3.5
N1550 G2 X5.5 Y127.864 J-2
N1555 G1 Y125.864
N1560 X16.25
N1565 G2 X18.25 Y123.864 J-2
N1570 G1 Y120.864
N1575 G2 X16.25 Y118.864 I-2
N1580 G1 X15.25
N1585 Y116.932
N1590 G2 X13.25 Y114.932 I-2
N1595 G1 X5.5
N1600 Y12.932
N1605 X13.25
N1610 G2 X15.25 Y10.932 J-2
N1615 G1 Y9
N1620 X16.25
N1625 G2 X18.25 Y7 J-2
N1630 G1 Y4
N1635 G2 X16.25 Y2 I-2
N1640 G1 X5.5
N1645 Y0
N1650 G2 X3.5 Y-2 I-2
N1655 G1 X0
N1660 G2 X-2 Y0 J2
N1665 G3 X-2.4 Y0.4 I-0.4
N1670 G1 X-2.8
N1675 G18 G3 X-3.2 Z-4.1 K0.4
N1680 G0 Z5
N1685 Y-0.4
N1690 G1 Z-3 F300
N1695 Z-4.6
N1700 G2 X-2.8 Z-5 I0.4
N1705 G1 X-2.4 F150
N1710 G17 G3 X-2 Y0 J0.4
N1715 G1 Y127.864 F300
N1720 G2 X0 Y129.864 I2
N1725 G1 X3.5
N1730 G2 X5.5 Y127.864 J-2
N1735 G1 Y125.864
N1740 X16.25
N1745 G2 X18.25 Y123.864 J-2
N1750 G1 Y120.864
N1755 G2 X16.25 Y118.864 I-2
N1760 G1 X15.25
N1765 Y116.932
N1770 G2 X13.25 Y114.932 I-2
N1775 G1 X5.5
N1780 Y12.932
N1785 X13.25
N1790 G2 X15.25 Y10.932 J-2
N1795 G1 Y9
N1800 X16.25
N1805 G2 X18.25 Y7 J-2
N1810 G1 Y4
N1815 G2 X16.25 Y2 I-2
N1820 G1 X5.5
N1825 Y0
N1830 G2 X3.5 Y-2 I-2
N1835 G1 X0
N1840 G2 X-2 Y0 J2
N1845 G3 X-2.4 Y0.4 I-0.4
N1850 G1 X-2.8
N1855 G18 G3 X-3.2 Z-4.6 K0.4
N1860 G0 Z5
N1865 Y-0.4
N1870 G1 Z-3.5 F300
N1875 Z-5.1
N1880 G2 X-2.8 Z-5.5 I0.4
N1885 G1 X-2.4 F150
N1890 G17 G3 X-2 Y0 J0.4
N1895 G1 Y127.864 F300
N1900 G2 X0 Y129.864 I2
N1905 G1 X3.5
N1910 G2 X5.5 Y127.864 J-2
N1915 G1 Y125.864
N1920 X16.25
N1925 G2 X18.25 Y123.864 J-2
N1930 G1 Y120.864
N1935 G2 X16.25 Y118.864 I-2
N1940 G1 X15.25
N1945 Y116.932
N1950 G2 X13.25 Y114.932 I-2
N1955 G1 X5.5
N1960 Y12.932
N1965 X13.25
N1970 G2 X15.25 Y10.932 J-2
N1975 G1 Y9
N1980 X16.25
N1985 G2 X18.25 Y7 J-2
N1990 G1 Y4
N1995 G2 X16.25 Y2 I-2
N2000 G1 X5.5
N2005 Y0
N2010 G2 X3.5 Y-2 I-2
N2015 G1 X0
N2020 G2 X-2 Y0 J2
N2025 G3 X-2.4 Y0.4 I-0.4
N2030 G1 X-2.8
N2035 G18 G3 X-3.2 Z-5.1 K0.4
N2040 G0 Z5
N2045 Y-0.4
N2050 G1 Z-4 F300
N2055 Z-5.6
N2060 G2 X-2.8 Z-6 I0.4
N2065 G1 X-2.4 F150
N2070 G17 G3 X-2 Y0 J0.4
N2075 G1 Y127.864 F300
N2080 G2 X0 Y129.864 I2
N2085 G1 X3.5
N2090 G2 X5.5 Y127.864 J-2
N2095 G1 Y125.864
N2100 X16.25
N2105 G2 X18.25 Y123.864 J-2
N2110 G1 Y120.864
N2115 G2 X16.25 Y118.864 I-2
N2120 G1 X15.25
N2125 Y116.932
N2130 G2 X13.25 Y114.932 I-2
N2135 G1 X5.5
N2140 Y12.932
N2145 X13.25
N2150 G2 X15.25 Y10.932 J-2
N2155 G1 Y9
N2160 X16.25
N2165 G2 X18.25 Y7 J-2
N2170 G1 Y4
N2175 G2 X16.25 Y2 I-2
N2180 G1 X5.5
N2185 Y0
N2190 G2 X3.5 Y-2 I-2
N2195 G1 X0
N2200 G2 X-2 Y0 J2
N2205 G3 X-2.4 Y0.4 I-0.4
N2210 G1 X-2.8
N2215 G18 G3 X-3.2 Z-5.6 K0.4
N2220 G0 Z5
N2225 Y-0.4
N2230 G1 Z-4.5 F300
N2235 Z-6.1
N2240 G2 X-2.8 Z-6.5 I0.4
N2245 G1 X-2.4 F150
N2250 G17 G3 X-2 Y0 J0.4
N2255 G1 Y127.864 F300
N2260 G2 X0 Y129.864 I2
N2265 G1 X3.5
N2270 G2 X5.5 Y127.864 J-2
N2275 G1 Y125.864
N2280 X16.25
N2285 G2 X18.25 Y123.864 J-2
N2290 G1 Y120.864
N2295 G2 X16.25 Y118.864 I-2
N2300 G1 X15.25
N2305 Y116.932
N2310 G2 X13.25 Y114.932 I-2
N2315 G1 X5.5
N2320 Y12.932
N2325 X13.25
N2330 G2 X15.25 Y10.932 J-2
N2335 G1 Y9
N2340 X16.25
N2345 G2 X18.25 Y7 J-2
N2350 G1 Y4
N2355 G2 X16.25 Y2 I-2
N2360 G1 X5.5
N2365 Y0
N2370 G2 X3.5 Y-2 I-2
N2375 G1 X0
N2380 G2 X-2 Y0 J2
N2385 G3 X-2.4 Y0.4 I-0.4
N2390 G1 X-2.8
N2395 G18 G3 X-3.2 Z-6.1 K0.4
N2400 G0 Z5
N2405 Y-0.4
N2410 G1 Z-5 F300
N2415 Z-6.6
N2420 G2 X-2.8 Z-7 I0.4
N2425 G1 X-2.4 F150
N2430 G17 G3 X-2 Y0 J0.4
N2435 G1 Y127.864 F300
N2440 G2 X0 Y129.864 I2
N2445 G1 X3.5
N2450 G2 X5.5 Y127.864 J-2
N2455 G1 Y125.864
N2460 X16.25
N2465 G2 X18.25 Y123.864 J-2
N2470 G1 Y120.864
N2475 G2 X16.25 Y118.864 I-2
N2480 G1 X15.25
N2485 Y116.932
N2490 G2 X13.25 Y114.932 I-2
N2495 G1 X5.5
N2500 Y12.932
N2505 X13.25
N2510 G2 X15.25 Y10.932 J-2
N2515 G1 Y9
N2520 X16.25
N2525 G2 X18.25 Y7 J-2
N2530 G1 Y4
N2535 G2 X16.25 Y2 I-2
N2540 G1 X5.5
N2545 Y0
N2550 G2 X3.5 Y-2 I-2
N2555 G1 X0
N2560 G2 X-2 Y0 J2
N2565 G3 X-2.4 Y0.4 I-0.4
N2570 G1 X-2.8
N2575 G18 G3 X-3.2 Z-6.6 K0.4
N2580 G0 Z5
N2585 Y-0.4
N2590 G1 Z-5.5 F300
N2595 Z-7.1
N2600 G2 X-2.8 Z-7.5 I0.4
N2605 G1 X-2.4 F150
N2610 G17 G3 X-2 Y0 J0.4
N2615 G1 Y127.864 F300
N2620 G2 X0 Y129.864 I2
N2625 G1 X3.5
N2630 G2 X5.5 Y127.864 J-2
N2635 G1 Y125.864
N2640 X16.25
N2645 G2 X18.25 Y123.864 J-2
N2650 G1 Y120.864
N2655 G2 X16.25 Y118.864 I-2
N2660 G1 X15.25
N2665 Y116.932
N2670 G2 X13.25 Y114.932 I-2
N2675 G1 X5.5
N2680 Y12.932
N2685 X13.25
N2690 G2 X15.25 Y10.932 J-2
N2695 G1 Y9
N2700 X16.25
N2705 G2 X18.25 Y7 J-2
N2710 G1 Y4
N2715 G2 X16.25 Y2 I-2
N2720 G1 X5.5
N2725 Y0
N2730 G2 X3.5 Y-2 I-2
N2735 G1 X0
N2740 G2 X-2 Y0 J2
N2745 G3 X-2.4 Y0.4 I-0.4
N2750 G1 X-2.8
N2755 G18 G3 X-3.2 Z-7.1 K0.4
N2760 G0 Z5
N2765 Y-0.4
N2770 G1 Z-6 F300
N2775 Z-7.6
N2780 G2 X-2.8 Z-8 I0.4
N2785 G1 X-2.4 F150
N2790 G17 G3 X-2 Y0 J0.4
N2795 G1 Y127.864 F300
N2800 G2 X0 Y129.864 I2
N2805 G1 X3.5
N2810 G2 X5.5 Y127.864 J-2
N2815 G1 Y125.864
N2820 X16.25
N2825 G2 X18.25 Y123.864 J-2
N2830 G1 Y120.864
N2835 G2 X16.25 Y118.864 I-2
N2840 G1 X15.25
N2845 Y116.932
N2850 G2 X13.25 Y114.932 I-2
N2855 G1 X5.5
N2860 Y12.932
N2865 X13.25
N2870 G2 X15.25 Y10.932 J-2
N2875 G1 Y9
N2880 X16.25
N2885 G2 X18.25 Y7 J-2
N2890 G1 Y4
N2895 G2 X16.25 Y2 I-2
N2900 G1 X5.5
N2905 Y0
N2910 G2 X3.5 Y-2 I-2
N2915 G1 X0
N2920 G2 X-2 Y0 J2
N2925 G3 X-2.4 Y0.4 I-0.4
N2930 G1 X-2.8
N2935 G18 G3 X-3.2 Z-7.6 K0.4
N2940 G0 Z5
N2945 Y-0.4
N2950 G1 Z-6.5 F300
N2955 Z-8.1
N2960 G2 X-2.8 Z-8.5 I0.4
N2965 G1 X-2.4 F150
N2970 G17 G3 X-2 Y0 J0.4
N2975 G1 Y127.864 F300
N2980 G2 X0 Y129.864 I2
N2985 G1 X3.5
N2990 G2 X5.5 Y127.864 J-2
N2995 G1 Y125.864
N3000 X16.25
N3005 G2 X18.25 Y123.864 J-2
N3010 G1 Y120.864
N3015 G2 X16.25 Y118.864 I-2
N3020 G1 X15.25
N3025 Y116.932
N3030 G2 X13.25 Y114.932 I-2
N3035 G1 X5.5
N3040 Y12.932
N3045 X13.25
N3050 G2 X15.25 Y10.932 J-2
N3055 G1 Y9
N3060 X16.25
N3065 G2 X18.25 Y7 J-2
N3070 G1 Y4
N3075 G2 X16.25 Y2 I-2
N3080 G1 X5.5
N3085 Y0
N3090 G2 X3.5 Y-2 I-2
N3095 G1 X0
N3100 G2 X-2 Y0 J2
N3105 G3 X-2.4 Y0.4 I-0.4
N3110 G1 X-2.8
N3115 G18 G3 X-3.2 Z-8.1 K0.4
N3120 G0 Z5
N3125 Y-0.4
N3130 G1 Z-7 F300
N3135 Z-8.4
N3140 G2 X-2.8 Z-8.8 I0.4
N3145 G1 X-2.4 F150
N3150 G17 G3 X-2 Y0 J0.4
N3155 G1 Y127.864 F300
N3160 G2 X0 Y129.864 I2
N3165 G1 X3.5
N3170 G2 X5.5 Y127.864 J-2
N3175 G1 Y125.864
N3180 X16.25
N3185 G2 X18.25 Y123.864 J-2
N3190 G1 Y120.864
N3195 G2 X16.25 Y118.864 I-2
N3200 G1 X15.25
N3205 Y116.932
N3210 G2 X13.25 Y114.932 I-2
N3215 G1 X5.5
N3220 Y12.932
N3225 X13.25
N3230 G2 X15.25 Y10.932 J-2
N3235 G1 Y9
N3240 X16.25
N3245 G2 X18.25 Y7 J-2
N3250 G1 Y4
N3255 G2 X16.25 Y2 I-2
N3260 G1 X5.5
N3265 Y0
N3270 G2 X3.5 Y-2 I-2
N3275 G1 X0
N3280 G2 X-2 Y0 J2
N3285 G3 X-2.4 Y0.4 I-0.4
N3290 G1 X-2.8
N3295 G18 G3 X-3.2 Z-8.4 K0.4
N3300 G0 Z5
N3305 Y-0.4
N3310 G1 Z-7.3 F300
N3315 Z-8.7
N3320 G2 X-2.8 Z-9.1 I0.4
N3325 G1 X-2.4 F150
N3330 G17 G3 X-2 Y0 J0.4
N3335 G1 Y127.864 F300
N3340 G2 X0 Y129.864 I2
N3345 G1 X3.5
N3350 G2 X5.5 Y127.864 J-2
N3355 G1 Y125.864
N3360 X16.25
N3365 G2 X18.25 Y123.864 J-2
N3370 G1 Y120.864
N3375 G2 X16.25 Y118.864 I-2
N3380 G1 X15.25
N3385 Y116.932
N3390 G2 X13.25 Y114.932 I-2
N3395 G1 X5.5
N3400 Y12.932
N3405 X13.25
N3410 G2 X15.25 Y10.932 J-2
N3415 G1 Y9
N3420 X16.25
N3425 G2 X18.25 Y7 J-2
N3430 G1 Y4
N3435 G2 X16.25 Y2 I-2
N3440 G1 X5.5
N3445 Y0
N3450 G2 X3.5 Y-2 I-2
N3455 G1 X0
N3460 G2 X-2 Y0 J2
N3465 G3 X-2.4 Y0.4 I-0.4
N3470 G1 X-2.8
N3475 G18 G3 X-3.2 Z-8.7 K0.4
N3480 G0 Z15
N3485 X28.2 Y143.264
N3490 Z5
N3495 G1 Z1.5 F300
N3500 Z-0.1
N3505 G3 X27.8 Z-0.5 I-0.4
N3510 G1 X27.4 F150
N3515 G17 G3 X27 Y142.864 J-0.4
N3520 G1 Y15 F300
N3525 G2 X25 Y13 I-2
N3530 G1 X21.5
N3535 G2 X19.5 Y15 J2
N3540 G1 Y17
N3545 X8.75
N3550 G2 X6.75 Y19 J2
N3555 G1 Y22
N3560 G2 X8.75 Y24 I2
N3565 G1 X9.75
N3570 Y25.932
N3575 G2 X11.75 Y27.932 I2
N3580 G1 X19.5
N3585 Y129.932
N3590 X11.75
N3595 G2 X9.75 Y131.932 J2
N3600 G1 Y133.864
N3605 X8.75
N3610 G2 X6.75 Y135.864 J2
N3615 G1 Y138.864
N3620 G2 X8.75 Y140.864 I2
N3625 G1 X19.5
N3630 Y142.864
N3635 G2 X21.5 Y144.864 I2
N3640 G1 X25
N3645 G2 X27 Y142.864 J-2
N3650 G3 X27.4 Y142.464 I0.4
N3655 G1 X27.8
N3660 G18 G2 X28.2 Z-0.1 K0.4
N3665 G0 Z5
N3670 Y143.264
N3675 G1 Z1 F300
N3680 Z-0.6
N3685 G3 X27.8 Z-1 I-0.4
N3690 G1 X27.4 F150
N3695 G17 G3 X27 Y142.864 J-0.4
N3700 G1 Y15 F300
N3705 G2 X25 Y13 I-2
N3710 G1 X21.5
N3715 G2 X19.5 Y15 J2
N3720 G1 Y17
N3725 X8.75
N3730 G2 X6.75 Y19 J2
N3735 G1 Y22
N3740 G2 X8.75 Y24 I2
N3745 G1 X9.75
N3750 Y25.932
N3755 G2 X11.75 Y27.932 I2
N3760 G1 X19.5
N3765 Y129.932
N3770 X11.75
N3775 G2 X9.75 Y131.932 J2
N3780 G1 Y133.864
N3785 X8.75
N3790 G2 X6.75 Y135.864 J2
N3795 G1 Y138.864
N3800 G2 X8.75 Y140.864 I2
N3805 G1 X19.5
N3810 Y142.864
N3815 G2 X21.5 Y144.864 I2
N3820 G1 X25
N3825 G2 X27 Y142.864 J-2
N3830 G3 X27.4 Y142.464 I0.4
N3835 G1 X27.8
N3840 G18 G2 X28.2 Z-0.6 K0.4
N3845 G0 Z5
N3850 Y143.264
N3855 G1 Z0.5 F300
N3860 Z-1.1
N3865 G3 X27.8 Z-1.5 I-0.4
N3870 G1 X27.4 F150
N3875 G17 G3 X27 Y142.864 J-0.4
N3880 G1 Y15 F300
N3885 G2 X25 Y13 I-2
N3890 G1 X21.5
N3895 G2 X19.5 Y15 J2
N3900 G1 Y17
N3905 X8.75
N3910 G2 X6.75 Y19 J2
N3915 G1 Y22
N3920 G2 X8.75 Y24 I2
N3925 G1 X9.75
N3930 Y25.932
N3935 G2 X11.75 Y27.932 I2
N3940 G1 X19.5
N3945 Y129.932
N3950 X11.75
N3955 G2 X9.75 Y131.932 J2
N3960 G1 Y133.864
N3965 X8.75
N3970 G2 X6.75 Y135.864 J2
N3975 G1 Y138.864
N3980 G2 X8.75 Y140.864 I2
N3985 G1 X19.5
N3990 Y142.864
N3995 G2 X21.5 Y144.864 I2
N4000 G1 X25
N4005 G2 X27 Y142.864 J-2
N4010 G3 X27.4 Y142.464 I0.4
N4015 G1 X27.8
N4020 G18 G2 X28.2 Z-1.1 K0.4
N4025 G0 Z5
N4030 Y143.264
N4035 G1 Z0 F300
N4040 Z-1.6
N4045 G3 X27.8 Z-2 I-0.4
N4050 G1 X27.4 F150
N4055 G17 G3 X27 Y142.864 J-0.4
N4060 G1 Y15 F300
N4065 G2 X25 Y13 I-2
N4070 G1 X21.5
N4075 G2 X19.5 Y15 J2
N4080 G1 Y17
N4085 X8.75
N4090 G2 X6.75 Y19 J2
N4095 G1 Y22
N4100 G2 X8.75 Y24 I2
N4105 G1 X9.75
N4110 Y25.932
N4115 G2 X11.75 Y27.932 I2
N4120 G1 X19.5
N4125 Y129.932
N4130 X11.75
N4135 G2 X9.75 Y131.932 J2
N4140 G1 Y133.864
N4145 X8.75
N4150 G2 X6.75 Y135.864 J2
N4155 G1 Y138.864
N4160 G2 X8.75 Y140.864 I2
N4165 G1 X19.5
N4170 Y142.864
N4175 G2 X21.5 Y144.864 I2
N4180 G1 X25
N4185 G2 X27 Y142.864 J-2
N4190 G3 X27.4 Y142.464 I0.4
N4195 G1 X27.8
N4200 G18 G2 X28.2 Z-1.6 K0.4
N4205 G0 Z5
N4210 Y143.264
N4215 G1 Z-0.5 F300
N4220 Z-2.1
N4225 G3 X27.8 Z-2.5 I-0.4
N4230 G1 X27.4 F150
N4235 G17 G3 X27 Y142.864 J-0.4
N4240 G1 Y15 F300
N4245 G2 X25 Y13 I-2
N4250 G1 X21.5
N4255 G2 X19.5 Y15 J2
N4260 G1 Y17
N4265 X8.75
N4270 G2 X6.75 Y19 J2
N4275 G1 Y22
N4280 G2 X8.75 Y24 I2
N4285 G1 X9.75
N4290 Y25.932
N4295 G2 X11.75 Y27.932 I2
N4300 G1 X19.5
N4305 Y129.932
N4310 X11.75
N4315 G2 X9.75 Y131.932 J2
N4320 G1 Y133.864
N4325 X8.75
N4330 G2 X6.75 Y135.864 J2
N4335 G1 Y138.864
N4340 G2 X8.75 Y140.864 I2
N4345 G1 X19.5
N4350 Y142.864
N4355 G2 X21.5 Y144.864 I2
N4360 G1 X25
N4365 G2 X27 Y142.864 J-2
N4370 G3 X27.4 Y142.464 I0.4
N4375 G1 X27.8
N4380 G18 G2 X28.2 Z-2.1 K0.4
N4385 G0 Z5
N4390 Y143.264
N4395 G1 Z-1 F300
N4400 Z-2.6
N4405 G3 X27.8 Z-3 I-0.4
N4410 G1 X27.4 F150
N4415 G17 G3 X27 Y142.864 J-0.4
N4420 G1 Y15 F300
N4425 G2 X25 Y13 I-2
N4430 G1 X21.5
N4435 G2 X19.5 Y15 J2
N4440 G1 Y17
N4445 X8.75
N4450 G2 X6.75 Y19 J2
N4455 G1 Y22
N4460 G2 X8.75 Y24 I2
N4465 G1 X9.75
N4470 Y25.932
N4475 G2 X11.75 Y27.932 I2
N4480 G1 X19.5
N4485 Y129.932
N4490 X11.75
N4495 G2 X9.75 Y131.932 J2
N4500 G1 Y133.864
N4505 X8.75
N4510 G2 X6.75 Y135.864 J2
N4515 G1 Y138.864
N4520 G2 X8.75 Y140.864 I2
N4525 G1 X19.5
N4530 Y142.864
N4535 G2 X21.5 Y144.864 I2
N4540 G1 X25
N4545 G2 X27 Y142.864 J-2
N4550 G3 X27.4 Y142.464 I0.4
N4555 G1 X27.8
N4560 G18 G2 X28.2 Z-2.6 K0.4
N4565 G0 Z5
N4570 Y143.264
N4575 G1 Z-1.5 F300
N4580 Z-3.1
N4585 G3 X27.8 Z-3.5 I-0.4
N4590 G1 X27.4 F150
N4595 G17 G3 X27 Y142.864 J-0.4
N4600 G1 Y15 F300
N4605 G2 X25 Y13 I-2
N4610 G1 X21.5
N4615 G2 X19.5 Y15 J2
N4620 G1 Y17
N4625 X8.75
N4630 G2 X6.75 Y19 J2
N4635 G1 Y22
N4640 G2 X8.75 Y24 I2
N4645 G1 X9.75
N4650 Y25.932
N4655 G2 X11.75 Y27.932 I2
N4660 G1 X19.5
N4665 Y129.932
N4670 X11.75
N4675 G2 X9.75 Y131.932 J2
N4680 G1 Y133.864
N4685 X8.75
N4690 G2 X6.75 Y135.864 J2
N4695 G1 Y138.864
N4700 G2 X8.75 Y140.864 I2
N4705 G1 X19.5
N4710 Y142.864
N4715 G2 X21.5 Y144.864 I2
N4720 G1 X25
N4725 G2 X27 Y142.864 J-2
N4730 G3 X27.4 Y142.464 I0.4
N4735 G1 X27.8
N4740 G18 G2 X28.2 Z-3.1 K0.4
N4745 G0 Z5
N4750 Y143.264
N4755 G1 Z-2 F300
N4760 Z-3.6
N4765 G3 X27.8 Z-4 I-0.4
N4770 G1 X27.4 F150
N4775 G17 G3 X27 Y142.864 J-0.4
N4780 G1 Y15 F300
N4785 G2 X25 Y13 I-2
N4790 G1 X21.5
N4795 G2 X19.5 Y15 J2
N4800 G1 Y17
N4805 X8.75
N4810 G2 X6.75 Y19 J2
N4815 G1 Y22
N4820 G2 X8.75 Y24 I2
N4825 G1 X9.75
N4830 Y25.932
N4835 G2 X11.75 Y27.932 I2
N4840 G1 X19.5
N4845 Y129.932
N4850 X11.75
N4855 G2 X9.75 Y131.932 J2
N4860 G1 Y133.864
N4865 X8.75
N4870 G2 X6.75 Y135.864 J2
N4875 G1 Y138.864
N4880 G2 X8.75 Y140.864 I2
N4885 G1 X19.5
N4890 Y142.864
N4895 G2 X21.5 Y144.864 I2
N4900 G1 X25
N4905 G2 X27 Y142.864 J-2
N4910 G3 X27.4 Y142.464 I0.4
N4915 G1 X27.8
N4920 G18 G2 X28.2 Z-3.6 K0.4
N4925 G0 Z5
N4930 Y143.264
N4935 G1 Z-2.5 F300
N4940 Z-4.1
N4945 G3 X27.8 Z-4.5 I-0.4
N4950 G1 X27.4 F150
N4955 G17 G3 X27 Y142.864 J-0.4
N4960 G1 Y15 F300
N4965 G2 X25 Y13 I-2
N4970 G1 X21.5
N4975 G2 X19.5 Y15 J2
N4980 G1 Y17
N4985 X8.75
N4990 G2 X6.75 Y19 J2
N4995 G1 Y22
N5000 G2 X8.75 Y24 I2
N5005 G1 X9.75
N5010 Y25.932
N5015 G2 X11.75 Y27.932 I2
N5020 G1 X19.5
N5025 Y129.932
N5030 X11.75
N5035 G2 X9.75 Y131.932 J2
N5040 G1 Y133.864
N5045 X8.75
N5050 G2 X6.75 Y135.864 J2
N5055 G1 Y138.864
N5060 G2 X8.75 Y140.864 I2
N5065 G1 X19.5
N5070 Y142.864
N5075 G2 X21.5 Y144.864 I2
N5080 G1 X25
N5085 G2 X27 Y142.864 J-2
N5090 G3 X27.4 Y142.464 I0.4
N5095 G1 X27.8
N5100 G18 G2 X28.2 Z-4.1 K0.4
N5105 G0 Z5
N5110 Y143.264
N5115 G1 Z-3 F300
N5120 Z-4.6
N5125 G3 X27.8 Z-5 I-0.4
N5130 G1 X27.4 F150
N5135 G17 G3 X27 Y142.864 J-0.4
N5140 G1 Y15 F300
N5145 G2 X25 Y13 I-2
N5150 G1 X21.5
N5155 G2 X19.5 Y15 J2
N5160 G1 Y17
N5165 X8.75
N5170 G2 X6.75 Y19 J2
N5175 G1 Y22
N5180 G2 X8.75 Y24 I2
N5185 G1 X9.75
N5190 Y25.932
N5195 G2 X11.75 Y27.932 I2
N5200 G1 X19.5
N5205 Y129.932
N5210 X11.75
N5215 G2 X9.75 Y131.932 J2
N5220 G1 Y133.864
N5225 X8.75
N5230 G2 X6.75 Y135.864 J2
N5235 G1 Y138.864
N5240 G2 X8.75 Y140.864 I2
N5245 G1 X19.5
N5250 Y142.864
N5255 G2 X21.5 Y144.864 I2
N5260 G1 X25
N5265 G2 X27 Y142.864 J-2
N5270 G3 X27.4 Y142.464 I0.4
N5275 G1 X27.8
N5280 G18 G2 X28.2 Z-4.6 K0.4
N5285 G0 Z5
N5290 Y143.264
N5295 G1 Z-3.5 F300
N5300 Z-5.1
N5305 G3 X27.8 Z-5.5 I-0.4
N5310 G1 X27.4 F150
N5315 G17 G3 X27 Y142.864 J-0.4
N5320 G1 Y15 F300
N5325 G2 X25 Y13 I-2
N5330 G1 X21.5
N5335 G2 X19.5 Y15 J2
N5340 G1 Y17
N5345 X8.75
N5350 G2 X6.75 Y19 J2
N5355 G1 Y22
N5360 G2 X8.75 Y24 I2
N5365 G1 X9.75
N5370 Y25.932
N5375 G2 X11.75 Y27.932 I2
N5380 G1 X19.5
N5385 Y129.932
N5390 X11.75
N5395 G2 X9.75 Y131.932 J2
N5400 G1 Y133.864
N5405 X8.75
N5410 G2 X6.75 Y135.864 J2
N5415 G1 Y138.864
N5420 G2 X8.75 Y140.864 I2
N5425 G1 X19.5
N5430 Y142.864
N5435 G2 X21.5 Y144.864 I2
N5440 G1 X25
N5445 G2 X27 Y142.864 J-2
N5450 G3 X27.4 Y142.464 I0.4
N5455 G1 X27.8
N5460 G18 G2 X28.2 Z-5.1 K0.4
N5465 G0 Z5
N5470 Y143.264
N5475 G1 Z-4 F300
N5480 Z-5.6
N5485 G3 X27.8 Z-6 I-0.4
N5490 G1 X27.4 F150
N5495 G17 G3 X27 Y142.864 J-0.4
N5500 G1 Y15 F300
N5505 G2 X25 Y13 I-2
N5510 G1 X21.5
N5515 G2 X19.5 Y15 J2
N5520 G1 Y17
N5525 X8.75
N5530 G2 X6.75 Y19 J2
N5535 G1 Y22
N5540 G2 X8.75 Y24 I2
N5545 G1 X9.75
N5550 Y25.932
N5555 G2 X11.75 Y27.932 I2
N5560 G1 X19.5
N5565 Y129.932
N5570 X11.75
N5575 G2 X9.75 Y131.932 J2
N5580 G1 Y133.864
N5585 X8.75
N5590 G2 X6.75 Y135.864 J2
N5595 G1 Y138.864
N5600 G2 X8.75 Y140.864 I2
N5605 G1 X19.5
N5610 Y142.864
N5615 G2 X21.5 Y144.864 I2
N5620 G1 X25
N5625 G2 X27 Y142.864 J-2
N5630 G3 X27.4 Y142.464 I0.4
N5635 G1 X27.8
N5640 G18 G2 X28.2 Z-5.6 K0.4
N5645 G0 Z5
N5650 Y143.264
N5655 G1 Z-4.5 F300
N5660 Z-6.1
N5665 G3 X27.8 Z-6.5 I-0.4
N5670 G1 X27.4 F150
N5675 G17 G3 X27 Y142.864 J-0.4
N5680 G1 Y15 F300
N5685 G2 X25 Y13 I-2
N5690 G1 X21.5
N5695 G2 X19.5 Y15 J2
N5700 G1 Y17
N5705 X8.75
N5710 G2 X6.75 Y19 J2
N5715 G1 Y22
N5720 G2 X8.75 Y24 I2
N5725 G1 X9.75
N5730 Y25.932
N5735 G2 X11.75 Y27.932 I2
N5740 G1 X19.5
N5745 Y129.932
N5750 X11.75
N5755 G2 X9.75 Y131.932 J2
N5760 G1 Y133.864
N5765 X8.75
N5770 G2 X6.75 Y135.864 J2
N5775 G1 Y138.864
N5780 G2 X8.75 Y140.864 I2
N5785 G1 X19.5
N5790 Y142.864
N5795 G2 X21.5 Y144.864 I2
N5800 G1 X25
N5805 G2 X27 Y142.864 J-2
N5810 G3 X27.4 Y142.464 I0.4
N5815 G1 X27.8
N5820 G18 G2 X28.2 Z-6.1 K0.4
N5825 G0 Z5
N5830 Y143.264
N5835 G1 Z-5 F300
N5840 Z-6.6
N5845 G3 X27.8 Z-7 I-0.4
N5850 G1 X27.4 F150
N5855 G17 G3 X27 Y142.864 J-0.4
N5860 G1 Y15 F300
N5865 G2 X25 Y13 I-2
N5870 G1 X21.5
N5875 G2 X19.5 Y15 J2
N5880 G1 Y17
N5885 X8.75
N5890 G2 X6.75 Y19 J2
N5895 G1 Y22
N5900 G2 X8.75 Y24 I2
N5905 G1 X9.75
N5910 Y25.932
N5915 G2 X11.75 Y27.932 I2
N5920 G1 X19.5
N5925 Y129.932
N5930 X11.75
N5935 G2 X9.75 Y131.932 J2
N5940 G1 Y133.864
N5945 X8.75
N5950 G2 X6.75 Y135.864 J2
N5955 G1 Y138.864
N5960 G2 X8.75 Y140.864 I2
N5965 G1 X19.5
N5970 Y142.864
N5975 G2 X21.5 Y144.864 I2
N5980 G1 X25
N5985 G2 X27 Y142.864 J-2
N5990 G3 X27.4 Y142.464 I0.4
N5995 G1 X27.8
N6000 G18 G2 X28.2 Z-6.6 K0.4
N6005 G0 Z5
N6010 Y143.264
N6015 G1 Z-5.5 F300
N6020 Z-7.1
N6025 G3 X27.8 Z-7.5 I-0.4
N6030 G1 X27.4 F150
N6035 G17 G3 X27 Y142.864 J-0.4
N6040 G1 Y15 F300
N6045 G2 X25 Y13 I-2
N6050 G1 X21.5
N6055 G2 X19.5 Y15 J2
N6060 G1 Y17
N6065 X8.75
N6070 G2 X6.75 Y19 J2
N6075 G1 Y22
N6080 G2 X8.75 Y24 I2
N6085 G1 X9.75
N6090 Y25.932
N6095 G2 X11.75 Y27.932 I2
N6100 G1 X19.5
N6105 Y129.932
N6110 X11.75
N6115 G2 X9.75 Y131.932 J2
N6120 G1 Y133.864
N6125 X8.75
N6130 G2 X6.75 Y135.864 J2
N6135 G1 Y138.864
N6140 G2 X8.75 Y140.864 I2
N6145 G1 X19.5
N6150 Y142.864
N6155 G2 X21.5 Y144.864 I2
N6160 G1 X25
N6165 G2 X27 Y142.864 J-2
N6170 G3 X27.4 Y142.464 I0.4
N6175 G1 X27.8
N6180 G18 G2 X28.2 Z-7.1 K0.4
N6185 G0 Z5
N6190 Y143.264
N6195 G1 Z-6 F300
N6200 Z-7.6
N6205 G3 X27.8 Z-8 I-0.4
N6210 G1 X27.4 F150
N6215 G17 G3 X27 Y142.864 J-0.4
N6220 G1 Y15 F300
N6225 G2 X25 Y13 I-2
N6230 G1 X21.5
N6235 G2 X19.5 Y15 J2
N6240 G1 Y17
N6245 X8.75
N6250 G2 X6.75 Y19 J2
N6255 G1 Y22
N6260 G2 X8.75 Y24 I2
N6265 G1 X9.75
N6270 Y25.932
N6275 G2 X11.75 Y27.932 I2
N6280 G1 X19.5
N6285 Y129.932
N6290 X11.75
N6295 G2 X9.75 Y131.932 J2
N6300 G1 Y133.864
N6305 X8.75
N6310 G2 X6.75 Y135.864 J2
N6315 G1 Y138.864
N6320 G2 X8.75 Y140.864 I2
N6325 G1 X19.5
N6330 Y142.864
N6335 G2 X21.5 Y144.864 I2
N6340 G1 X25
N6345 G2 X27 Y142.864 J-2
N6350 G3 X27.4 Y142.464 I0.4
N6355 G1 X27.8
N6360 G18 G2 X28.2 Z-7.6 K0.4
N6365 G0 Z5
N6370 Y143.264
N6375 G1 Z-6.5 F300
N6380 Z-8.1
N6385 G3 X27.8 Z-8.5 I-0.4
N6390 G1 X27.4 F150
N6395 G17 G3 X27 Y142.864 J-0.4
N6400 G1 Y15 F300
N6405 G2 X25 Y13 I-2
N6410 G1 X21.5
N6415 G2 X19.5 Y15 J2
N6420 G1 Y17
N6425 X8.75
N6430 G2 X6.75 Y19 J2
N6435 G1 Y22
N6440 G2 X8.75 Y24 I2
N6445 G1 X9.75
N6450 Y25.932
N6455 G2 X11.75 Y27.932 I2
N6460 G1 X19.5
N6465 Y129.932
N6470 X11.75
N6475 G2 X9.75 Y131.932 J2
N6480 G1 Y133.864
N6485 X8.75
N6490 G2 X6.75 Y135.864 J2
N6495 G1 Y138.864
N6500 G2 X8.75 Y140.864 I2
N6505 G1 X19.5
N6510 Y142.864
N6515 G2 X21.5 Y144.864 I2
N6520 G1 X25
N6525 G2 X27 Y142.864 J-2
N6530 G3 X27.4 Y142.464 I0.4
N6535 G1 X27.8
N6540 G18 G2 X28.2 Z-8.1 K0.4
N6545 G0 Z5
N6550 Y143.264
N6555 G1 Z-7 F300
N6560 Z-8.401
N6565 G3 X27.8 Z-8.8 I-0.4
N6570 G1 X27.4 F150
N6575 G17 G3 X27 Y142.864 J-0.4
N6580 G1 Y15 F300
N6585 G2 X25 Y13 I-2
N6590 G1 X21.5
N6595 G2 X19.5 Y15 J2
N6600 G1 Y17
N6605 X8.75
N6610 G2 X6.75 Y19 J2
N6615 G1 Y22
N6620 G2 X8.75 Y24 I2
N6625 G1 X9.75
N6630 Y25.932
N6635 G2 X11.75 Y27.932 I2
N6640 G1 X19.5
N6645 Y129.932
N6650 X11.75
N6655 G2 X9.75 Y131.932 J2
N6660 G1 Y133.864
N6665 X8.75
N6670 G2 X6.75 Y135.864 J2
N6675 G1 Y138.864
N6680 G2 X8.75 Y140.864 I2
N6685 G1 X19.5
N6690 Y142.864
N6695 G2 X21.5 Y144.864 I2
N6700 G1 X25
N6705 G2 X27 Y142.864 J-2
N6710 G3 X27.4 Y142.464 I0.4
N6715 G1 X27.8
N6720 G18 G2 X28.2 Z-8.401 K0.4
N6725 G0 Z5
N6730 Y143.264
N6735 G1 Z-7.3 F300
N6740 Z-8.701
N6745 G3 X27.8 Z-9.101 I-0.4
N6750 G1 X27.4 F150
N6755 G17 G3 X27 Y142.864 J-0.4
N6760 G1 Y15 F300
N6765 G2 X25 Y13 I-2
N6770 G1 X21.5
N6775 G2 X19.5 Y15 J2
N6780 G1 Y17
N6785 X8.75
N6790 G2 X6.75 Y19 J2
N6795 G1 Y22
N6800 G2 X8.75 Y24 I2
N6805 G1 X9.75
N6810 Y25.932
N6815 G2 X11.75 Y27.932 I2
N6820 G1 X19.5
N6825 Y129.932
N6830 X11.75
N6835 G2 X9.75 Y131.932 J2
N6840 G1 Y133.864
N6845 X8.75
N6850 G2 X6.75 Y135.864 J2
N6855 G1 Y138.864
N6860 G2 X8.75 Y140.864 I2
N6865 G1 X19.5
N6870 Y142.864
N6875 G2 X21.5 Y144.864 I2
N6880 G1 X25
N6885 G2 X27 Y142.864 J-2
N6890 G3 X27.4 Y142.464 I0.4
N6895 G1 X27.8
N6900 G18 G2 X28.2 Z-8.701 K0.4
N6905 G0 Z15
N6910 X46.487 Y170.147
N6915 Z5
N6920 G1 Z1.5 F300
N6925 Z-0.1
N6930 X46.48 Y170.145 Z-0.178
N6935 X46.458 Y170.139 Z-0.253
N6940 X46.422 Y170.129 Z-0.322
N6945 X46.374 Y170.116 Z-0.383
N6950 X46.316 Y170.101 Z-0.433
N6955 X46.249 Y170.083 Z-0.47
N6960 X46.176 Y170.063 Z-0.492
N6965 X46.101 Y170.043 Z-0.5
N6970 X45.715 Y169.94 F150
N6975 G17 G3 X45.432 Y169.45 I0.104 J-0.386
N6980 G1 X45.932 Y167.584 F300
N6985 G2 X46 Y167.066 I-1.932 J-0.518
N6990 G1 Y50.798
N6995 G2 X45.932 Y50.28 I-2
N7000 G1 X45.432 Y48.414
N7005 G2 X43.5 Y46.932 I-1.932 J0.518
N7010 G1 X31
N7015 G2 X29 Y48.932 J2
N7020 G1 Y70.932
N7025 G2 X31 Y72.932 I2
N7030 G1 X38.5
N7035 Y144.932
N7040 X31
N7045 G2 X29 Y146.932 J2
N7050 G1 Y168.932
N7055 G2 X31 Y170.932 I2
N7060 G1 X43.5
N7065 G2 X45.432 Y169.45 J-2
N7070 G3 X45.922 Y169.167 I0.386 J0.104
N7075 G1 X46.308 Y169.27
N7080 X46.383 Y169.291 Z-0.492
N7085 X46.456 Y169.31 Z-0.47
N7090 X46.523 Y169.328 Z-0.433
N7095 X46.581 Y169.344 Z-0.383
N7100 X46.629 Y169.356 Z-0.322
N7105 X46.665 Y169.366 Z-0.253
N7110 X46.687 Y169.372 Z-0.178
N7115 X46.694 Y169.374 Z-0.1
N7120 G0 Z5
N7125 X46.487 Y170.147
N7130 G1 Z1 F300
N7135 Z-0.6
N7140 X46.48 Y170.145 Z-0.678
N7145 X46.458 Y170.139 Z-0.753
N7150 X46.422 Y170.129 Z-0.822
N7155 X46.374 Y170.116 Z-0.883
N7160 X46.316 Y170.101 Z-0.933
N7165 X46.249 Y170.083 Z-0.97
N7170 X46.176 Y170.063 Z-0.992
N7175 X46.101 Y170.043 Z-1
N7180 X45.715 Y169.94 F150
N7185 G3 X45.432 Y169.45 I0.104 J-0.386
N7190 G1 X45.932 Y167.584 F300
N7195 G2 X46 Y167.066 I-1.932 J-0.518
N7200 G1 Y50.798
N7205 G2 X45.932 Y50.28 I-2
N7210 G1 X45.432 Y48.414
N7215 G2 X43.5 Y46.932 I-1.932 J0.518
N7220 G1 X31
N7225 G2 X29 Y48.932 J2
N7230 G1 Y70.932
N7235 G2 X31 Y72.932 I2
N7240 G1 X38.5
N7245 Y144.932
N7250 X31
N7255 G2 X29 Y146.932 J2
N7260 G1 Y168.932
N7265 G2 X31 Y170.932 I2
N7270 G1 X43.5
N7275 G2 X45.432 Y169.45 J-2
N7280 G3 X45.922 Y169.167 I0.386 J0.104
N7285 G1 X46.308 Y169.27
N7290 X46.383 Y169.291 Z-0.992
N7295 X46.456 Y169.31 Z-0.97
N7300 X46.523 Y169.328 Z-0.933
N7305 X46.581 Y169.344 Z-0.883
N7310 X46.629 Y169.356 Z-0.822
N7315 X46.665 Y169.366 Z-0.753
N7320 X46.687 Y169.372 Z-0.678
N7325 X46.694 Y169.374 Z-0.6
N7330 G0 Z5
N7335 X46.487 Y170.147
N7340 G1 Z0.5 F300
N7345 Z-1.1
N7350 X46.48 Y170.145 Z-1.178
N7355 X46.458 Y170.139 Z-1.253
N7360 X46.422 Y170.129 Z-1.322
N7365 X46.374 Y170.116 Z-1.383
N7370 X46.316 Y170.101 Z-1.433
N7375 X46.249 Y170.083 Z-1.47
N7380 X46.176 Y170.063 Z-1.492
N7385 X46.101 Y170.043 Z-1.5
N7390 X45.715 Y169.94 F150
N7395 G3 X45.432 Y169.45 I0.104 J-0.386
N7400 G1 X45.932 Y167.584 F300
N7405 G2 X46 Y167.066 I-1.932 J-0.518
N7410 G1 Y50.798
N7415 G2 X45.932 Y50.28 I-2
N7420 G1 X45.432 Y48.414
N7425 G2 X43.5 Y46.932 I-1.932 J0.518
N7430 G1 X31
N7435 G2 X29 Y48.932 J2
N7440 G1 Y70.932
N7445 G2 X31 Y72.932 I2
N7450 G1 X38.5
N7455 Y144.932
N7460 X31
N7465 G2 X29 Y146.932 J2
N7470 G1 Y168.932
N7475 G2 X31 Y170.932 I2
N7480 G1 X43.5
N7485 G2 X45.432 Y169.45 J-2
N7490 G3 X45.922 Y169.167 I0.386 J0.104
N7495 G1 X46.308 Y169.27
N7500 X46.383 Y169.291 Z-1.492
N7505 X46.456 Y169.31 Z-1.47
N7510 X46.523 Y169.328 Z-1.433
N7515 X46.581 Y169.344 Z-1.383
N7520 X46.629 Y169.356 Z-1.322
N7525 X46.665 Y169.366 Z-1.253
N7530 X46.687 Y169.372 Z-1.178
N7535 X46.694 Y169.374 Z-1.1
N7540 G0 Z5
N7545 X46.487 Y170.147
N7550 G1 Z0 F300
N7555 Z-1.6
N7560 X46.48 Y170.145 Z-1.678
N7565 X46.458 Y170.139 Z-1.753
N7570 X46.422 Y170.129 Z-1.822
N7575 X46.374 Y170.116 Z-1.883
N7580 X46.316 Y170.101 Z-1.933
N7585 X46.249 Y170.083 Z-1.97
N7590 X46.176 Y170.063 Z-1.992
N7595 X46.101 Y170.043 Z-2
N7600 X45.715 Y169.94 F150
N7605 G3 X45.432 Y169.45 I0.104 J-0.386
N7610 G1 X45.932 Y167.584 F300
N7615 G2 X46 Y167.066 I-1.932 J-0.518
N7620 G1 Y50.798
N7625 G2 X45.932 Y50.28 I-2
N7630 G1 X45.432 Y48.414
N7635 G2 X43.5 Y46.932 I-1.932 J0.518
N7640 G1 X31
N7645 G2 X29 Y48.932 J2
N7650 G1 Y70.932
N7655 G2 X31 Y72.932 I2
N7660 G1 X38.5
N7665 Y144.932
N7670 X31
N7675 G2 X29 Y146.932 J2
N7680 G1 Y168.932
N7685 G2 X31 Y170.932 I2
N7690 G1 X43.5
N7695 G2 X45.432 Y169.45 J-2
N7700 G3 X45.922 Y169.167 I0.386 J0.104
N7705 G1 X46.308 Y169.27
N7710 X46.383 Y169.291 Z-1.992
N7715 X46.456 Y169.31 Z-1.97
N7720 X46.523 Y169.328 Z-1.933
N7725 X46.581 Y169.344 Z-1.883
N7730 X46.629 Y169.356 Z-1.822
N7735 X46.665 Y169.366 Z-1.753
N7740 X46.687 Y169.372 Z-1.678
N7745 X46.694 Y169.374 Z-1.6
N7750 G0 Z5
N7755 X46.487 Y170.147
N7760 G1 Z-0.5 F300
N7765 Z-2.1
N7770 X46.48 Y170.145 Z-2.178
N7775 X46.458 Y170.139 Z-2.253
N7780 X46.422 Y170.129 Z-2.322
N7785 X46.374 Y170.116 Z-2.383
N7790 X46.316 Y170.101 Z-2.433
N7795 X46.249 Y170.083 Z-2.47
N7800 X46.176 Y170.063 Z-2.492
N7805 X46.101 Y170.043 Z-2.5
N7810 X45.715 Y169.94 F150
N7815 G3 X45.432 Y169.45 I0.104 J-0.386
N7820 G1 X45.932 Y167.584 F300
N7825 G2 X46 Y167.066 I-1.932 J-0.518
N7830 G1 Y50.798
N7835 G2 X45.932 Y50.28 I-2
N7840 G1 X45.432 Y48.414
N7845 G2 X43.5 Y46.932 I-1.932 J0.518
N7850 G1 X31
N7855 G2 X29 Y48.932 J2
N7860 G1 Y70.932
N7865 G2 X31 Y72.932 I2
N7870 G1 X38.5
N7875 Y144.932
N7880 X31
N7885 G2 X29 Y146.932 J2
N7890 G1 Y168.932
N7895 G2 X31 Y170.932 I2
N7900 G1 X43.5
N7905 G2 X45.432 Y169.45 J-2
N7910 G3 X45.922 Y169.167 I0.386 J0.104
N7915 G1 X46.308 Y169.27
N7920 X46.383 Y169.291 Z-2.492
N7925 X46.456 Y169.31 Z-2.47
N7930 X46.523 Y169.328 Z-2.433
N7935 X46.581 Y169.344 Z-2.383
N7940 X46.629 Y169.356 Z-2.322
N7945 X46.665 Y169.366 Z-2.253
N7950 X46.687 Y169.372 Z-2.178
N7955 X46.694 Y169.374 Z-2.1
N7960 G0 Z5
N7965 X46.487 Y170.147
N7970 G1 Z-1 F300
N7975 Z-2.6
N7980 X46.48 Y170.145 Z-2.678
N7985 X46.458 Y170.139 Z-2.753
N7990 X46.422 Y170.129 Z-2.822
N7995 X46.374 Y170.116 Z-2.883
N8000 X46.316 Y170.101 Z-2.933
N8005 X46.249 Y170.083 Z-2.97
N8010 X46.176 Y170.063 Z-2.992
N8015 X46.101 Y170.043 Z-3
N8020 X45.715 Y169.94 F150
N8025 G3 X45.432 Y169.45 I0.104 J-0.386
N8030 G1 X45.932 Y167.584 F300
N8035 G2 X46 Y167.066 I-1.932 J-0.518
N8040 G1 Y50.798
N8045 G2 X45.932 Y50.28 I-2
N8050 G1 X45.432 Y48.414
N8055 G2 X43.5 Y46.932 I-1.932 J0.518
N8060 G1 X31
N8065 G2 X29 Y48.932 J2
N8070 G1 Y70.932
N8075 G2 X31 Y72.932 I2
N8080 G1 X38.5
N8085 Y144.932
N8090 X31
N8095 G2 X29 Y146.932 J2
N8100 G1 Y168.932
N8105 G2 X31 Y170.932 I2
N8110 G1 X43.5
N8115 G2 X45.432 Y169.45 J-2
N8120 G3 X45.922 Y169.167 I0.386 J0.104
N8125 G1 X46.308 Y169.27
N8130 X46.383 Y169.291 Z-2.992
N8135 X46.456 Y169.31 Z-2.97
N8140 X46.523 Y169.328 Z-2.933
N8145 X46.581 Y169.344 Z-2.883
N8150 X46.629 Y169.356 Z-2.822
N8155 X46.665 Y169.366 Z-2.753
N8160 X46.687 Y169.372 Z-2.678
N8165 X46.694 Y169.374 Z-2.6
N8170 G0 Z5
N8175 X46.487 Y170.147
N8180 G1 Z-1.5 F300
N8185 Z-3.1
N8190 X46.48 Y170.145 Z-3.178
N8195 X46.458 Y170.139 Z-3.253
N8200 X46.422 Y170.129 Z-3.322
N8205 X46.374 Y170.116 Z-3.383
N8210 X46.316 Y170.101 Z-3.433
N8215 X46.249 Y170.083 Z-3.47
N8220 X46.176 Y170.063 Z-3.492
N8225 X46.101 Y170.043 Z-3.5
N8230 X45.715 Y169.94 F150
N8235 G3 X45.432 Y169.45 I0.104 J-0.386
N8240 G1 X45.932 Y167.584 F300
N8245 G2 X46 Y167.066 I-1.932 J-0.518
N8250 G1 Y50.798
N8255 G2 X45.932 Y50.28 I-2
N8260 G1 X45.432 Y48.414
N8265 G2 X43.5 Y46.932 I-1.932 J0.518
N8270 G1 X31
N8275 G2 X29 Y48.932 J2
N8280 G1 Y70.932
N8285 G2 X31 Y72.932 I2
N8290 G1 X38.5
N8295 Y144.932
N8300 X31
N8305 G2 X29 Y146.932 J2
N8310 G1 Y168.932
N8315 G2 X31 Y170.932 I2
N8320 G1 X43.5
N8325 G2 X45.432 Y169.45 J-2
N8330 G3 X45.922 Y169.167 I0.386 J0.104
N8335 G1 X46.308 Y169.27
N8340 X46.383 Y169.291 Z-3.492
N8345 X46.456 Y169.31 Z-3.47
N8350 X46.523 Y169.328 Z-3.433
N8355 X46.581 Y169.344 Z-3.383
N8360 X46.629 Y169.356 Z-3.322
N8365 X46.665 Y169.366 Z-3.253
N8370 X46.687 Y169.372 Z-3.178
N8375 X46.694 Y169.374 Z-3.1
N8380 G0 Z5
N8385 X46.487 Y170.147
N8390 G1 Z-2 F300
N8395 Z-3.6
N8400 X46.48 Y170.145 Z-3.678
N8405 X46.458 Y170.139 Z-3.753
N8410 X46.422 Y170.129 Z-3.822
N8415 X46.374 Y170.116 Z-3.883
N8420 X46.316 Y170.101 Z-3.933
N8425 X46.249 Y170.083 Z-3.97
N8430 X46.176 Y170.063 Z-3.992
N8435 X46.101 Y170.043 Z-4
N8440 X45.715 Y169.94 F150
N8445 G3 X45.432 Y169.45 I0.104 J-0.386
N8450 G1 X45.932 Y167.584 F300
N8455 G2 X46 Y167.066 I-1.932 J-0.518
N8460 G1 Y50.798
N8465 G2 X45.932 Y50.28 I-2
N8470 G1 X45.432 Y48.414
N8475 G2 X43.5 Y46.932 I-1.932 J0.518
N8480 G1 X31
N8485 G2 X29 Y48.932 J2
N8490 G1 Y70.932
N8495 G2 X31 Y72.932 I2
N8500 G1 X38.5
N8505 Y144.932
N8510 X31
N8515 G2 X29 Y146.932 J2
N8520 G1 Y168.932
N8525 G2 X31 Y170.932 I2
N8530 G1 X43.5
N8535 G2 X45.432 Y169.45 J-2
N8540 G3 X45.922 Y169.167 I0.386 J0.104
N8545 G1 X46.308 Y169.27
N8550 X46.383 Y169.291 Z-3.992
N8555 X46.456 Y169.31 Z-3.97
N8560 X46.523 Y169.328 Z-3.933
N8565 X46.581 Y169.344 Z-3.883
N8570 X46.629 Y169.356 Z-3.822
N8575 X46.665 Y169.366 Z-3.753
N8580 X46.687 Y169.372 Z-3.678
N8585 X46.694 Y169.374 Z-3.6
N8590 G0 Z5
N8595 X46.487 Y170.147
N8600 G1 Z-2.5 F300
N8605 Z-4.1
N8610 X46.48 Y170.145 Z-4.178
N8615 X46.458 Y170.139 Z-4.253
N8620 X46.422 Y170.129 Z-4.322
N8625 X46.374 Y170.116 Z-4.383
N8630 X46.316 Y170.101 Z-4.433
N8635 X46.249 Y170.083 Z-4.47
N8640 X46.176 Y170.063 Z-4.492
N8645 X46.101 Y170.043 Z-4.5
N8650 X45.715 Y169.94 F150
N8655 G3 X45.432 Y169.45 I0.104 J-0.386
N8660 G1 X45.932 Y167.584 F300
N8665 G2 X46 Y167.066 I-1.932 J-0.518
N8670 G1 Y50.798
N8675 G2 X45.932 Y50.28 I-2
N8680 G1 X45.432 Y48.414
N8685 G2 X43.5 Y46.932 I-1.932 J0.518
N8690 G1 X31
N8695 G2 X29 Y48.932 J2
N8700 G1 Y70.932
N8705 G2 X31 Y72.932 I2
N8710 G1 X38.5
N8715 Y144.932
N8720 X31
N8725 G2 X29 Y146.932 J2
N8730 G1 Y168.932
N8735 G2 X31 Y170.932 I2
N8740 G1 X43.5
N8745 G2 X45.432 Y169.45 J-2
N8750 G3 X45.922 Y169.167 I0.386 J0.104
N8755 G1 X46.308 Y169.27
N8760 X46.383 Y169.291 Z-4.492
N8765 X46.456 Y169.31 Z-4.47
N8770 X46.523 Y169.328 Z-4.433
N8775 X46.581 Y169.344 Z-4.383
N8780 X46.629 Y169.356 Z-4.322
N8785 X46.665 Y169.366 Z-4.253
N8790 X46.687 Y169.372 Z-4.178
N8795 X46.694 Y169.374 Z-4.1
N8800 G0 Z5
N8805 X46.487 Y170.147
N8810 G1 Z-3 F300
N8815 Z-4.6
N8820 X46.48 Y170.145 Z-4.678
N8825 X46.458 Y170.139 Z-4.753
N8830 X46.422 Y170.129 Z-4.822
N8835 X46.374 Y170.116 Z-4.883
N8840 X46.316 Y170.101 Z-4.933
N8845 X46.249 Y170.083 Z-4.97
N8850 X46.176 Y170.063 Z-4.992
N8855 X46.101 Y170.043 Z-5
N8860 X45.715 Y169.94 F150
N8865 G3 X45.432 Y169.45 I0.104 J-0.386
N8870 G1 X45.932 Y167.584 F300
N8875 G2 X46 Y167.066 I-1.932 J-0.518
N8880 G1 Y50.798
N8885 G2 X45.932 Y50.28 I-2
N8890 G1 X45.432 Y48.414
N8895 G2 X43.5 Y46.932 I-1.932 J0.518
N8900 G1 X31
N8905 G2 X29 Y48.932 J2
N8910 G1 Y70.932
N8915 G2 X31 Y72.932 I2
N8920 G1 X38.5
N8925 Y144.932
N8930 X31
N8935 G2 X29 Y146.932 J2
N8940 G1 Y168.932
N8945 G2 X31 Y170.932 I2
N8950 G1 X43.5
N8955 G2 X45.432 Y169.45 J-2
N8960 G3 X45.922 Y169.167 I0.386 J0.104
N8965 G1 X46.308 Y169.27
N8970 X46.383 Y169.291 Z-4.992
N8975 X46.456 Y169.31 Z-4.97
N8980 X46.523 Y169.328 Z-4.933
N8985 X46.581 Y169.344 Z-4.883
N8990 X46.629 Y169.356 Z-4.822
N8995 X46.665 Y169.366 Z-4.753
N9000 X46.687 Y169.372 Z-4.678
N9005 X46.694 Y169.374 Z-4.6
N9010 G0 Z5
N9015 X46.487 Y170.147
N9020 G1 Z-3.5 F300
N9025 Z-5.1
N9030 X46.48 Y170.145 Z-5.178
N9035 X46.458 Y170.139 Z-5.253
N9040 X46.422 Y170.129 Z-5.322
N9045 X46.374 Y170.116 Z-5.383
N9050 X46.316 Y170.101 Z-5.433
N9055 X46.249 Y170.083 Z-5.47
N9060 X46.176 Y170.063 Z-5.492
N9065 X46.101 Y170.043 Z-5.5
N9070 X45.715 Y169.94 F150
N9075 G3 X45.432 Y169.45 I0.104 J-0.386
N9080 G1 X45.932 Y167.584 F300
N9085 G2 X46 Y167.066 I-1.932 J-0.518
N9090 G1 Y50.798
N9095 G2 X45.932 Y50.28 I-2
N9100 G1 X45.432 Y48.414
N9105 G2 X43.5 Y46.932 I-1.932 J0.518
N9110 G1 X31
N9115 G2 X29 Y48.932 J2
N9120 G1 Y70.932
N9125 G2 X31 Y72.932 I2
N9130 G1 X38.5
N9135 Y144.932
N9140 X31
N9145 G2 X29 Y146.932 J2
N9150 G1 Y168.932
N9155 G2 X31 Y170.932 I2
N9160 G1 X43.5
N9165 G2 X45.432 Y169.45 J-2
N9170 G3 X45.922 Y169.167 I0.386 J0.104
N9175 G1 X46.308 Y169.27
N9180 X46.383 Y169.291 Z-5.492
N9185 X46.456 Y169.31 Z-5.47
N9190 X46.523 Y169.328 Z-5.433
N9195 X46.581 Y169.344 Z-5.383
N9200 X46.629 Y169.356 Z-5.322
N9205 X46.665 Y169.366 Z-5.253
N9210 X46.687 Y169.372 Z-5.178
N9215 X46.694 Y169.374 Z-5.1
N9220 G0 Z5
N9225 X46.487 Y170.147
N9230 G1 Z-4 F300
N9235 Z-5.6
N9240 X46.48 Y170.145 Z-5.678
N9245 X46.458 Y170.139 Z-5.753
N9250 X46.422 Y170.129 Z-5.822
N9255 X46.374 Y170.116 Z-5.883
N9260 X46.316 Y170.101 Z-5.933
N9265 X46.249 Y170.083 Z-5.97
N9270 X46.176 Y170.063 Z-5.992
N9275 X46.101 Y170.043 Z-6
N9280 X45.715 Y169.94 F150
N9285 G3 X45.432 Y169.45 I0.104 J-0.386
N9290 G1 X45.932 Y167.584 F300
N9295 G2 X46 Y167.066 I-1.932 J-0.518
N9300 G1 Y50.798
N9305 G2 X45.932 Y50.28 I-2
N9310 G1 X45.432 Y48.414
N9315 G2 X43.5 Y46.932 I-1.932 J0.518
N9320 G1 X31
N9325 G2 X29 Y48.932 J2
N9330 G1 Y70.932
N9335 G2 X31 Y72.932 I2
N9340 G1 X38.5
N9345 Y144.932
N9350 X31
N9355 G2 X29 Y146.932 J2
N9360 G1 Y168.932
N9365 G2 X31 Y170.932 I2
N9370 G1 X43.5
N9375 G2 X45.432 Y169.45 J-2
N9380 G3 X45.922 Y169.167 I0.386 J0.104
N9385 G1 X46.308 Y169.27
N9390 X46.383 Y169.291 Z-5.992
N9395 X46.456 Y169.31 Z-5.97
N9400 X46.523 Y169.328 Z-5.933
N9405 X46.581 Y169.344 Z-5.883
N9410 X46.629 Y169.356 Z-5.822
N9415 X46.665 Y169.366 Z-5.753
N9420 X46.687 Y169.372 Z-5.678
N9425 X46.694 Y169.374 Z-5.6
N9430 G0 Z5
N9435 X46.487 Y170.147
N9440 G1 Z-4.5 F300
N9445 Z-6.1
N9450 X46.48 Y170.145 Z-6.178
N9455 X46.458 Y170.139 Z-6.253
N9460 X46.422 Y170.129 Z-6.322
N9465 X46.374 Y170.116 Z-6.383
N9470 X46.316 Y170.101 Z-6.433
N9475 X46.249 Y170.083 Z-6.47
N9480 X46.176 Y170.063 Z-6.492
N9485 X46.101 Y170.043 Z-6.5
N9490 X45.715 Y169.94 F150
N9495 G3 X45.432 Y169.45 I0.104 J-0.386
N9500 G1 X45.932 Y167.584 F300
N9505 G2 X46 Y167.066 I-1.932 J-0.518
N9510 G1 Y50.798
N9515 G2 X45.932 Y50.28 I-2
N9520 G1 X45.432 Y48.414
N9525 G2 X43.5 Y46.932 I-1.932 J0.518
N9530 G1 X31
N9535 G2 X29 Y48.932 J2
N9540 G1 Y70.932
N9545 G2 X31 Y72.932 I2
N9550 G1 X38.5
N9555 Y144.932
N9560 X31
N9565 G2 X29 Y146.932 J2
N9570 G1 Y168.932
N9575 G2 X31 Y170.932 I2
N9580 G1 X43.5
N9585 G2 X45.432 Y169.45 J-2
N9590 G3 X45.922 Y169.167 I0.386 J0.104
N9595 G1 X46.308 Y169.27
N9600 X46.383 Y169.291 Z-6.492
N9605 X46.456 Y169.31 Z-6.47
N9610 X46.523 Y169.328 Z-6.433
N9615 X46.581 Y169.344 Z-6.383
N9620 X46.629 Y169.356 Z-6.322
N9625 X46.665 Y169.366 Z-6.253
N9630 X46.687 Y169.372 Z-6.178
N9635 X46.694 Y169.374 Z-6.1
N9640 G0 Z5
N9645 X46.487 Y170.147
N9650 G1 Z-5 F300
N9655 Z-6.6
N9660 X46.48 Y170.145 Z-6.678
N9665 X46.458 Y170.139 Z-6.753
N9670 X46.422 Y170.129 Z-6.822
N9675 X46.374 Y170.116 Z-6.883
N9680 X46.316 Y170.101 Z-6.933
N9685 X46.249 Y170.083 Z-6.97
N9690 X46.176 Y170.063 Z-6.992
N9695 X46.101 Y170.043 Z-7
N9700 X45.715 Y169.94 F150
N9705 G3 X45.432 Y169.45 I0.104 J-0.386
N9710 G1 X45.932 Y167.584 F300
N9715 G2 X46 Y167.066 I-1.932 J-0.518
N9720 G1 Y50.798
N9725 G2 X45.932 Y50.28 I-2
N9730 G1 X45.432 Y48.414
N9735 G2 X43.5 Y46.932 I-1.932 J0.518
N9740 G1 X31
N9745 G2 X29 Y48.932 J2
N9750 G1 Y70.932
N9755 G2 X31 Y72.932 I2
N9760 G1 X38.5
N9765 Y144.932
N9770 X31
N9775 G2 X29 Y146.932 J2
N9780 G1 Y168.932
N9785 G2 X31 Y170.932 I2
N9790 G1 X43.5
N9795 G2 X45.432 Y169.45 J-2
N9800 G3 X45.922 Y169.167 I0.386 J0.104
N9805 G1 X46.308 Y169.27
N9810 X46.383 Y169.291 Z-6.992
N9815 X46.456 Y169.31 Z-6.97
N9820 X46.523 Y169.328 Z-6.933
N9825 X46.581 Y169.344 Z-6.883
N9830 X46.629 Y169.356 Z-6.822
N9835 X46.665 Y169.366 Z-6.753
N9840 X46.687 Y169.372 Z-6.678
N9845 X46.694 Y169.374 Z-6.6
N9850 G0 Z5
N9855 X46.487 Y170.147
N9860 G1 Z-5.5 F300
N9865 Z-7.1
N9870 X46.48 Y170.145 Z-7.178
N9875 X46.458 Y170.139 Z-7.253
N9880 X46.422 Y170.129 Z-7.322
N9885 X46.374 Y170.116 Z-7.383
N9890 X46.316 Y170.101 Z-7.433
N9895 X46.249 Y170.083 Z-7.47
N9900 X46.176 Y170.063 Z-7.492
N9905 X46.101 Y170.043 Z-7.5
N9910 X45.715 Y169.94 F150
N9915 G3 X45.432 Y169.45 I0.104 J-0.386
N9920 G1 X45.932 Y167.584 F300
N9925 G2 X46 Y167.066 I-1.932 J-0.518
N9930 G1 Y50.798
N9935 G2 X45.932 Y50.28 I-2
N9940 G1 X45.432 Y48.414
N9945 G2 X43.5 Y46.932 I-1.932 J0.518
N9950 G1 X31
N9955 G2 X29 Y48.932 J2
N9960 G1 Y70.932
N9965 G2 X31 Y72.932 I2
N9970 G1 X38.5
N9975 Y144.932
N9980 X31
N9985 G2 X29 Y146.932 J2
N9990 G1 Y168.932
N9995 G2 X31 Y170.932 I2
N10000 G1 X43.5
N10005 G2 X45.432 Y169.45 J-2
N10010 G3 X45.922 Y169.167 I0.386 J0.104
N10015 G1 X46.308 Y169.27
N10020 X46.383 Y169.291 Z-7.492
N10025 X46.456 Y169.31 Z-7.47
N10030 X46.523 Y169.328 Z-7.433
N10035 X46.581 Y169.344 Z-7.383
N10040 X46.629 Y169.356 Z-7.322
N10045 X46.665 Y169.366 Z-7.253
N10050 X46.687 Y169.372 Z-7.178
N10055 X46.694 Y169.374 Z-7.1
N10060 G0 Z5
N10065 X46.487 Y170.147
N10070 G1 Z-6 F300
N10075 Z-7.6
N10080 X46.48 Y170.145 Z-7.678
N10085 X46.458 Y170.139 Z-7.753
N10090 X46.422 Y170.129 Z-7.822
N10095 X46.374 Y170.116 Z-7.883
N10100 X46.316 Y170.101 Z-7.933
N10105 X46.249 Y170.083 Z-7.97
N10110 X46.176 Y170.063 Z-7.992
N10115 X46.101 Y170.043 Z-8
N10120 X45.715 Y169.94 F150
N10125 G3 X45.432 Y169.45 I0.104 J-0.386
N10130 G1 X45.932 Y167.584 F300
N10135 G2 X46 Y167.066 I-1.932 J-0.518
N10140 G1 Y50.798
N10145 G2 X45.932 Y50.28 I-2
N10150 G1 X45.432 Y48.414
N10155 G2 X43.5 Y46.932 I-1.932 J0.518
N10160 G1 X31
N10165 G2 X29 Y48.932 J2
N10170 G1 Y70.932
N10175 G2 X31 Y72.932 I2
N10180 G1 X38.5
N10185 Y144.932
N10190 X31
N10195 G2 X29 Y146.932 J2
N10200 G1 Y168.932
N10205 G2 X31 Y170.932 I2
N10210 G1 X43.5
N10215 G2 X45.432 Y169.45 J-2
N10220 G3 X45.922 Y169.167 I0.386 J0.104
N10225 G1 X46.308 Y169.27
N10230 X46.383 Y169.291 Z-7.992
N10235 X46.456 Y169.31 Z-7.97
N10240 X46.523 Y169.328 Z-7.933
N10245 X46.581 Y169.344 Z-7.883
N10250 X46.629 Y169.356 Z-7.822
N10255 X46.665 Y169.366 Z-7.753
N10260 X46.687 Y169.372 Z-7.678
N10265 X46.694 Y169.374 Z-7.6
N10270 G0 Z5
N10275 X46.487 Y170.147
N10280 G1 Z-6.5 F300
N10285 Z-8.1
N10290 X46.48 Y170.145 Z-8.178
N10295 X46.458 Y170.139 Z-8.253
N10300 X46.422 Y170.129 Z-8.322
N10305 X46.374 Y170.116 Z-8.383
N10310 X46.316 Y170.101 Z-8.433
N10315 X46.249 Y170.083 Z-8.47
N10320 X46.176 Y170.063 Z-8.492
N10325 X46.101 Y170.043 Z-8.5
N10330 X45.715 Y169.94 F150
N10335 G3 X45.432 Y169.45 I0.104 J-0.386
N10340 G1 X45.932 Y167.584 F300
N10345 G2 X46 Y167.066 I-1.932 J-0.518
N10350 G1 Y50.798
N10355 G2 X45.932 Y50.28 I-2
N10360 G1 X45.432 Y48.414
N10365 G2 X43.5 Y46.932 I-1.932 J0.518
N10370 G1 X31
N10375 G2 X29 Y48.932 J2
N10380 G1 Y70.932
N10385 G2 X31 Y72.932 I2
N10390 G1 X38.5
N10395 Y144.932
N10400 X31
N10405 G2 X29 Y146.932 J2
N10410 G1 Y168.932
N10415 G2 X31 Y170.932 I2
N10420 G1 X43.5
N10425 G2 X45.432 Y169.45 J-2
N10430 G3 X45.922 Y169.167 I0.386 J0.104
N10435 G1 X46.308 Y169.27
N10440 X46.383 Y169.291 Z-8.492
N10445 X46.456 Y169.31 Z-8.47
N10450 X46.523 Y169.328 Z-8.433
N10455 X46.581 Y169.344 Z-8.383
N10460 X46.629 Y169.356 Z-8.322
N10465 X46.665 Y169.366 Z-8.253
N10470 X46.687 Y169.372 Z-8.178
N10475 X46.694 Y169.374 Z-8.1
N10480 G0 Z5
N10485 X46.487 Y170.147
N10490 G1 Z-7 F300
N10495 Z-8.405
N10500 X46.48 Y170.145 Z-8.483
N10505 X46.458 Y170.139 Z-8.558
N10510 X46.422 Y170.129 Z-8.627
N10515 X46.374 Y170.116 Z-8.688
N10520 X46.316 Y170.101 Z-8.738
N10525 X46.249 Y170.083 Z-8.775
N10530 X46.176 Y170.063 Z-8.797
N10535 X46.101 Y170.043 Z-8.805
N10540 X45.715 Y169.94 F150
N10545 G3 X45.432 Y169.45 I0.104 J-0.386
N10550 G1 X45.932 Y167.584 F300
N10555 G2 X46 Y167.066 I-1.932 J-0.518
N10560 G1 Y50.798
N10565 G2 X45.932 Y50.28 I-2
N10570 G1 X45.432 Y48.414
N10575 G2 X43.5 Y46.932 I-1.932 J0.518
N10580 G1 X31
N10585 G2 X29 Y48.932 J2
N10590 G1 Y70.932
N10595 G2 X31 Y72.932 I2
N10600 G1 X38.5
N10605 Y144.932
N10610 X31
N10615 G2 X29 Y146.932 J2
N10620 G1 Y168.932
N10625 G2 X31 Y170.932 I2
N10630 G1 X43.5
N10635 G2 X45.432 Y169.45 J-2
N10640 G3 X45.922 Y169.167 I0.386 J0.104
N10645 G1 X46.308 Y169.27
N10650 X46.383 Y169.291 Z-8.797
N10655 X46.456 Y169.31 Z-8.775
N10660 X46.523 Y169.328 Z-8.738
N10665 X46.581 Y169.344 Z-8.688
N10670 X46.629 Y169.356 Z-8.627
N10675 X46.665 Y169.366 Z-8.558
N10680 X46.687 Y169.372 Z-8.483
N10685 X46.694 Y169.374 Z-8.405
N10690 G0 Z5
N10695 X46.487 Y170.147
N10700 G1 Z-7.305 F300
N10705 Z-8.71
N10710 X46.48 Y170.145 Z-8.788
N10715 X46.458 Y170.139 Z-8.863
N10720 X46.422 Y170.129 Z-8.932
N10725 X46.374 Y170.116 Z-8.993
N10730 X46.316 Y170.101 Z-9.043
N10735 X46.249 Y170.083 Z-9.08
N10740 X46.176 Y170.063 Z-9.102
N10745 X46.101 Y170.043 Z-9.11
N10750 X45.715 Y169.94 F150
N10755 G3 X45.432 Y169.45 I0.104 J-0.386
N10760 G1 X45.932 Y167.584 F300
N10765 G2 X46 Y167.066 I-1.932 J-0.518
N10770 G1 Y50.798
N10775 G2 X45.932 Y50.28 I-2
N10780 G1 X45.432 Y48.414
N10785 G2 X43.5 Y46.932 I-1.932 J0.518
N10790 G1 X31
N10795 G2 X29 Y48.932 J2
N10800 G1 Y70.932
N10805 G2 X31 Y72.932 I2
N10810 G1 X38.5
N10815 Y144.932
N10820 X31
N10825 G2 X29 Y146.932 J2
N10830 G1 Y168.932
N10835 G2 X31 Y170.932 I2
N10840 G1 X43.5
N10845 G2 X45.432 Y169.45 J-2
N10850 G3 X45.922 Y169.167 I0.386 J0.104
N10855 G1 X46.308 Y169.27
N10860 X46.383 Y169.291 Z-9.102
N10865 X46.456 Y169.31 Z-9.08
N10870 X46.523 Y169.328 Z-9.043
N10875 X46.581 Y169.344 Z-8.993
N10880 X46.629 Y169.356 Z-8.932
N10885 X46.665 Y169.366 Z-8.863
N10890 X46.687 Y169.372 Z-8.788
N10895 X46.694 Y169.374 Z-8.71
N10900 G0 Z15
N10905 X50.513 Y2.717
N10910 Z5
N10915 G1 Z1.5 F300
N10920 Z-0.1
N10925 X50.52 Y2.719 Z-0.178
N10930 X50.542 Y2.725 Z-0.253
N10935 X50.578 Y2.735 Z-0.322
N10940 X50.626 Y2.748 Z-0.383
N10945 X50.684 Y2.763 Z-0.433
N10950 X50.751 Y2.781 Z-0.47
N10955 X50.824 Y2.801 Z-0.492
N10960 X50.899 Y2.821 Z-0.5
N10965 X51.285 Y2.925 F150
N10970 G3 X51.568 Y3.414 I-0.104 J0.386
N10975 G1 X51.068 Y5.28 F300
N10980 G2 X51 Y5.798 I1.932 J0.518
N10985 G1 Y122.066
N10990 G2 X51.068 Y122.584 I2
N10995 G1 X51.568 Y124.45
N11000 G2 X53.5 Y125.932 I1.932 J-0.518
N11005 G1 X66
N11010 G2 X68 Y123.932 J-2
N11015 G1 Y101.932
N11020 G2 X66 Y99.932 I-2
N11025 G1 X58.5
N11030 Y27.932
N11035 X66
N11040 G2 X68 Y25.932 J-2
N11045 G1 Y3.932
N11050 G2 X66 Y1.932 I-2
N11055 G1 X53.5
N11060 G2 X51.568 Y3.414 J2
N11065 G3 X51.078 Y3.697 I-0.386 J-0.104
N11070 G1 X50.692 Y3.594
N11075 X50.617 Y3.574 Z-0.492
N11080 X50.544 Y3.554 Z-0.47
N11085 X50.477 Y3.536 Z-0.433
N11090 X50.419 Y3.521 Z-0.383
N11095 X50.371 Y3.508 Z-0.322
N11100 X50.335 Y3.498 Z-0.253
N11105 X50.313 Y3.492 Z-0.178
N11110 X50.306 Y3.49 Z-0.1
N11115 G0 Z5
N11120 X50.513 Y2.717
N11125 G1 Z1 F300
N11130 Z-0.6
N11135 X50.52 Y2.719 Z-0.678
N11140 X50.542 Y2.725 Z-0.753
N11145 X50.578 Y2.735 Z-0.822
N11150 X50.626 Y2.748 Z-0.883
N11155 X50.684 Y2.763 Z-0.933
N11160 X50.751 Y2.781 Z-0.97
N11165 X50.824 Y2.801 Z-0.992
N11170 X50.899 Y2.821 Z-1
N11175 X51.285 Y2.925 F150
N11180 G3 X51.568 Y3.414 I-0.104 J0.386
N11185 G1 X51.068 Y5.28 F300
N11190 G2 X51 Y5.798 I1.932 J0.518
N11195 G1 Y122.066
N11200 G2 X51.068 Y122.584 I2
N11205 G1 X51.568 Y124.45
N11210 G2 X53.5 Y125.932 I1.932 J-0.518
N11215 G1 X66
N11220 G2 X68 Y123.932 J-2
N11225 G1 Y101.932
N11230 G2 X66 Y99.932 I-2
N11235 G1 X58.5
N11240 Y27.932
N11245 X66
N11250 G2 X68 Y25.932 J-2
N11255 G1 Y3.932
N11260 G2 X66 Y1.932 I-2
N11265 G1 X53.5
N11270 G2 X51.568 Y3.414 J2
N11275 G3 X51.078 Y3.697 I-0.386 J-0.104
N11280 G1 X50.692 Y3.594
N11285 X50.617 Y3.574 Z-0.992
N11290 X50.544 Y3.554 Z-0.97
N11295 X50.477 Y3.536 Z-0.933
N11300 X50.419 Y3.521 Z-0.883
N11305 X50.371 Y3.508 Z-0.822
N11310 X50.335 Y3.498 Z-0.753
N11315 X50.313 Y3.492 Z-0.678
N11320 X50.306 Y3.49 Z-0.6
N11325 G0 Z5
N11330 X50.513 Y2.717
N11335 G1 Z0.5 F300
N11340 Z-1.1
N11345 X50.52 Y2.719 Z-1.178
N11350 X50.542 Y2.725 Z-1.253
N11355 X50.578 Y2.735 Z-1.322
N11360 X50.626 Y2.748 Z-1.383
N11365 X50.684 Y2.763 Z-1.433
N11370 X50.751 Y2.781 Z-1.47
N11375 X50.824 Y2.801 Z-1.492
N11380 X50.899 Y2.821 Z-1.5
N11385 X51.285 Y2.925 F150
N11390 G3 X51.568 Y3.414 I-0.104 J0.386
N11395 G1 X51.068 Y5.28 F300
N11400 G2 X51 Y5.798 I1.932 J0.518
N11405 G1 Y122.066
N11410 G2 X51.068 Y122.584 I2
N11415 G1 X51.568 Y124.45
N11420 G2 X53.5 Y125.932 I1.932 J-0.518
N11425 G1 X66
N11430 G2 X68 Y123.932 J-2
N11435 G1 Y101.932
N11440 G2 X66 Y99.932 I-2
N11445 G1 X58.5
N11450 Y27.932
N11455 X66
N11460 G2 X68 Y25.932 J-2
N11465 G1 Y3.932
N11470 G2 X66 Y1.932 I-2
N11475 G1 X53.5
N11480 G2 X51.568 Y3.414 J2
N11485 G3 X51.078 Y3.697 I-0.386 J-0.104
N11490 G1 X50.692 Y3.594
N11495 X50.617 Y3.574 Z-1.492
N11500 X50.544 Y3.554 Z-1.47
N11505 X50.477 Y3.536 Z-1.433
N11510 X50.419 Y3.521 Z-1.383
N11515 X50.371 Y3.508 Z-1.322
N11520 X50.335 Y3.498 Z-1.253
N11525 X50.313 Y3.492 Z-1.178
N11530 X50.306 Y3.49 Z-1.1
N11535 G0 Z5
N11540 X50.513 Y2.717
N11545 G1 Z0 F300
N11550 Z-1.6
N11555 X50.52 Y2.719 Z-1.678
N11560 X50.542 Y2.725 Z-1.753
N11565 X50.578 Y2.735 Z-1.822
N11570 X50.626 Y2.748 Z-1.883
N11575 X50.684 Y2.763 Z-1.933
N11580 X50.751 Y2.781 Z-1.97
N11585 X50.824 Y2.801 Z-1.992
N11590 X50.899 Y2.821 Z-2
N11595 X51.285 Y2.925 F150
N11600 G3 X51.568 Y3.414 I-0.104 J0.386
N11605 G1 X51.068 Y5.28 F300
N11610 G2 X51 Y5.798 I1.932 J0.518
N11615 G1 Y122.066
N11620 G2 X51.068 Y122.584 I2
N11625 G1 X51.568 Y124.45
N11630 G2 X53.5 Y125.932 I1.932 J-0.518
N11635 G1 X66
N11640 G2 X68 Y123.932 J-2
N11645 G1 Y101.932
N11650 G2 X66 Y99.932 I-2
N11655 G1 X58.5
N11660 Y27.932
N11665 X66
N11670 G2 X68 Y25.932 J-2
N11675 G1 Y3.932
N11680 G2 X66 Y1.932 I-2
N11685 G1 X53.5
N11690 G2 X51.568 Y3.414 J2
N11695 G3 X51.078 Y3.697 I-0.386 J-0.104
N11700 G1 X50.692 Y3.594
N11705 X50.617 Y3.574 Z-1.992
N11710 X50.544 Y3.554 Z-1.97
N11715 X50.477 Y3.536 Z-1.933
N11720 X50.419 Y3.521 Z-1.883
N11725 X50.371 Y3.508 Z-1.822
N11730 X50.335 Y3.498 Z-1.753
N11735 X50.313 Y3.492 Z-1.678
N11740 X50.306 Y3.49 Z-1.6
N11745 G0 Z5
N11750 X50.513 Y2.717
N11755 G1 Z-0.5 F300
N11760 Z-2.1
N11765 X50.52 Y2.719 Z-2.178
N11770 X50.542 Y2.725 Z-2.253
N11775 X50.578 Y2.735 Z-2.322
N11780 X50.626 Y2.748 Z-2.383
N11785 X50.684 Y2.763 Z-2.433
N11790 X50.751 Y2.781 Z-2.47
N11795 X50.824 Y2.801 Z-2.492
N11800 X50.899 Y2.821 Z-2.5
N11805 X51.285 Y2.925 F150
N11810 G3 X51.568 Y3.414 I-0.104 J0.386
N11815 G1 X51.068 Y5.28 F300
N11820 G2 X51 Y5.798 I1.932 J0.518
N11825 G1 Y122.066
N11830 G2 X51.068 Y122.584 I2
N11835 G1 X51.568 Y124.45
N11840 G2 X53.5 Y125.932 I1.932 J-0.518
N11845 G1 X66
N11850 G2 X68 Y123.932 J-2
N11855 G1 Y101.932
N11860 G2 X66 Y99.932 I-2
N11865 G1 X58.5
N11870 Y27.932
N11875 X66
N11880 G2 X68 Y25.932 J-2
N11885 G1 Y3.932
N11890 G2 X66 Y1.932 I-2
N11895 G1 X53.5
N11900 G2 X51.568 Y3.414 J2
N11905 G3 X51.078 Y3.697 I-0.386 J-0.104
N11910 G1 X50.692 Y3.594
N11915 X50.617 Y3.574 Z-2.492
N11920 X50.544 Y3.554 Z-2.47
N11925 X50.477 Y3.536 Z-2.433
N11930 X50.419 Y3.521 Z-2.383
N11935 X50.371 Y3.508 Z-2.322
N11940 X50.335 Y3.498 Z-2.253
N11945 X50.313 Y3.492 Z-2.178
N11950 X50.306 Y3.49 Z-2.1
N11955 G0 Z5
N11960 X50.513 Y2.717
N11965 G1 Z-1 F300
N11970 Z-2.6
N11975 X50.52 Y2.719 Z-2.678
N11980 X50.542 Y2.725 Z-2.753
N11985 X50.578 Y2.735 Z-2.822
N11990 X50.626 Y2.748 Z-2.883
N11995 X50.684 Y2.763 Z-2.933
N12000 X50.751 Y2.781 Z-2.97
N12005 X50.824 Y2.801 Z-2.992
N12010 X50.899 Y2.821 Z-3
N12015 X51.285 Y2.925 F150
N12020 G3 X51.568 Y3.414 I-0.104 J0.386
N12025 G1 X51.068 Y5.28 F300
N12030 G2 X51 Y5.798 I1.932 J0.518
N12035 G1 Y122.066
N12040 G2 X51.068 Y122.584 I2
N12045 G1 X51.568 Y124.45
N12050 G2 X53.5 Y125.932 I1.932 J-0.518
N12055 G1 X66
N12060 G2 X68 Y123.932 J-2
N12065 G1 Y101.932
N12070 G2 X66 Y99.932 I-2
N12075 G1 X58.5
N12080 Y27.932
N12085 X66
N12090 G2 X68 Y25.932 J-2
N12095 G1 Y3.932
N12100 G2 X66 Y1.932 I-2
N12105 G1 X53.5
N12110 G2 X51.568 Y3.414 J2
N12115 G3 X51.078 Y3.697 I-0.386 J-0.104
N12120 G1 X50.692 Y3.594
N12125 X50.617 Y3.574 Z-2.992
N12130 X50.544 Y3.554 Z-2.97
N12135 X50.477 Y3.536 Z-2.933
N12140 X50.419 Y3.521 Z-2.883
N12145 X50.371 Y3.508 Z-2.822
N12150 X50.335 Y3.498 Z-2.753
N12155 X50.313 Y3.492 Z-2.678
N12160 X50.306 Y3.49 Z-2.6
N12165 G0 Z5
N12170 X50.513 Y2.717
N12175 G1 Z-1.5 F300
N12180 Z-3.1
N12185 X50.52 Y2.719 Z-3.178
N12190 X50.542 Y2.725 Z-3.253
N12195 X50.578 Y2.735 Z-3.322
N12200 X50.626 Y2.748 Z-3.383
N12205 X50.684 Y2.763 Z-3.433
N12210 X50.751 Y2.781 Z-3.47
N12215 X50.824 Y2.801 Z-3.492
N12220 X50.899 Y2.821 Z-3.5
N12225 X51.285 Y2.925 F150
N12230 G3 X51.568 Y3.414 I-0.104 J0.386
N12235 G1 X51.068 Y5.28 F300
N12240 G2 X51 Y5.798 I1.932 J0.518
N12245 G1 Y122.066
N12250 G2 X51.068 Y122.584 I2
N12255 G1 X51.568 Y124.45
N12260 G2 X53.5 Y125.932 I1.932 J-0.518
N12265 G1 X66
N12270 G2 X68 Y123.932 J-2
N12275 G1 Y101.932
N12280 G2 X66 Y99.932 I-2
N12285 G1 X58.5
N12290 Y27.932
N12295 X66
N12300 G2 X68 Y25.932 J-2
N12305 G1 Y3.932
N12310 G2 X66 Y1.932 I-2
N12315 G1 X53.5
N12320 G2 X51.568 Y3.414 J2
N12325 G3 X51.078 Y3.697 I-0.386 J-0.104
N12330 G1 X50.692 Y3.594
N12335 X50.617 Y3.574 Z-3.492
N12340 X50.544 Y3.554 Z-3.47
N12345 X50.477 Y3.536 Z-3.433
N12350 X50.419 Y3.521 Z-3.383
N12355 X50.371 Y3.508 Z-3.322
N12360 X50.335 Y3.498 Z-3.253
N12365 X50.313 Y3.492 Z-3.178
N12370 X50.306 Y3.49 Z-3.1
N12375 G0 Z5
N12380 X50.513 Y2.717
N12385 G1 Z-2 F300
N12390 Z-3.6
N12395 X50.52 Y2.719 Z-3.678
N12400 X50.542 Y2.725 Z-3.753
N12405 X50.578 Y2.735 Z-3.822
N12410 X50.626 Y2.748 Z-3.883
N12415 X50.684 Y2.763 Z-3.933
N12420 X50.751 Y2.781 Z-3.97
N12425 X50.824 Y2.801 Z-3.992
N12430 X50.899 Y2.821 Z-4
N12435 X51.285 Y2.925 F150
N12440 G3 X51.568 Y3.414 I-0.104 J0.386
N12445 G1 X51.068 Y5.28 F300
N12450 G2 X51 Y5.798 I1.932 J0.518
N12455 G1 Y122.066
N12460 G2 X51.068 Y122.584 I2
N12465 G1 X51.568 Y124.45
N12470 G2 X53.5 Y125.932 I1.932 J-0.518
N12475 G1 X66
N12480 G2 X68 Y123.932 J-2
N12485 G1 Y101.932
N12490 G2 X66 Y99.932 I-2
N12495 G1 X58.5
N12500 Y27.932
N12505 X66
N12510 G2 X68 Y25.932 J-2
N12515 G1 Y3.932
N12520 G2 X66 Y1.932 I-2
N12525 G1 X53.5
N12530 G2 X51.568 Y3.414 J2
N12535 G3 X51.078 Y3.697 I-0.386 J-0.104
N12540 G1 X50.692 Y3.594
N12545 X50.617 Y3.574 Z-3.992
N12550 X50.544 Y3.554 Z-3.97
N12555 X50.477 Y3.536 Z-3.933
N12560 X50.419 Y3.521 Z-3.883
N12565 X50.371 Y3.508 Z-3.822
N12570 X50.335 Y3.498 Z-3.753
N12575 X50.313 Y3.492 Z-3.678
N12580 X50.306 Y3.49 Z-3.6
N12585 G0 Z5
N12590 X50.513 Y2.717
N12595 G1 Z-2.5 F300
N12600 Z-4.1
N12605 X50.52 Y2.719 Z-4.178
N12610 X50.542 Y2.725 Z-4.253
N12615 X50.578 Y2.735 Z-4.322
N12620 X50.626 Y2.748 Z-4.383
N12625 X50.684 Y2.763 Z-4.433
N12630 X50.751 Y2.781 Z-4.47
N12635 X50.824 Y2.801 Z-4.492
N12640 X50.899 Y2.821 Z-4.5
N12645 X51.285 Y2.925 F150
N12650 G3 X51.568 Y3.414 I-0.104 J0.386
N12655 G1 X51.068 Y5.28 F300
N12660 G2 X51 Y5.798 I1.932 J0.518
N12665 G1 Y122.066
N12670 G2 X51.068 Y122.584 I2
N12675 G1 X51.568 Y124.45
N12680 G2 X53.5 Y125.932 I1.932 J-0.518
N12685 G1 X66
N12690 G2 X68 Y123.932 J-2
N12695 G1 Y101.932
N12700 G2 X66 Y99.932 I-2
N12705 G1 X58.5
N12710 Y27.932
N12715 X66
N12720 G2 X68 Y25.932 J-2
N12725 G1 Y3.932
N12730 G2 X66 Y1.932 I-2
N12735 G1 X53.5
N12740 G2 X51.568 Y3.414 J2
N12745 G3 X51.078 Y3.697 I-0.386 J-0.104
N12750 G1 X50.692 Y3.594
N12755 X50.617 Y3.574 Z-4.492
N12760 X50.544 Y3.554 Z-4.47
N12765 X50.477 Y3.536 Z-4.433
N12770 X50.419 Y3.521 Z-4.383
N12775 X50.371 Y3.508 Z-4.322
N12780 X50.335 Y3.498 Z-4.253
N12785 X50.313 Y3.492 Z-4.178
N12790 X50.306 Y3.49 Z-4.1
N12795 G0 Z5
N12800 X50.513 Y2.717
N12805 G1 Z-3 F300
N12810 Z-4.6
N12815 X50.52 Y2.719 Z-4.678
N12820 X50.542 Y2.725 Z-4.753
N12825 X50.578 Y2.735 Z-4.822
N12830 X50.626 Y2.748 Z-4.883
N12835 X50.684 Y2.763 Z-4.933
N12840 X50.751 Y2.781 Z-4.97
N12845 X50.824 Y2.801 Z-4.992
N12850 X50.899 Y2.821 Z-5
N12855 X51.285 Y2.925 F150
N12860 G3 X51.568 Y3.414 I-0.104 J0.386
N12865 G1 X51.068 Y5.28 F300
N12870 G2 X51 Y5.798 I1.932 J0.518
N12875 G1 Y122.066
N12880 G2 X51.068 Y122.584 I2
N12885 G1 X51.568 Y124.45
N12890 G2 X53.5 Y125.932 I1.932 J-0.518
N12895 G1 X66
N12900 G2 X68 Y123.932 J-2
N12905 G1 Y101.932
N12910 G2 X66 Y99.932 I-2
N12915 G1 X58.5
N12920 Y27.932
N12925 X66
N12930 G2 X68 Y25.932 J-2
N12935 G1 Y3.932
N12940 G2 X66 Y1.932 I-2
N12945 G1 X53.5
N12950 G2 X51.568 Y3.414 J2
N12955 G3 X51.078 Y3.697 I-0.386 J-0.104
N12960 G1 X50.692 Y3.594
N12965 X50.617 Y3.574 Z-4.992
N12970 X50.544 Y3.554 Z-4.97
N12975 X50.477 Y3.536 Z-4.933
N12980 X50.419 Y3.521 Z-4.883
N12985 X50.371 Y3.508 Z-4.822
N12990 X50.335 Y3.498 Z-4.753
N12995 X50.313 Y3.492 Z-4.678
N13000 X50.306 Y3.49 Z-4.6
N13005 G0 Z5
N13010 X50.513 Y2.717
N13015 G1 Z-3.5 F300
N13020 Z-5.1
N13025 X50.52 Y2.719 Z-5.178
N13030 X50.542 Y2.725 Z-5.253
N13035 X50.578 Y2.735 Z-5.322
N13040 X50.626 Y2.748 Z-5.383
N13045 X50.684 Y2.763 Z-5.433
N13050 X50.751 Y2.781 Z-5.47
N13055 X50.824 Y2.801 Z-5.492
N13060 X50.899 Y2.821 Z-5.5
N13065 X51.285 Y2.925 F150
N13070 G3 X51.568 Y3.414 I-0.104 J0.386
N13075 G1 X51.068 Y5.28 F300
N13080 G2 X51 Y5.798 I1.932 J0.518
N13085 G1 Y122.066
N13090 G2 X51.068 Y122.584 I2
N13095 G1 X51.568 Y124.45
N13100 G2 X53.5 Y125.932 I1.932 J-0.518
N13105 G1 X66
N13110 G2 X68 Y123.932 J-2
N13115 G1 Y101.932
N13120 G2 X66 Y99.932 I-2
N13125 G1 X58.5
N13130 Y27.932
N13135 X66
N13140 G2 X68 Y25.932 J-2
N13145 G1 Y3.932
N13150 G2 X66 Y1.932 I-2
N13155 G1 X53.5
N13160 G2 X51.568 Y3.414 J2
N13165 G3 X51.078 Y3.697 I-0.386 J-0.104
N13170 G1 X50.692 Y3.594
N13175 X50.617 Y3.574 Z-5.492
N13180 X50.544 Y3.554 Z-5.47
N13185 X50.477 Y3.536 Z-5.433
N13190 X50.419 Y3.521 Z-5.383
N13195 X50.371 Y3.508 Z-5.322
N13200 X50.335 Y3.498 Z-5.253
N13205 X50.313 Y3.492 Z-5.178
N13210 X50.306 Y3.49 Z-5.1
N13215 G0 Z5
N13220 X50.513 Y2.717
N13225 G1 Z-4 F300
N13230 Z-5.6
N13235 X50.52 Y2.719 Z-5.678
N13240 X50.542 Y2.725 Z-5.753
N13245 X50.578 Y2.735 Z-5.822
N13250 X50.626 Y2.748 Z-5.883
N13255 X50.684 Y2.763 Z-5.933
N13260 X50.751 Y2.781 Z-5.97
N13265 X50.824 Y2.801 Z-5.992
N13270 X50.899 Y2.821 Z-6
N13275 X51.285 Y2.925 F150
N13280 G3 X51.568 Y3.414 I-0.104 J0.386
N13285 G1 X51.068 Y5.28 F300
N13290 G2 X51 Y5.798 I1.932 J0.518
N13295 G1 Y122.066
N13300 G2 X51.068 Y122.584 I2
N13305 G1 X51.568 Y124.45
N13310 G2 X53.5 Y125.932 I1.932 J-0.518
N13315 G1 X66
N13320 G2 X68 Y123.932 J-2
N13325 G1 Y101.932
N13330 G2 X66 Y99.932 I-2
N13335 G1 X58.5
N13340 Y27.932
N13345 X66
N13350 G2 X68 Y25.932 J-2
N13355 G1 Y3.932
N13360 G2 X66 Y1.932 I-2
N13365 G1 X53.5
N13370 G2 X51.568 Y3.414 J2
N13375 G3 X51.078 Y3.697 I-0.386 J-0.104
N13380 G1 X50.692 Y3.594
N13385 X50.617 Y3.574 Z-5.992
N13390 X50.544 Y3.554 Z-5.97
N13395 X50.477 Y3.536 Z-5.933
N13400 X50.419 Y3.521 Z-5.883
N13405 X50.371 Y3.508 Z-5.822
N13410 X50.335 Y3.498 Z-5.753
N13415 X50.313 Y3.492 Z-5.678
N13420 X50.306 Y3.49 Z-5.6
N13425 G0 Z5
N13430 X50.513 Y2.717
N13435 G1 Z-4.5 F300
N13440 Z-6.1
N13445 X50.52 Y2.719 Z-6.178
N13450 X50.542 Y2.725 Z-6.253
N13455 X50.578 Y2.735 Z-6.322
N13460 X50.626 Y2.748 Z-6.383
N13465 X50.684 Y2.763 Z-6.433
N13470 X50.751 Y2.781 Z-6.47
N13475 X50.824 Y2.801 Z-6.492
N13480 X50.899 Y2.821 Z-6.5
N13485 X51.285 Y2.925 F150
N13490 G3 X51.568 Y3.414 I-0.104 J0.386
N13495 G1 X51.068 Y5.28 F300
N13500 G2 X51 Y5.798 I1.932 J0.518
N13505 G1 Y122.066
N13510 G2 X51.068 Y122.584 I2
N13515 G1 X51.568 Y124.45
N13520 G2 X53.5 Y125.932 I1.932 J-0.518
N13525 G1 X66
N13530 G2 X68 Y123.932 J-2
N13535 G1 Y101.932
N13540 G2 X66 Y99.932 I-2
N13545 G1 X58.5
N13550 Y27.932
N13555 X66
N13560 G2 X68 Y25.932 J-2
N13565 G1 Y3.932
N13570 G2 X66 Y1.932 I-2
N13575 G1 X53.5
N13580 G2 X51.568 Y3.414 J2
N13585 G3 X51.078 Y3.697 I-0.386 J-0.104
N13590 G1 X50.692 Y3.594
N13595 X50.617 Y3.574 Z-6.492
N13600 X50.544 Y3.554 Z-6.47
N13605 X50.477 Y3.536 Z-6.433
N13610 X50.419 Y3.521 Z-6.383
N13615 X50.371 Y3.508 Z-6.322
N13620 X50.335 Y3.498 Z-6.253
N13625 X50.313 Y3.492 Z-6.178
N13630 X50.306 Y3.49 Z-6.1
N13635 G0 Z5
N13640 X50.513 Y2.717
N13645 G1 Z-5 F300
N13650 Z-6.6
N13655 X50.52 Y2.719 Z-6.678
N13660 X50.542 Y2.725 Z-6.753
N13665 X50.578 Y2.735 Z-6.822
N13670 X50.626 Y2.748 Z-6.883
N13675 X50.684 Y2.763 Z-6.933
N13680 X50.751 Y2.781 Z-6.97
N13685 X50.824 Y2.801 Z-6.992
N13690 X50.899 Y2.821 Z-7
N13695 X51.285 Y2.925 F150
N13700 G3 X51.568 Y3.414 I-0.104 J0.386
N13705 G1 X51.068 Y5.28 F300
N13710 G2 X51 Y5.798 I1.932 J0.518
N13715 G1 Y122.066
N13720 G2 X51.068 Y122.584 I2
N13725 G1 X51.568 Y124.45
N13730 G2 X53.5 Y125.932 I1.932 J-0.518
N13735 G1 X66
N13740 G2 X68 Y123.932 J-2
N13745 G1 Y101.932
N13750 G2 X66 Y99.932 I-2
N13755 G1 X58.5
N13760 Y27.932
N13765 X66
N13770 G2 X68 Y25.932 J-2
N13775 G1 Y3.932
N13780 G2 X66 Y1.932 I-2
N13785 G1 X53.5
N13790 G2 X51.568 Y3.414 J2
N13795 G3 X51.078 Y3.697 I-0.386 J-0.104
N13800 G1 X50.692 Y3.594
N13805 X50.617 Y3.574 Z-6.992
N13810 X50.544 Y3.554 Z-6.97
N13815 X50.477 Y3.536 Z-6.933
N13820 X50.419 Y3.521 Z-6.883
N13825 X50.371 Y3.508 Z-6.822
N13830 X50.335 Y3.498 Z-6.753
N13835 X50.313 Y3.492 Z-6.678
N13840 X50.306 Y3.49 Z-6.6
N13845 G0 Z5
N13850 X50.513 Y2.717
N13855 G1 Z-5.5 F300
N13860 Z-7.1
N13865 X50.52 Y2.719 Z-7.178
N13870 X50.542 Y2.725 Z-7.253
N13875 X50.578 Y2.735 Z-7.322
N13880 X50.626 Y2.748 Z-7.383
N13885 X50.684 Y2.763 Z-7.433
N13890 X50.751 Y2.781 Z-7.47
N13895 X50.824 Y2.801 Z-7.492
N13900 X50.899 Y2.821 Z-7.5
N13905 X51.285 Y2.925 F150
N13910 G3 X51.568 Y3.414 I-0.104 J0.386
N13915 G1 X51.068 Y5.28 F300
N13920 G2 X51 Y5.798 I1.932 J0.518
N13925 G1 Y122.066
N13930 G2 X51.068 Y122.584 I2
N13935 G1 X51.568 Y124.45
N13940 G2 X53.5 Y125.932 I1.932 J-0.518
N13945 G1 X66
N13950 G2 X68 Y123.932 J-2
N13955 G1 Y101.932
N13960 G2 X66 Y99.932 I-2
N13965 G1 X58.5
N13970 Y27.932
N13975 X66
N13980 G2 X68 Y25.932 J-2
N13985 G1 Y3.932
N13990 G2 X66 Y1.932 I-2
N13995 G1 X53.5
N14000 G2 X51.568 Y3.414 J2
N14005 G3 X51.078 Y3.697 I-0.386 J-0.104
N14010 G1 X50.692 Y3.594
N14015 X50.617 Y3.574 Z-7.492
N14020 X50.544 Y3.554 Z-7.47
N14025 X50.477 Y3.536 Z-7.433
N14030 X50.419 Y3.521 Z-7.383
N14035 X50.371 Y3.508 Z-7.322
N14040 X50.335 Y3.498 Z-7.253
N14045 X50.313 Y3.492 Z-7.178
N14050 X50.306 Y3.49 Z-7.1
N14055 G0 Z5
N14060 X50.513 Y2.717
N14065 G1 Z-6 F300
N14070 Z-7.6
N14075 X50.52 Y2.719 Z-7.678
N14080 X50.542 Y2.725 Z-7.753
N14085 X50.578 Y2.735 Z-7.822
N14090 X50.626 Y2.748 Z-7.883
N14095 X50.684 Y2.763 Z-7.933
N14100 X50.751 Y2.781 Z-7.97
N14105 X50.824 Y2.801 Z-7.992
N14110 X50.899 Y2.821 Z-8
N14115 X51.285 Y2.925 F150
N14120 G3 X51.568 Y3.414 I-0.104 J0.386
N14125 G1 X51.068 Y5.28 F300
N14130 G2 X51 Y5.798 I1.932 J0.518
N14135 G1 Y122.066
N14140 G2 X51.068 Y122.584 I2
N14145 G1 X51.568 Y124.45
N14150 G2 X53.5 Y125.932 I1.932 J-0.518
N14155 G1 X66
N14160 G2 X68 Y123.932 J-2
N14165 G1 Y101.932
N14170 G2 X66 Y99.932 I-2
N14175 G1 X58.5
N14180 Y27.932
N14185 X66
N14190 G2 X68 Y25.932 J-2
N14195 G1 Y3.932
N14200 G2 X66 Y1.932 I-2
N14205 G1 X53.5
N14210 G2 X51.568 Y3.414 J2
N14215 G3 X51.078 Y3.697 I-0.386 J-0.104
N14220 G1 X50.692 Y3.594
N14225 X50.617 Y3.574 Z-7.992
N14230 X50.544 Y3.554 Z-7.97
N14235 X50.477 Y3.536 Z-7.933
N14240 X50.419 Y3.521 Z-7.883
N14245 X50.371 Y3.508 Z-7.822
N14250 X50.335 Y3.498 Z-7.753
N14255 X50.313 Y3.492 Z-7.678
N14260 X50.306 Y3.49 Z-7.6
N14265 G0 Z5
N14270 X50.513 Y2.717
N14275 G1 Z-6.5 F300
N14280 Z-8.1
N14285 X50.52 Y2.719 Z-8.178
N14290 X50.542 Y2.725 Z-8.253
N14295 X50.578 Y2.735 Z-8.322
N14300 X50.626 Y2.748 Z-8.383
N14305 X50.684 Y2.763 Z-8.433
N14310 X50.751 Y2.781 Z-8.47
N14315 X50.824 Y2.801 Z-8.492
N14320 X50.899 Y2.821 Z-8.5
N14325 X51.285 Y2.925 F150
N14330 G3 X51.568 Y3.414 I-0.104 J0.386
N14335 G1 X51.068 Y5.28 F300
N14340 G2 X51 Y5.798 I1.932 J0.518
N14345 G1 Y122.066
N14350 G2 X51.068 Y122.584 I2
N14355 G1 X51.568 Y124.45
N14360 G2 X53.5 Y125.932 I1.932 J-0.518
N14365 G1 X66
N14370 G2 X68 Y123.932 J-2
N14375 G1 Y101.932
N14380 G2 X66 Y99.932 I-2
N14385 G1 X58.5
N14390 Y27.932
N14395 X66
N14400 G2 X68 Y25.932 J-2
N14405 G1 Y3.932
N14410 G2 X66 Y1.932 I-2
N14415 G1 X53.5
N14420 G2 X51.568 Y3.414 J2
N14425 G3 X51.078 Y3.697 I-0.386 J-0.104
N14430 G1 X50.692 Y3.594
N14435 X50.617 Y3.574 Z-8.492
N14440 X50.544 Y3.554 Z-8.47
N14445 X50.477 Y3.536 Z-8.433
N14450 X50.419 Y3.521 Z-8.383
N14455 X50.371 Y3.508 Z-8.322
N14460 X50.335 Y3.498 Z-8.253
N14465 X50.313 Y3.492 Z-8.178
N14470 X50.306 Y3.49 Z-8.1
N14475 G0 Z5
N14480 X50.513 Y2.717
N14485 G1 Z-7 F300
N14490 Z-8.406
N14495 X50.52 Y2.719 Z-8.484
N14500 X50.542 Y2.725 Z-8.559
N14505 X50.578 Y2.735 Z-8.628
N14510 X50.626 Y2.748 Z-8.688
N14515 X50.684 Y2.763 Z-8.738
N14520 X50.751 Y2.781 Z-8.775
N14525 X50.824 Y2.801 Z-8.798
N14530 X50.899 Y2.821 Z-8.806
N14535 X51.285 Y2.925 F150
N14540 G3 X51.568 Y3.414 I-0.104 J0.386
N14545 G1 X51.068 Y5.28 F300
N14550 G2 X51 Y5.798 I1.932 J0.518
N14555 G1 Y122.066
N14560 G2 X51.068 Y122.584 I2
N14565 G1 X51.568 Y124.45
N14570 G2 X53.5 Y125.932 I1.932 J-0.518
N14575 G1 X66
N14580 G2 X68 Y123.932 J-2
N14585 G1 Y101.932
N14590 G2 X66 Y99.932 I-2
N14595 G1 X58.5
N14600 Y27.932
N14605 X66
N14610 G2 X68 Y25.932 J-2
N14615 G1 Y3.932
N14620 G2 X66 Y1.932 I-2
N14625 G1 X53.5
N14630 G2 X51.568 Y3.414 J2
N14635 G3 X51.078 Y3.697 I-0.386 J-0.104
N14640 G1 X50.692 Y3.594
N14645 X50.617 Y3.574 Z-8.798
N14650 X50.544 Y3.554 Z-8.775
N14655 X50.477 Y3.536 Z-8.738
N14660 X50.419 Y3.521 Z-8.688
N14665 X50.371 Y3.508 Z-8.628
N14670 X50.335 Y3.498 Z-8.559
N14675 X50.313 Y3.492 Z-8.484
N14680 X50.306 Y3.49 Z-8.406
N14685 G0 Z5
N14690 X50.513 Y2.717
N14695 G1 Z-7.306 F300
N14700 Z-8.711
N14705 X50.52 Y2.719 Z-8.789
N14710 X50.542 Y2.725 Z-8.864
N14715 X50.578 Y2.735 Z-8.933
N14720 X50.626 Y2.748 Z-8.994
N14725 X50.684 Y2.763 Z-9.044
N14730 X50.751 Y2.781 Z-9.081
N14735 X50.824 Y2.801 Z-9.103
N14740 X50.899 Y2.821 Z-9.111
N14745 X51.285 Y2.925 F150
N14750 G3 X51.568 Y3.414 I-0.104 J0.386
N14755 G1 X51.068 Y5.28 F300
N14760 G2 X51 Y5.798 I1.932 J0.518
N14765 G1 Y122.066
N14770 G2 X51.068 Y122.584 I2
N14775 G1 X51.568 Y124.45
N14780 G2 X53.5 Y125.932 I1.932 J-0.518
N14785 G1 X66
N14790 G2 X68 Y123.932 J-2
N14795 G1 Y101.932
N14800 G2 X66 Y99.932 I-2
N14805 G1 X58.5
N14810 Y27.932
N14815 X66
N14820 G2 X68 Y25.932 J-2
N14825 G1 Y3.932
N14830 G2 X66 Y1.932 I-2
N14835 G1 X53.5
N14840 G2 X51.568 Y3.414 J2
N14845 G3 X51.078 Y3.697 I-0.386 J-0.104
N14850 G1 X50.692 Y3.594
N14855 X50.617 Y3.574 Z-9.103
N14860 X50.544 Y3.554 Z-9.081
N14865 X50.477 Y3.536 Z-9.044
N14870 X50.419 Y3.521 Z-8.994
N14875 X50.371 Y3.508 Z-8.933
N14880 X50.335 Y3.498 Z-8.864
N14885 X50.313 Y3.492 Z-8.789
N14890 X50.306 Y3.49 Z-8.711
N14895 G0 Z15
N14900 M9
N14905 G28
N14910 M30
%
