%
(1001)
(T1 D=2 CR=0 - ZMIN=-2.001 - flat end mill)
N10 G90 G94
N15 G17
N20 G21
N25 M9
N30 G28

(2D ??37)
N35 T1 M6
(0)
N40 S23873 M3
N45 G54
N50 M8
N55 G0 X8.15 Y86.336
N60 G43 Z15
N65 Z5
N70 G1 Z2 F600
N75 Z-0.8
N80 G18 G2 X8.35 Z-1 I0.2
N85 G1 X8.55 F300
N90 G17 G3 X8.75 Y86.536 J0.2
N95 X7.25 I-0.75 F600
N100 X8.75 I0.75
N105 X8.55 Y86.736 I-0.2
N110 G1 X8.35
N115 G18 G3 X8.15 Z-0.8 K0.2
N120 G0 Z5
N125 Y86.336
N130 G1 Z1 F600
N135 Z-1.8
N140 G2 X8.35 Z-2 I0.2
N145 G1 X8.55 F300
N150 G17 G3 X8.75 Y86.536 J0.2
N155 X7.25 I-0.75 F600
N160 X8.75 I0.75
N165 X8.55 Y86.736 I-0.2
N170 G1 X8.35
N175 G18 G3 X8.15 Z-1.8 K0.2
N180 G0 Z5
N185 Y106.356
N190 G1 Z2 F600
N195 Z-0.8
N200 G2 X8.35 Z-1 I0.2
N205 G1 X8.55 F300
N210 G17 G3 X8.75 Y106.556 J0.2
N215 X7.25 I-0.75 F600
N220 X8.75 I0.75
N225 X8.55 Y106.756 I-0.2
N230 G1 X8.35
N235 G18 G3 X8.15 Z-0.8 K0.2
N240 G0 Z5
N245 Y106.356
N250 G1 Z1 F600
N255 Z-1.8
N260 G2 X8.35 Z-2 I0.2
N265 G1 X8.55 F300
N270 G17 G3 X8.75 Y106.556 J0.2
N275 X7.25 I-0.75 F600
N280 X8.75 I0.75
N285 X8.55 Y106.756 I-0.2
N290 G1 X8.35
N295 G18 G3 X8.15 Z-1.8 K0.2
N300 G0 Z5
N305 X48.15 Y130.356
N310 G1 Z2 F600
N315 Z-0.8
N320 G2 X48.35 Z-1 I0.2
N325 G1 X48.55 F300
N330 G17 G3 X48.75 Y130.556 J0.2
N335 X47.25 I-0.75 F600
N340 X48.75 I0.75
N345 X48.55 Y130.756 I-0.2
N350 G1 X48.35
N355 G18 G3 X48.15 Z-0.8 K0.2
N360 G0 Z5
N365 Y130.356
N370 G1 Z1 F600
N375 Z-1.8
N380 G2 X48.35 Z-2 I0.2
N385 G1 X48.55 F300
N390 G17 G3 X48.75 Y130.556 J0.2
N395 X47.25 I-0.75 F600
N400 X48.75 I0.75
N405 X48.55 Y130.756 I-0.2
N410 G1 X48.35
N415 G18 G3 X48.15 Z-1.8 K0.2
N420 G0 Z5
N425 X45.953 Y185.363
N430 G1 Z2 F600
N435 Z-0.8
N440 G2 X46.153 Z-1 I0.2
N445 G1 X46.354 F300
N450 G17 G3 X46.554 Y185.563 J0.2
N455 X45.054 I-0.75 F600
N460 X46.554 I0.75
N465 X46.354 Y185.763 I-0.2
N470 G1 X46.153
N475 G18 G3 X45.953 Z-0.8 K0.2
N480 G0 Z5
N485 Y185.363
N490 G1 Z1 F600
N495 Z-1.8
N500 G2 X46.153 Z-2 I0.2
N505 G1 X46.354 F300
N510 G17 G3 X46.554 Y185.563 J0.2
N515 X45.054 I-0.75 F600
N520 X46.554 I0.75
N525 X46.354 Y185.763 I-0.2
N530 G1 X46.153
N535 G18 G3 X45.953 Z-1.8 K0.2
N540 G0 Z5
N545 X48.087 Y62.301
N550 G1 Z2 F600
N555 Z-0.8
N560 X48.093 Y62.299 Z-0.852
N565 X48.112 Y62.294 Z-0.9
N570 X48.143 Y62.285 Z-0.941
N575 X48.182 Y62.273 Z-0.973
N580 X48.229 Y62.259 Z-0.993
N585 X48.278 Y62.244 Z-1
N590 X48.47 Y62.187 F300
N595 G17 G3 X48.719 Y62.322 I0.057 J0.192
N600 X47.281 Y62.75 I-0.719 J0.214 F600
N605 X48.719 Y62.322 I0.719 J-0.214
N610 X48.584 Y62.57 I-0.192 J0.057
N615 G1 X48.393 Y62.627
N620 X48.343 Y62.642 Z-0.993
N625 X48.297 Y62.656 Z-0.973
N630 X48.257 Y62.668 Z-0.941
N635 X48.227 Y62.677 Z-0.9
N640 X48.207 Y62.683 Z-0.852
N645 X48.201 Y62.685 Z-0.8
N650 G0 Z5
N655 X48.087 Y62.301
N660 G1 Z1 F600
N665 Z-1.8
N670 X48.093 Y62.299 Z-1.852
N675 X48.112 Y62.294 Z-1.9
N680 X48.143 Y62.285 Z-1.941
N685 X48.182 Y62.273 Z-1.973
N690 X48.229 Y62.259 Z-1.993
N695 X48.278 Y62.244 Z-2
N700 X48.47 Y62.187 F300
N705 G3 X48.719 Y62.322 I0.057 J0.192
N710 X47.281 Y62.75 I-0.719 J0.214 F600
N715 X48.719 Y62.322 I0.719 J-0.214
N720 X48.584 Y62.57 I-0.192 J0.057
N725 G1 X48.393 Y62.627
N730 X48.343 Y62.642 Z-1.993
N735 X48.297 Y62.656 Z-1.973
N740 X48.257 Y62.668 Z-1.941
N745 X48.227 Y62.677 Z-1.9
N750 X48.207 Y62.683 Z-1.852
N755 X48.201 Y62.685 Z-1.8
N760 G0 Z5
N765 X45.953 Y7.328
N770 G1 Z2 F600
N775 Z-0.8
N780 G18 G2 X46.153 Z-1 I0.2
N785 G1 X46.354 F300
N790 G17 G3 X46.554 Y7.528 J0.2
N795 X45.054 I-0.75 F600
N800 X46.554 I0.75
N805 X46.354 Y7.728 I-0.2
N810 G1 X46.153
N815 G18 G3 X45.953 Z-0.8 K0.2
N820 G0 Z5
N825 Y7.328
N830 G1 Z1 F600
N835 Z-1.8
N840 G2 X46.153 Z-2 I0.2
N845 G1 X46.354 F300
N850 G17 G3 X46.554 Y7.528 J0.2
N855 X45.054 I-0.75 F600
N860 X46.554 I0.75
N865 X46.354 Y7.728 I-0.2
N870 G1 X46.153
N875 G18 G3 X45.953 Z-1.8 K0.2
N880 G0 Z15
N885 X73.155 Y86.34
N890 Z5
N895 G1 Z2 F600
N900 Z-0.8
N905 X73.162 Z-0.852
N910 X73.182 Z-0.9
N915 X73.213 Y86.341 Z-0.941
N920 X73.255 Y86.342 Z-0.973
N925 X73.303 Y86.343 Z-0.993
N930 X73.355 Y86.344 Z-1
N935 X73.555 Y86.349 F300
N940 G17 G3 X73.75 Y86.554 I-0.005 J0.2
N945 X72.25 Y86.517 I-0.75 J-0.018 F600
N950 X73.75 Y86.554 I0.75 J0.018
N955 X73.545 Y86.749 I-0.2 J-0.005
N960 G1 X73.345 Y86.744
N965 X73.293 Y86.743 Z-0.993
N970 X73.245 Y86.742 Z-0.973
N975 X73.204 Y86.741 Z-0.941
N980 X73.172 Y86.74 Z-0.9
N985 X73.152 Z-0.852
N990 X73.145 Y86.739 Z-0.8
N995 G0 Z5
N1000 X73.155 Y86.34
N1005 G1 Z1 F600
N1010 Z-1.801
N1015 X73.162 Z-1.853
N1020 X73.182 Z-1.901
N1025 X73.213 Y86.341 Z-1.942
N1030 X73.255 Y86.342 Z-1.974
N1035 X73.303 Y86.343 Z-1.994
N1040 X73.355 Y86.344 Z-2.001
N1045 X73.555 Y86.349 F300
N1050 G3 X73.75 Y86.554 I-0.005 J0.2
N1055 X72.25 Y86.517 I-0.75 J-0.018 F600
N1060 X73.75 Y86.554 I0.75 J0.018
N1065 X73.545 Y86.749 I-0.2 J-0.005
N1070 G1 X73.345 Y86.744
N1075 X73.293 Y86.743 Z-1.994
N1080 X73.245 Y86.742 Z-1.974
N1085 X73.204 Y86.741 Z-1.942
N1090 X73.172 Y86.74 Z-1.901
N1095 X73.152 Z-1.853
N1100 X73.145 Y86.739 Z-1.801
N1105 G0 Z5
N1110 X73.15 Y106.356
N1115 G1 Z2 F600
N1120 Z-0.8
N1125 G18 G2 X73.35 Z-1 I0.2
N1130 G1 X73.55 F300
N1135 G17 G3 X73.75 Y106.556 J0.2
N1140 X72.25 I-0.75 F600
N1145 X73.75 I0.75
N1150 X73.55 Y106.756 I-0.2
N1155 G1 X73.35
N1160 G18 G3 X73.15 Z-0.8 K0.2
N1165 G0 Z5
N1170 Y106.356
N1175 G1 Z1 F600
N1180 Z-1.801
N1185 G2 X73.35 Z-2.001 I0.2
N1190 G1 X73.55 F300
N1195 G17 G3 X73.75 Y106.556 J0.2
N1200 X72.25 I-0.75 F600
N1205 X73.75 I0.75
N1210 X73.55 Y106.756 I-0.2
N1215 G1 X73.35
N1220 G18 G3 X73.15 Z-1.801 K0.2
N1225 G0 Z5
N1230 X113.15 Y130.356
N1235 G1 Z2 F600
N1240 Z-0.8
N1245 G2 X113.35 Z-1 I0.2
N1250 G1 X113.55 F300
N1255 G17 G3 X113.75 Y130.556 J0.2
N1260 X112.25 I-0.75 F600
N1265 X113.75 I0.75
N1270 X113.55 Y130.756 I-0.2
N1275 G1 X113.35
N1280 G18 G3 X113.15 Z-0.8 K0.2
N1285 G0 Z5
N1290 Y130.356
N1295 G1 Z1 F600
N1300 Z-1.801
N1305 G2 X113.35 Z-2.001 I0.2
N1310 G1 X113.55 F300
N1315 G17 G3 X113.75 Y130.556 J0.2
N1320 X112.25 I-0.75 F600
N1325 X113.75 I0.75
N1330 X113.55 Y130.756 I-0.2
N1335 G1 X113.35
N1340 G18 G3 X113.15 Z-1.801 K0.2
N1345 G0 Z5
N1350 X110.959 Y185.367
N1355 G1 Z2 F600
N1360 Z-0.8
N1365 X110.966 Z-0.852
N1370 X110.986 Z-0.9
N1375 X111.017 Y185.368 Z-0.941
N1380 X111.059 Y185.369 Z-0.973
N1385 X111.107 Y185.37 Z-0.993
N1390 X111.159 Y185.372 Z-1
N1395 X111.359 Y185.377 F300
N1400 G17 G3 X111.554 Y185.581 I-0.005 J0.2
N1405 X110.054 Y185.545 I-0.75 J-0.018 F600
N1410 X111.554 Y185.581 I0.75 J0.018
N1415 X111.349 Y185.776 I-0.2 J-0.005
N1420 G1 X111.149 Y185.772
N1425 X111.097 Y185.77 Z-0.993
N1430 X111.049 Y185.769 Z-0.973
N1435 X111.008 Y185.768 Z-0.941
N1440 X110.976 Y185.767 Z-0.9
N1445 X110.956 Z-0.852
N1450 X110.949 Z-0.8
N1455 G0 Z5
N1460 X110.959 Y185.367
N1465 G1 Z1 F600
N1470 Z-1.801
N1475 X110.966 Z-1.853
N1480 X110.986 Z-1.901
N1485 X111.017 Y185.368 Z-1.942
N1490 X111.059 Y185.369 Z-1.974
N1495 X111.107 Y185.37 Z-1.994
N1500 X111.159 Y185.372 Z-2.001
N1505 X111.359 Y185.377 F300
N1510 G3 X111.554 Y185.581 I-0.005 J0.2
N1515 X110.054 Y185.545 I-0.75 J-0.018 F600
N1520 X111.554 Y185.581 I0.75 J0.018
N1525 X111.349 Y185.776 I-0.2 J-0.005
N1530 G1 X111.149 Y185.772
N1535 X111.097 Y185.77 Z-1.994
N1540 X111.049 Y185.769 Z-1.974
N1545 X111.008 Y185.768 Z-1.942
N1550 X110.976 Y185.767 Z-1.901
N1555 X110.956 Z-1.853
N1560 X110.949 Z-1.801
N1565 G0 Z5
N1570 X113.092 Y62.304
N1575 G1 Z2 F600
N1580 Z-0.8
N1585 X113.099 Y62.302 Z-0.852
N1590 X113.118 Y62.296 Z-0.9
N1595 X113.149 Y62.288 Z-0.941
N1600 X113.189 Y62.277 Z-0.973
N1605 X113.235 Y62.265 Z-0.993
N1610 X113.285 Y62.251 Z-1
N1615 X113.478 Y62.199 F300
N1620 G3 X113.724 Y62.339 I0.052 J0.193
N1625 X112.276 Y62.732 I-0.724 J0.197 F600
N1630 X113.724 Y62.339 I0.724 J-0.197
N1635 X113.583 Y62.585 I-0.193 J0.052
N1640 G1 X113.39 Y62.637
N1645 X113.34 Y62.651 Z-0.993
N1650 X113.294 Y62.663 Z-0.973
N1655 X113.254 Y62.674 Z-0.941
N1660 X113.223 Y62.682 Z-0.9
N1665 X113.204 Y62.688 Z-0.852
N1670 X113.197 Y62.69 Z-0.8
N1675 G0 Z5
N1680 X113.092 Y62.304
N1685 G1 Z1 F600
N1690 Z-1.801
N1695 X113.099 Y62.302 Z-1.853
N1700 X113.118 Y62.296 Z-1.901
N1705 X113.149 Y62.288 Z-1.942
N1710 X113.189 Y62.277 Z-1.974
N1715 X113.235 Y62.265 Z-1.994
N1720 X113.285 Y62.251 Z-2.001
N1725 X113.478 Y62.199 F300
N1730 G3 X113.724 Y62.339 I0.052 J0.193
N1735 X112.276 Y62.732 I-0.724 J0.197 F600
N1740 X113.724 Y62.339 I0.724 J-0.197
N1745 X113.583 Y62.585 I-0.193 J0.052
N1750 G1 X113.39 Y62.637
N1755 X113.34 Y62.651 Z-1.994
N1760 X113.294 Y62.663 Z-1.974
N1765 X113.254 Y62.674 Z-1.942
N1770 X113.223 Y62.682 Z-1.901
N1775 X113.204 Y62.688 Z-1.853
N1780 X113.197 Y62.69 Z-1.801
N1785 G0 Z5
N1790 X110.954 Y7.328
N1795 G1 Z2 F600
N1800 Z-0.8
N1805 G18 G2 X111.154 Z-1 I0.2
N1810 G1 X111.354 F300
N1815 G17 G3 X111.554 Y7.528 J0.2
N1820 X110.054 I-0.75 F600
N1825 X111.554 I0.75
N1830 X111.354 Y7.728 I-0.2
N1835 G1 X111.154
N1840 G18 G3 X110.954 Z-0.8 K0.2
N1845 G0 Z5
N1850 Y7.328
N1855 G1 Z1 F600
N1860 Z-1.801
N1865 G2 X111.154 Z-2.001 I0.2
N1870 G1 X111.354 F300
N1875 G17 G3 X111.554 Y7.528 J0.2
N1880 X110.054 I-0.75 F600
N1885 X111.554 I0.75
N1890 X111.354 Y7.728 I-0.2
N1895 G1 X111.154
N1900 G18 G3 X110.954 Z-1.801 K0.2
N1905 G0 Z15
N1910 G17
N1915 M9
N1920 G28
N1925 M30
%
