%
(1001)
(T2 D=4 CR=0 - ZMIN=-9.101 - flat end mill)
N10 G90 G94
N15 G17
N20 G21
N25 M9
N30 G28

(2D ??38)
N35 T2 M6
N40 S10000 M3
N45 G54
N50 M8
N55 G0 X47.311 Y103.707
N60 G43 Z15
N65 Z5
N70 G1 Z1.5 F300
N75 Z-0.1
N80 X47.318 Y103.711 Z-0.178
N85 X47.339 Y103.721 Z-0.253
N90 X47.372 Y103.737 Z-0.322
N95 X47.416 Y103.759 Z-0.383
N100 X47.471 Y103.786 Z-0.433
N105 X47.533 Y103.817 Z-0.47
N110 X47.6 Y103.85 Z-0.492
N115 X47.67 Y103.885 Z-0.5
N120 X48.028 Y104.063
N125 G3 X48.208 Y104.599 I-0.178 J0.358
N130 G2 X48 Y105.488 I1.792 J0.889
N135 G1 Y123.488
N140 X44.7
N145 G2 X42.7 Y125.488 J2
N150 G1 Y134.556
N155 G2 X44.7 Y136.556 I2
N160 G1 X49.754
N165 X57.73 Y166.321
N170 G3 X52.42 Y183.212 I-15.938 J4.271
N175 G1 X51.53 Y179.888
N180 G2 X49.08 Y178.474 I-1.932 J0.518
N185 G1 X39.421 Y181.062
N190 G2 X38.007 Y183.512 I0.518 J1.932
N195 G1 X38.897 Y186.836
N200 G3 X25.854 Y174.862 I2.894 J-16.244
N205 G1 X9.427 Y113.556
N210 X12.5
N215 G2 X14.5 Y111.556 J-2
N220 G1 Y101.556
N225 G2 X12.5 Y99.556 I-2
N230 G1 X0
N235 G2 X-1.932 Y102.074 J2
N240 G1 X18.127 Y176.933
N245 G2 X48.133 Y194.257 I23.665 J-6.341
N250 X65.457 Y164.25 I-6.341 J-23.665
N255 G1 X55.5 Y127.091
N260 Y105.488
N265 G2 X53.5 Y103.488 I-2
N270 G1 X50
N275 G2 X48.208 Y104.599 J2
N280 G3 X47.672 Y104.779 I-0.358 J-0.178 F150
N285 G1 X47.314 Y104.602
N290 X47.244 Y104.567 Z-0.492
N295 X47.177 Y104.534 Z-0.47
N300 X47.115 Y104.503 Z-0.433
N305 X47.061 Y104.476 Z-0.383
N310 X47.016 Y104.454 Z-0.322
N315 X46.983 Y104.437 Z-0.253
N320 X46.963 Y104.427 Z-0.178
N325 X46.956 Y104.424 Z-0.1
N330 G0 Z5
N335 X53.9 Y102.288
N340 G1 Z1 F300
N345 Z-0.6
N350 G19 G3 Y102.688 Z-1 J0.4
N355 G1 Y103.088
N360 G17 G3 X53.5 Y103.488 I-0.4
N365 G1 X50
N370 G2 X48 Y105.488 J2
N375 G1 Y123.488
N380 X44.7
N385 G2 X42.7 Y125.488 J2
N390 G1 Y134.556
N395 G2 X44.7 Y136.556 I2
N400 G1 X49.754
N405 X57.73 Y166.321
N410 G3 X52.42 Y183.212 I-15.938 J4.271
N415 G1 X51.53 Y179.888
N420 G2 X49.08 Y178.474 I-1.932 J0.518
N425 G1 X39.421 Y181.062
N430 G2 X38.007 Y183.512 I0.518 J1.932
N435 G1 X38.897 Y186.836
N440 G3 X25.854 Y174.862 I2.894 J-16.244
N445 G1 X9.427 Y113.556
N450 X12.5
N455 G2 X14.5 Y111.556 J-2
N460 G1 Y101.556
N465 G2 X12.5 Y99.556 I-2
N470 G1 X0
N475 G2 X-1.932 Y102.074 J2
N480 G1 X18.127 Y176.933
N485 G2 X48.133 Y194.257 I23.665 J-6.341
N490 X65.457 Y164.25 I-6.341 J-23.665
N495 G1 X55.5 Y127.091
N500 Y105.488
N505 G2 X53.5 Y103.488 I-2
N510 G3 X53.1 Y103.088 J-0.4 F150
N515 G1 Y102.688
N520 G19 G2 Y102.288 Z-0.6 K0.4
N525 G0 Z5
N530 X53.9
N535 G1 Z0.5 F300
N540 Z-1.1
N545 G3 Y102.688 Z-1.5 J0.4
N550 G1 Y103.088
N555 G17 G3 X53.5 Y103.488 I-0.4
N560 G1 X50
N565 G2 X48 Y105.488 J2
N570 G1 Y123.488
N575 X44.7
N580 G2 X42.7 Y125.488 J2
N585 G1 Y134.556
N590 G2 X44.7 Y136.556 I2
N595 G1 X49.754
N600 X57.73 Y166.321
N605 G3 X52.42 Y183.212 I-15.938 J4.271
N610 G1 X51.53 Y179.888
N615 G2 X49.08 Y178.474 I-1.932 J0.518
N620 G1 X39.421 Y181.062
N625 G2 X38.007 Y183.512 I0.518 J1.932
N630 G1 X38.897 Y186.836
N635 G3 X25.854 Y174.862 I2.894 J-16.244
N640 G1 X9.427 Y113.556
N645 X12.5
N650 G2 X14.5 Y111.556 J-2
N655 G1 Y101.556
N660 G2 X12.5 Y99.556 I-2
N665 G1 X0
N670 G2 X-1.932 Y102.074 J2
N675 G1 X18.127 Y176.933
N680 G2 X48.133 Y194.257 I23.665 J-6.341
N685 X65.457 Y164.25 I-6.341 J-23.665
N690 G1 X55.5 Y127.091
N695 Y105.488
N700 G2 X53.5 Y103.488 I-2
N705 G3 X53.1 Y103.088 J-0.4 F150
N710 G1 Y102.688
N715 G19 G2 Y102.288 Z-1.1 K0.4
N720 G0 Z5
N725 X53.9
N730 G1 Z0 F300
N735 Z-1.6
N740 G3 Y102.688 Z-2 J0.4
N745 G1 Y103.088
N750 G17 G3 X53.5 Y103.488 I-0.4
N755 G1 X50
N760 G2 X48 Y105.488 J2
N765 G1 Y123.488
N770 X44.7
N775 G2 X42.7 Y125.488 J2
N780 G1 Y134.556
N785 G2 X44.7 Y136.556 I2
N790 G1 X49.754
N795 X57.73 Y166.321
N800 G3 X52.42 Y183.212 I-15.938 J4.271
N805 G1 X51.53 Y179.888
N810 G2 X49.08 Y178.474 I-1.932 J0.518
N815 G1 X39.421 Y181.062
N820 G2 X38.007 Y183.512 I0.518 J1.932
N825 G1 X38.897 Y186.836
N830 G3 X25.854 Y174.862 I2.894 J-16.244
N835 G1 X9.427 Y113.556
N840 X12.5
N845 G2 X14.5 Y111.556 J-2
N850 G1 Y101.556
N855 G2 X12.5 Y99.556 I-2
N860 G1 X0
N865 G2 X-1.932 Y102.074 J2
N870 G1 X18.127 Y176.933
N875 G2 X48.133 Y194.257 I23.665 J-6.341
N880 X65.457 Y164.25 I-6.341 J-23.665
N885 G1 X55.5 Y127.091
N890 Y105.488
N895 G2 X53.5 Y103.488 I-2
N900 G3 X53.1 Y103.088 J-0.4 F150
N905 G1 Y102.688
N910 G19 G2 Y102.288 Z-1.6 K0.4
N915 G0 Z5
N920 X53.9
N925 G1 Z-0.5 F300
N930 Z-2.1
N935 G3 Y102.688 Z-2.5 J0.4
N940 G1 Y103.088
N945 G17 G3 X53.5 Y103.488 I-0.4
N950 G1 X50
N955 G2 X48 Y105.488 J2
N960 G1 Y123.488
N965 X44.7
N970 G2 X42.7 Y125.488 J2
N975 G1 Y134.556
N980 G2 X44.7 Y136.556 I2
N985 G1 X49.754
N990 X57.73 Y166.321
N995 G3 X52.42 Y183.212 I-15.938 J4.271
N1000 G1 X51.53 Y179.888
N1005 G2 X49.08 Y178.474 I-1.932 J0.518
N1010 G1 X39.421 Y181.062
N1015 G2 X38.007 Y183.512 I0.518 J1.932
N1020 G1 X38.897 Y186.836
N1025 G3 X25.854 Y174.862 I2.894 J-16.244
N1030 G1 X9.427 Y113.556
N1035 X12.5
N1040 G2 X14.5 Y111.556 J-2
N1045 G1 Y101.556
N1050 G2 X12.5 Y99.556 I-2
N1055 G1 X0
N1060 G2 X-1.932 Y102.074 J2
N1065 G1 X18.127 Y176.933
N1070 G2 X48.133 Y194.257 I23.665 J-6.341
N1075 X65.457 Y164.25 I-6.341 J-23.665
N1080 G1 X55.5 Y127.091
N1085 Y105.488
N1090 G2 X53.5 Y103.488 I-2
N1095 G3 X53.1 Y103.088 J-0.4 F150
N1100 G1 Y102.688
N1105 G19 G2 Y102.288 Z-2.1 K0.4
N1110 G0 Z5
N1115 X53.9
N1120 G1 Z-1 F300
N1125 Z-2.6
N1130 G3 Y102.688 Z-3 J0.4
N1135 G1 Y103.088
N1140 G17 G3 X53.5 Y103.488 I-0.4
N1145 G1 X50
N1150 G2 X48 Y105.488 J2
N1155 G1 Y123.488
N1160 X44.7
N1165 G2 X42.7 Y125.488 J2
N1170 G1 Y134.556
N1175 G2 X44.7 Y136.556 I2
N1180 G1 X49.754
N1185 X57.73 Y166.321
N1190 G3 X52.42 Y183.212 I-15.938 J4.271
N1195 G1 X51.53 Y179.888
N1200 G2 X49.08 Y178.474 I-1.932 J0.518
N1205 G1 X39.421 Y181.062
N1210 G2 X38.007 Y183.512 I0.518 J1.932
N1215 G1 X38.897 Y186.836
N1220 G3 X25.854 Y174.862 I2.894 J-16.244
N1225 G1 X9.427 Y113.556
N1230 X12.5
N1235 G2 X14.5 Y111.556 J-2
N1240 G1 Y101.556
N1245 G2 X12.5 Y99.556 I-2
N1250 G1 X0
N1255 G2 X-1.932 Y102.074 J2
N1260 G1 X18.127 Y176.933
N1265 G2 X48.133 Y194.257 I23.665 J-6.341
N1270 X65.457 Y164.25 I-6.341 J-23.665
N1275 G1 X55.5 Y127.091
N1280 Y105.488
N1285 G2 X53.5 Y103.488 I-2
N1290 G3 X53.1 Y103.088 J-0.4 F150
N1295 G1 Y102.688
N1300 G19 G2 Y102.288 Z-2.6 K0.4
N1305 G0 Z5
N1310 X53.9
N1315 G1 Z-1.5 F300
N1320 Z-3.1
N1325 G3 Y102.688 Z-3.5 J0.4
N1330 G1 Y103.088
N1335 G17 G3 X53.5 Y103.488 I-0.4
N1340 G1 X50
N1345 G2 X48 Y105.488 J2
N1350 G1 Y123.488
N1355 X44.7
N1360 G2 X42.7 Y125.488 J2
N1365 G1 Y134.556
N1370 G2 X44.7 Y136.556 I2
N1375 G1 X49.754
N1380 X57.73 Y166.321
N1385 G3 X52.42 Y183.212 I-15.938 J4.271
N1390 G1 X51.53 Y179.888
N1395 G2 X49.08 Y178.474 I-1.932 J0.518
N1400 G1 X39.421 Y181.062
N1405 G2 X38.007 Y183.512 I0.518 J1.932
N1410 G1 X38.897 Y186.836
N1415 G3 X25.854 Y174.862 I2.894 J-16.244
N1420 G1 X9.427 Y113.556
N1425 X12.5
N1430 G2 X14.5 Y111.556 J-2
N1435 G1 Y101.556
N1440 G2 X12.5 Y99.556 I-2
N1445 G1 X0
N1450 G2 X-1.932 Y102.074 J2
N1455 G1 X18.127 Y176.933
N1460 G2 X48.133 Y194.257 I23.665 J-6.341
N1465 X65.457 Y164.25 I-6.341 J-23.665
N1470 G1 X55.5 Y127.091
N1475 Y105.488
N1480 G2 X53.5 Y103.488 I-2
N1485 G3 X53.1 Y103.088 J-0.4 F150
N1490 G1 Y102.688
N1495 G19 G2 Y102.288 Z-3.1 K0.4
N1500 G0 Z5
N1505 X53.9
N1510 G1 Z-2 F300
N1515 Z-3.6
N1520 G3 Y102.688 Z-4 J0.4
N1525 G1 Y103.088
N1530 G17 G3 X53.5 Y103.488 I-0.4
N1535 G1 X50
N1540 G2 X48 Y105.488 J2
N1545 G1 Y123.488
N1550 X44.7
N1555 G2 X42.7 Y125.488 J2
N1560 G1 Y134.556
N1565 G2 X44.7 Y136.556 I2
N1570 G1 X49.754
N1575 X57.73 Y166.321
N1580 G3 X52.42 Y183.212 I-15.938 J4.271
N1585 G1 X51.53 Y179.888
N1590 G2 X49.08 Y178.474 I-1.932 J0.518
N1595 G1 X39.421 Y181.062
N1600 G2 X38.007 Y183.512 I0.518 J1.932
N1605 G1 X38.897 Y186.836
N1610 G3 X25.854 Y174.862 I2.894 J-16.244
N1615 G1 X9.427 Y113.556
N1620 X12.5
N1625 G2 X14.5 Y111.556 J-2
N1630 G1 Y101.556
N1635 G2 X12.5 Y99.556 I-2
N1640 G1 X0
N1645 G2 X-1.932 Y102.074 J2
N1650 G1 X18.127 Y176.933
N1655 G2 X48.133 Y194.257 I23.665 J-6.341
N1660 X65.457 Y164.25 I-6.341 J-23.665
N1665 G1 X55.5 Y127.091
N1670 Y105.488
N1675 G2 X53.5 Y103.488 I-2
N1680 G3 X53.1 Y103.088 J-0.4 F150
N1685 G1 Y102.688
N1690 G19 G2 Y102.288 Z-3.6 K0.4
N1695 G0 Z5
N1700 X53.9
N1705 G1 Z-2.5 F300
N1710 Z-4.1
N1715 G3 Y102.688 Z-4.5 J0.4
N1720 G1 Y103.088
N1725 G17 G3 X53.5 Y103.488 I-0.4
N1730 G1 X50
N1735 G2 X48 Y105.488 J2
N1740 G1 Y123.488
N1745 X44.7
N1750 G2 X42.7 Y125.488 J2
N1755 G1 Y134.556
N1760 G2 X44.7 Y136.556 I2
N1765 G1 X49.754
N1770 X57.73 Y166.321
N1775 G3 X52.42 Y183.212 I-15.938 J4.271
N1780 G1 X51.53 Y179.888
N1785 G2 X49.08 Y178.474 I-1.932 J0.518
N1790 G1 X39.421 Y181.062
N1795 G2 X38.007 Y183.512 I0.518 J1.932
N1800 G1 X38.897 Y186.836
N1805 G3 X25.854 Y174.862 I2.894 J-16.244
N1810 G1 X9.427 Y113.556
N1815 X12.5
N1820 G2 X14.5 Y111.556 J-2
N1825 G1 Y101.556
N1830 G2 X12.5 Y99.556 I-2
N1835 G1 X0
N1840 G2 X-1.932 Y102.074 J2
N1845 G1 X18.127 Y176.933
N1850 G2 X48.133 Y194.257 I23.665 J-6.341
N1855 X65.457 Y164.25 I-6.341 J-23.665
N1860 G1 X55.5 Y127.091
N1865 Y105.488
N1870 G2 X53.5 Y103.488 I-2
N1875 G3 X53.1 Y103.088 J-0.4 F150
N1880 G1 Y102.688
N1885 G19 G2 Y102.288 Z-4.1 K0.4
N1890 G0 Z5
N1895 X53.9
N1900 G1 Z-3 F300
N1905 Z-4.6
N1910 G3 Y102.688 Z-5 J0.4
N1915 G1 Y103.088
N1920 G17 G3 X53.5 Y103.488 I-0.4
N1925 G1 X50
N1930 G2 X48 Y105.488 J2
N1935 G1 Y123.488
N1940 X44.7
N1945 G2 X42.7 Y125.488 J2
N1950 G1 Y134.556
N1955 G2 X44.7 Y136.556 I2
N1960 G1 X49.754
N1965 X57.73 Y166.321
N1970 G3 X52.42 Y183.212 I-15.938 J4.271
N1975 G1 X51.53 Y179.888
N1980 G2 X49.08 Y178.474 I-1.932 J0.518
N1985 G1 X39.421 Y181.062
N1990 G2 X38.007 Y183.512 I0.518 J1.932
N1995 G1 X38.897 Y186.836
N2000 G3 X25.854 Y174.862 I2.894 J-16.244
N2005 G1 X9.427 Y113.556
N2010 X12.5
N2015 G2 X14.5 Y111.556 J-2
N2020 G1 Y101.556
N2025 G2 X12.5 Y99.556 I-2
N2030 G1 X0
N2035 G2 X-1.932 Y102.074 J2
N2040 G1 X18.127 Y176.933
N2045 G2 X48.133 Y194.257 I23.665 J-6.341
N2050 X65.457 Y164.25 I-6.341 J-23.665
N2055 G1 X55.5 Y127.091
N2060 Y105.488
N2065 G2 X53.5 Y103.488 I-2
N2070 G3 X53.1 Y103.088 J-0.4 F150
N2075 G1 Y102.688
N2080 G19 G2 Y102.288 Z-4.6 K0.4
N2085 G0 Z5
N2090 X53.9
N2095 G1 Z-3.5 F300
N2100 Z-5.1
N2105 G3 Y102.688 Z-5.5 J0.4
N2110 G1 Y103.088
N2115 G17 G3 X53.5 Y103.488 I-0.4
N2120 G1 X50
N2125 G2 X48 Y105.488 J2
N2130 G1 Y123.488
N2135 X44.7
N2140 G2 X42.7 Y125.488 J2
N2145 G1 Y134.556
N2150 G2 X44.7 Y136.556 I2
N2155 G1 X49.754
N2160 X57.73 Y166.321
N2165 G3 X52.42 Y183.212 I-15.938 J4.271
N2170 G1 X51.53 Y179.888
N2175 G2 X49.08 Y178.474 I-1.932 J0.518
N2180 G1 X39.421 Y181.062
N2185 G2 X38.007 Y183.512 I0.518 J1.932
N2190 G1 X38.897 Y186.836
N2195 G3 X25.854 Y174.862 I2.894 J-16.244
N2200 G1 X9.427 Y113.556
N2205 X12.5
N2210 G2 X14.5 Y111.556 J-2
N2215 G1 Y101.556
N2220 G2 X12.5 Y99.556 I-2
N2225 G1 X0
N2230 G2 X-1.932 Y102.074 J2
N2235 G1 X18.127 Y176.933
N2240 G2 X48.133 Y194.257 I23.665 J-6.341
N2245 X65.457 Y164.25 I-6.341 J-23.665
N2250 G1 X55.5 Y127.091
N2255 Y105.488
N2260 G2 X53.5 Y103.488 I-2
N2265 G3 X53.1 Y103.088 J-0.4 F150
N2270 G1 Y102.688
N2275 G19 G2 Y102.288 Z-5.1 K0.4
N2280 G0 Z5
N2285 X53.9
N2290 G1 Z-4 F300
N2295 Z-5.6
N2300 G3 Y102.688 Z-6 J0.4
N2305 G1 Y103.088
N2310 G17 G3 X53.5 Y103.488 I-0.4
N2315 G1 X50
N2320 G2 X48 Y105.488 J2
N2325 G1 Y123.488
N2330 X44.7
N2335 G2 X42.7 Y125.488 J2
N2340 G1 Y134.556
N2345 G2 X44.7 Y136.556 I2
N2350 G1 X49.754
N2355 X57.73 Y166.321
N2360 G3 X52.42 Y183.212 I-15.938 J4.271
N2365 G1 X51.53 Y179.888
N2370 G2 X49.08 Y178.474 I-1.932 J0.518
N2375 G1 X39.421 Y181.062
N2380 G2 X38.007 Y183.512 I0.518 J1.932
N2385 G1 X38.897 Y186.836
N2390 G3 X25.854 Y174.862 I2.894 J-16.244
N2395 G1 X9.427 Y113.556
N2400 X12.5
N2405 G2 X14.5 Y111.556 J-2
N2410 G1 Y101.556
N2415 G2 X12.5 Y99.556 I-2
N2420 G1 X0
N2425 G2 X-1.932 Y102.074 J2
N2430 G1 X18.127 Y176.933
N2435 G2 X48.133 Y194.257 I23.665 J-6.341
N2440 X65.457 Y164.25 I-6.341 J-23.665
N2445 G1 X55.5 Y127.091
N2450 Y105.488
N2455 G2 X53.5 Y103.488 I-2
N2460 G3 X53.1 Y103.088 J-0.4 F150
N2465 G1 Y102.688
N2470 G19 G2 Y102.288 Z-5.6 K0.4
N2475 G0 Z5
N2480 X53.9
N2485 G1 Z-4.5 F300
N2490 Z-6.1
N2495 G3 Y102.688 Z-6.5 J0.4
N2500 G1 Y103.088
N2505 G17 G3 X53.5 Y103.488 I-0.4
N2510 G1 X50
N2515 G2 X48 Y105.488 J2
N2520 G1 Y123.488
N2525 X44.7
N2530 G2 X42.7 Y125.488 J2
N2535 G1 Y134.556
N2540 G2 X44.7 Y136.556 I2
N2545 G1 X49.754
N2550 X57.73 Y166.321
N2555 G3 X52.42 Y183.212 I-15.938 J4.271
N2560 G1 X51.53 Y179.888
N2565 G2 X49.08 Y178.474 I-1.932 J0.518
N2570 G1 X39.421 Y181.062
N2575 G2 X38.007 Y183.512 I0.518 J1.932
N2580 G1 X38.897 Y186.836
N2585 G3 X25.854 Y174.862 I2.894 J-16.244
N2590 G1 X9.427 Y113.556
N2595 X12.5
N2600 G2 X14.5 Y111.556 J-2
N2605 G1 Y101.556
N2610 G2 X12.5 Y99.556 I-2
N2615 G1 X0
N2620 G2 X-1.932 Y102.074 J2
N2625 G1 X18.127 Y176.933
N2630 G2 X48.133 Y194.257 I23.665 J-6.341
N2635 X65.457 Y164.25 I-6.341 J-23.665
N2640 G1 X55.5 Y127.091
N2645 Y105.488
N2650 G2 X53.5 Y103.488 I-2
N2655 G3 X53.1 Y103.088 J-0.4 F150
N2660 G1 Y102.688
N2665 G19 G2 Y102.288 Z-6.1 K0.4
N2670 G0 Z5
N2675 X53.9
N2680 G1 Z-5 F300
N2685 Z-6.6
N2690 G3 Y102.688 Z-7 J0.4
N2695 G1 Y103.088
N2700 G17 G3 X53.5 Y103.488 I-0.4
N2705 G1 X50
N2710 G2 X48 Y105.488 J2
N2715 G1 Y123.488
N2720 X44.7
N2725 G2 X42.7 Y125.488 J2
N2730 G1 Y134.556
N2735 G2 X44.7 Y136.556 I2
N2740 G1 X49.754
N2745 X57.73 Y166.321
N2750 G3 X52.42 Y183.212 I-15.938 J4.271
N2755 G1 X51.53 Y179.888
N2760 G2 X49.08 Y178.474 I-1.932 J0.518
N2765 G1 X39.421 Y181.062
N2770 G2 X38.007 Y183.512 I0.518 J1.932
N2775 G1 X38.897 Y186.836
N2780 G3 X25.854 Y174.862 I2.894 J-16.244
N2785 G1 X9.427 Y113.556
N2790 X12.5
N2795 G2 X14.5 Y111.556 J-2
N2800 G1 Y101.556
N2805 G2 X12.5 Y99.556 I-2
N2810 G1 X0
N2815 G2 X-1.932 Y102.074 J2
N2820 G1 X18.127 Y176.933
N2825 G2 X48.133 Y194.257 I23.665 J-6.341
N2830 X65.457 Y164.25 I-6.341 J-23.665
N2835 G1 X55.5 Y127.091
N2840 Y105.488
N2845 G2 X53.5 Y103.488 I-2
N2850 G3 X53.1 Y103.088 J-0.4 F150
N2855 G1 Y102.688
N2860 G19 G2 Y102.288 Z-6.6 K0.4
N2865 G0 Z5
N2870 X53.9
N2875 G1 Z-5.5 F300
N2880 Z-7.1
N2885 G3 Y102.688 Z-7.5 J0.4
N2890 G1 Y103.088
N2895 G17 G3 X53.5 Y103.488 I-0.4
N2900 G1 X50
N2905 G2 X48 Y105.488 J2
N2910 G1 Y123.488
N2915 X44.7
N2920 G2 X42.7 Y125.488 J2
N2925 G1 Y134.556
N2930 G2 X44.7 Y136.556 I2
N2935 G1 X49.754
N2940 X57.73 Y166.321
N2945 G3 X52.42 Y183.212 I-15.938 J4.271
N2950 G1 X51.53 Y179.888
N2955 G2 X49.08 Y178.474 I-1.932 J0.518
N2960 G1 X39.421 Y181.062
N2965 G2 X38.007 Y183.512 I0.518 J1.932
N2970 G1 X38.897 Y186.836
N2975 G3 X25.854 Y174.862 I2.894 J-16.244
N2980 G1 X9.427 Y113.556
N2985 X12.5
N2990 G2 X14.5 Y111.556 J-2
N2995 G1 Y101.556
N3000 G2 X12.5 Y99.556 I-2
N3005 G1 X0
N3010 G2 X-1.932 Y102.074 J2
N3015 G1 X18.127 Y176.933
N3020 G2 X48.133 Y194.257 I23.665 J-6.341
N3025 X65.457 Y164.25 I-6.341 J-23.665
N3030 G1 X55.5 Y127.091
N3035 Y105.488
N3040 G2 X53.5 Y103.488 I-2
N3045 G3 X53.1 Y103.088 J-0.4 F150
N3050 G1 Y102.688
N3055 G19 G2 Y102.288 Z-7.1 K0.4
N3060 G0 Z5
N3065 X53.9
N3070 G1 Z-6 F300
N3075 Z-7.6
N3080 G3 Y102.688 Z-8 J0.4
N3085 G1 Y103.088
N3090 G17 G3 X53.5 Y103.488 I-0.4
N3095 G1 X50
N3100 G2 X48 Y105.488 J2
N3105 G1 Y123.488
N3110 X44.7
N3115 G2 X42.7 Y125.488 J2
N3120 G1 Y134.556
N3125 G2 X44.7 Y136.556 I2
N3130 G1 X49.754
N3135 X57.73 Y166.321
N3140 G3 X52.42 Y183.212 I-15.938 J4.271
N3145 G1 X51.53 Y179.888
N3150 G2 X49.08 Y178.474 I-1.932 J0.518
N3155 G1 X39.421 Y181.062
N3160 G2 X38.007 Y183.512 I0.518 J1.932
N3165 G1 X38.897 Y186.836
N3170 G3 X25.854 Y174.862 I2.894 J-16.244
N3175 G1 X9.427 Y113.556
N3180 X12.5
N3185 G2 X14.5 Y111.556 J-2
N3190 G1 Y101.556
N3195 G2 X12.5 Y99.556 I-2
N3200 G1 X0
N3205 G2 X-1.932 Y102.074 J2
N3210 G1 X18.127 Y176.933
N3215 G2 X48.133 Y194.257 I23.665 J-6.341
N3220 X65.457 Y164.25 I-6.341 J-23.665
N3225 G1 X55.5 Y127.091
N3230 Y105.488
N3235 G2 X53.5 Y103.488 I-2
N3240 G3 X53.1 Y103.088 J-0.4 F150
N3245 G1 Y102.688
N3250 G19 G2 Y102.288 Z-7.6 K0.4
N3255 G0 Z5
N3260 X53.9
N3265 G1 Z-6.5 F300
N3270 Z-8.1
N3275 G3 Y102.688 Z-8.5 J0.4
N3280 G1 Y103.088
N3285 G17 G3 X53.5 Y103.488 I-0.4
N3290 G1 X50
N3295 G2 X48 Y105.488 J2
N3300 G1 Y123.488
N3305 X44.7
N3310 G2 X42.7 Y125.488 J2
N3315 G1 Y134.556
N3320 G2 X44.7 Y136.556 I2
N3325 G1 X49.754
N3330 X57.73 Y166.321
N3335 G3 X52.42 Y183.212 I-15.938 J4.271
N3340 G1 X51.53 Y179.888
N3345 G2 X49.08 Y178.474 I-1.932 J0.518
N3350 G1 X39.421 Y181.062
N3355 G2 X38.007 Y183.512 I0.518 J1.932
N3360 G1 X38.897 Y186.836
N3365 G3 X25.854 Y174.862 I2.894 J-16.244
N3370 G1 X9.427 Y113.556
N3375 X12.5
N3380 G2 X14.5 Y111.556 J-2
N3385 G1 Y101.556
N3390 G2 X12.5 Y99.556 I-2
N3395 G1 X0
N3400 G2 X-1.932 Y102.074 J2
N3405 G1 X18.127 Y176.933
N3410 G2 X48.133 Y194.257 I23.665 J-6.341
N3415 X65.457 Y164.25 I-6.341 J-23.665
N3420 G1 X55.5 Y127.091
N3425 Y105.488
N3430 G2 X53.5 Y103.488 I-2
N3435 G3 X53.1 Y103.088 J-0.4 F150
N3440 G1 Y102.688
N3445 G19 G2 Y102.288 Z-8.1 K0.4
N3450 G0 Z5
N3455 X53.9
N3460 G1 Z-7 F300
N3465 Z-8.4
N3470 G3 Y102.688 Z-8.8 J0.4
N3475 G1 Y103.088
N3480 G17 G3 X53.5 Y103.488 I-0.4
N3485 G1 X50
N3490 G2 X48 Y105.488 J2
N3495 G1 Y123.488
N3500 X44.7
N3505 G2 X42.7 Y125.488 J2
N3510 G1 Y134.556
N3515 G2 X44.7 Y136.556 I2
N3520 G1 X49.754
N3525 X57.73 Y166.321
N3530 G3 X52.42 Y183.212 I-15.938 J4.271
N3535 G1 X51.53 Y179.888
N3540 G2 X49.08 Y178.474 I-1.932 J0.518
N3545 G1 X39.421 Y181.062
N3550 G2 X38.007 Y183.512 I0.518 J1.932
N3555 G1 X38.897 Y186.836
N3560 G3 X25.854 Y174.862 I2.894 J-16.244
N3565 G1 X9.427 Y113.556
N3570 X12.5
N3575 G2 X14.5 Y111.556 J-2
N3580 G1 Y101.556
N3585 G2 X12.5 Y99.556 I-2
N3590 G1 X0
N3595 G2 X-1.932 Y102.074 J2
N3600 G1 X18.127 Y176.933
N3605 G2 X48.133 Y194.257 I23.665 J-6.341
N3610 X65.457 Y164.25 I-6.341 J-23.665
N3615 G1 X55.5 Y127.091
N3620 Y105.488
N3625 G2 X53.5 Y103.488 I-2
N3630 G3 X53.1 Y103.088 J-0.4 F150
N3635 G1 Y102.688
N3640 G19 G2 Y102.288 Z-8.4 K0.4
N3645 G0 Z5
N3650 X53.9
N3655 G1 Z-7.3 F300
N3660 Z-8.7
N3665 G3 Y102.688 Z-9.1 J0.4
N3670 G1 Y103.088
N3675 G17 G3 X53.5 Y103.488 I-0.4
N3680 G1 X50
N3685 G2 X48 Y105.488 J2
N3690 G1 Y123.488
N3695 X44.7
N3700 G2 X42.7 Y125.488 J2
N3705 G1 Y134.556
N3710 G2 X44.7 Y136.556 I2
N3715 G1 X49.754
N3720 X57.73 Y166.321
N3725 G3 X52.42 Y183.212 I-15.938 J4.271
N3730 G1 X51.53 Y179.888
N3735 G2 X49.08 Y178.474 I-1.932 J0.518
N3740 G1 X39.421 Y181.062
N3745 G2 X38.007 Y183.512 I0.518 J1.932
N3750 G1 X38.897 Y186.836
N3755 G3 X25.854 Y174.862 I2.894 J-16.244
N3760 G1 X9.427 Y113.556
N3765 X12.5
N3770 G2 X14.5 Y111.556 J-2
N3775 G1 Y101.556
N3780 G2 X12.5 Y99.556 I-2
N3785 G1 X0
N3790 G2 X-1.932 Y102.074 J2
N3795 G1 X18.127 Y176.933
N3800 G2 X48.133 Y194.257 I23.665 J-6.341
N3805 X65.457 Y164.25 I-6.341 J-23.665
N3810 G1 X55.5 Y127.091
N3815 Y105.488
N3820 G2 X53.5 Y103.488 I-2
N3825 G3 X53.1 Y103.088 J-0.4 F150
N3830 G1 Y102.688
N3835 G19 G2 Y102.288 Z-8.7 K0.4
N3840 G0 Z5
N3845 X49.6 Y90.804
N3850 G1 Z1.5 F300
N3855 Z-0.1
N3860 G2 Y90.404 Z-0.5 J-0.4
N3865 G1 Y90.004
N3870 G17 G3 X50 Y89.604 I0.4
N3875 G1 X53.5
N3880 G2 X55.5 Y87.604 J-2
N3885 G1 Y66.001
N3890 X65.457 Y28.841
N3895 G2 X18.127 Y16.159 I-23.665 J-6.341
N3900 G1 X-1.932 Y91.018
N3905 G2 X0 Y93.536 I1.932 J0.518
N3910 G1 X12.5
N3915 G2 X14.5 Y91.536 J-2
N3920 G1 Y81.536
N3925 G2 X12.5 Y79.536 I-2
N3930 G1 X9.427
N3935 X25.854 Y18.229
N3940 G3 X38.897 Y6.256 I15.938 J4.271
N3945 G1 X38.007 Y9.58
N3950 G2 X39.421 Y12.03 I1.932 J0.518
N3955 G1 X49.08 Y14.618
N3960 G2 X51.53 Y13.204 I0.518 J-1.932
N3965 G1 X52.42 Y9.879
N3970 G3 X57.73 Y26.771 I-10.629 J12.621
N3975 G1 X49.754 Y56.536
N3980 X44.7
N3985 G2 X42.7 Y58.536 J2
N3990 G1 Y67.604
N3995 G2 X44.7 Y69.604 I2
N4000 G1 X48
N4005 Y87.604
N4010 G2 X50 Y89.604 I2
N4015 G3 X50.4 Y90.004 J0.4 F150
N4020 G1 Y90.404
N4025 G19 G3 Y90.804 Z-0.1 K0.4
N4030 G0 Z5
N4035 X49.6
N4040 G1 Z1 F300
N4045 Z-0.6
N4050 G2 Y90.404 Z-1 J-0.4
N4055 G1 Y90.004
N4060 G17 G3 X50 Y89.604 I0.4
N4065 G1 X53.5
N4070 G2 X55.5 Y87.604 J-2
N4075 G1 Y66.001
N4080 X65.457 Y28.841
N4085 G2 X18.127 Y16.159 I-23.665 J-6.341
N4090 G1 X-1.932 Y91.018
N4095 G2 X0 Y93.536 I1.932 J0.518
N4100 G1 X12.5
N4105 G2 X14.5 Y91.536 J-2
N4110 G1 Y81.536
N4115 G2 X12.5 Y79.536 I-2
N4120 G1 X9.427
N4125 X25.854 Y18.229
N4130 G3 X38.897 Y6.256 I15.938 J4.271
N4135 G1 X38.007 Y9.58
N4140 G2 X39.421 Y12.03 I1.932 J0.518
N4145 G1 X49.08 Y14.618
N4150 G2 X51.53 Y13.204 I0.518 J-1.932
N4155 G1 X52.42 Y9.879
N4160 G3 X57.73 Y26.771 I-10.629 J12.621
N4165 G1 X49.754 Y56.536
N4170 X44.7
N4175 G2 X42.7 Y58.536 J2
N4180 G1 Y67.604
N4185 G2 X44.7 Y69.604 I2
N4190 G1 X48
N4195 Y87.604
N4200 G2 X50 Y89.604 I2
N4205 G3 X50.4 Y90.004 J0.4 F150
N4210 G1 Y90.404
N4215 G19 G3 Y90.804 Z-0.6 K0.4
N4220 G0 Z5
N4225 X49.6
N4230 G1 Z0.5 F300
N4235 Z-1.1
N4240 G2 Y90.404 Z-1.5 J-0.4
N4245 G1 Y90.004
N4250 G17 G3 X50 Y89.604 I0.4
N4255 G1 X53.5
N4260 G2 X55.5 Y87.604 J-2
N4265 G1 Y66.001
N4270 X65.457 Y28.841
N4275 G2 X18.127 Y16.159 I-23.665 J-6.341
N4280 G1 X-1.932 Y91.018
N4285 G2 X0 Y93.536 I1.932 J0.518
N4290 G1 X12.5
N4295 G2 X14.5 Y91.536 J-2
N4300 G1 Y81.536
N4305 G2 X12.5 Y79.536 I-2
N4310 G1 X9.427
N4315 X25.854 Y18.229
N4320 G3 X38.897 Y6.256 I15.938 J4.271
N4325 G1 X38.007 Y9.58
N4330 G2 X39.421 Y12.03 I1.932 J0.518
N4335 G1 X49.08 Y14.618
N4340 G2 X51.53 Y13.204 I0.518 J-1.932
N4345 G1 X52.42 Y9.879
N4350 G3 X57.73 Y26.771 I-10.629 J12.621
N4355 G1 X49.754 Y56.536
N4360 X44.7
N4365 G2 X42.7 Y58.536 J2
N4370 G1 Y67.604
N4375 G2 X44.7 Y69.604 I2
N4380 G1 X48
N4385 Y87.604
N4390 G2 X50 Y89.604 I2
N4395 G3 X50.4 Y90.004 J0.4 F150
N4400 G1 Y90.404
N4405 G19 G3 Y90.804 Z-1.1 K0.4
N4410 G0 Z5
N4415 X49.6
N4420 G1 Z0 F300
N4425 Z-1.6
N4430 G2 Y90.404 Z-2 J-0.4
N4435 G1 Y90.004
N4440 G17 G3 X50 Y89.604 I0.4
N4445 G1 X53.5
N4450 G2 X55.5 Y87.604 J-2
N4455 G1 Y66.001
N4460 X65.457 Y28.841
N4465 G2 X18.127 Y16.159 I-23.665 J-6.341
N4470 G1 X-1.932 Y91.018
N4475 G2 X0 Y93.536 I1.932 J0.518
N4480 G1 X12.5
N4485 G2 X14.5 Y91.536 J-2
N4490 G1 Y81.536
N4495 G2 X12.5 Y79.536 I-2
N4500 G1 X9.427
N4505 X25.854 Y18.229
N4510 G3 X38.897 Y6.256 I15.938 J4.271
N4515 G1 X38.007 Y9.58
N4520 G2 X39.421 Y12.03 I1.932 J0.518
N4525 G1 X49.08 Y14.618
N4530 G2 X51.53 Y13.204 I0.518 J-1.932
N4535 G1 X52.42 Y9.879
N4540 G3 X57.73 Y26.771 I-10.629 J12.621
N4545 G1 X49.754 Y56.536
N4550 X44.7
N4555 G2 X42.7 Y58.536 J2
N4560 G1 Y67.604
N4565 G2 X44.7 Y69.604 I2
N4570 G1 X48
N4575 Y87.604
N4580 G2 X50 Y89.604 I2
N4585 G3 X50.4 Y90.004 J0.4 F150
N4590 G1 Y90.404
N4595 G19 G3 Y90.804 Z-1.6 K0.4
N4600 G0 Z5
N4605 X49.6
N4610 G1 Z-0.5 F300
N4615 Z-2.1
N4620 G2 Y90.404 Z-2.5 J-0.4
N4625 G1 Y90.004
N4630 G17 G3 X50 Y89.604 I0.4
N4635 G1 X53.5
N4640 G2 X55.5 Y87.604 J-2
N4645 G1 Y66.001
N4650 X65.457 Y28.841
N4655 G2 X18.127 Y16.159 I-23.665 J-6.341
N4660 G1 X-1.932 Y91.018
N4665 G2 X0 Y93.536 I1.932 J0.518
N4670 G1 X12.5
N4675 G2 X14.5 Y91.536 J-2
N4680 G1 Y81.536
N4685 G2 X12.5 Y79.536 I-2
N4690 G1 X9.427
N4695 X25.854 Y18.229
N4700 G3 X38.897 Y6.256 I15.938 J4.271
N4705 G1 X38.007 Y9.58
N4710 G2 X39.421 Y12.03 I1.932 J0.518
N4715 G1 X49.08 Y14.618
N4720 G2 X51.53 Y13.204 I0.518 J-1.932
N4725 G1 X52.42 Y9.879
N4730 G3 X57.73 Y26.771 I-10.629 J12.621
N4735 G1 X49.754 Y56.536
N4740 X44.7
N4745 G2 X42.7 Y58.536 J2
N4750 G1 Y67.604
N4755 G2 X44.7 Y69.604 I2
N4760 G1 X48
N4765 Y87.604
N4770 G2 X50 Y89.604 I2
N4775 G3 X50.4 Y90.004 J0.4 F150
N4780 G1 Y90.404
N4785 G19 G3 Y90.804 Z-2.1 K0.4
N4790 G0 Z5
N4795 X49.6
N4800 G1 Z-1 F300
N4805 Z-2.6
N4810 G2 Y90.404 Z-3 J-0.4
N4815 G1 Y90.004
N4820 G17 G3 X50 Y89.604 I0.4
N4825 G1 X53.5
N4830 G2 X55.5 Y87.604 J-2
N4835 G1 Y66.001
N4840 X65.457 Y28.841
N4845 G2 X18.127 Y16.159 I-23.665 J-6.341
N4850 G1 X-1.932 Y91.018
N4855 G2 X0 Y93.536 I1.932 J0.518
N4860 G1 X12.5
N4865 G2 X14.5 Y91.536 J-2
N4870 G1 Y81.536
N4875 G2 X12.5 Y79.536 I-2
N4880 G1 X9.427
N4885 X25.854 Y18.229
N4890 G3 X38.897 Y6.256 I15.938 J4.271
N4895 G1 X38.007 Y9.58
N4900 G2 X39.421 Y12.03 I1.932 J0.518
N4905 G1 X49.08 Y14.618
N4910 G2 X51.53 Y13.204 I0.518 J-1.932
N4915 G1 X52.42 Y9.879
N4920 G3 X57.73 Y26.771 I-10.629 J12.621
N4925 G1 X49.754 Y56.536
N4930 X44.7
N4935 G2 X42.7 Y58.536 J2
N4940 G1 Y67.604
N4945 G2 X44.7 Y69.604 I2
N4950 G1 X48
N4955 Y87.604
N4960 G2 X50 Y89.604 I2
N4965 G3 X50.4 Y90.004 J0.4 F150
N4970 G1 Y90.404
N4975 G19 G3 Y90.804 Z-2.6 K0.4
N4980 G0 Z5
N4985 X49.6
N4990 G1 Z-1.5 F300
N4995 Z-3.1
N5000 G2 Y90.404 Z-3.5 J-0.4
N5005 G1 Y90.004
N5010 G17 G3 X50 Y89.604 I0.4
N5015 G1 X53.5
N5020 G2 X55.5 Y87.604 J-2
N5025 G1 Y66.001
N5030 X65.457 Y28.841
N5035 G2 X18.127 Y16.159 I-23.665 J-6.341
N5040 G1 X-1.932 Y91.018
N5045 G2 X0 Y93.536 I1.932 J0.518
N5050 G1 X12.5
N5055 G2 X14.5 Y91.536 J-2
N5060 G1 Y81.536
N5065 G2 X12.5 Y79.536 I-2
N5070 G1 X9.427
N5075 X25.854 Y18.229
N5080 G3 X38.897 Y6.256 I15.938 J4.271
N5085 G1 X38.007 Y9.58
N5090 G2 X39.421 Y12.03 I1.932 J0.518
N5095 G1 X49.08 Y14.618
N5100 G2 X51.53 Y13.204 I0.518 J-1.932
N5105 G1 X52.42 Y9.879
N5110 G3 X57.73 Y26.771 I-10.629 J12.621
N5115 G1 X49.754 Y56.536
N5120 X44.7
N5125 G2 X42.7 Y58.536 J2
N5130 G1 Y67.604
N5135 G2 X44.7 Y69.604 I2
N5140 G1 X48
N5145 Y87.604
N5150 G2 X50 Y89.604 I2
N5155 G3 X50.4 Y90.004 J0.4 F150
N5160 G1 Y90.404
N5165 G19 G3 Y90.804 Z-3.1 K0.4
N5170 G0 Z5
N5175 X49.6
N5180 G1 Z-2 F300
N5185 Z-3.6
N5190 G2 Y90.404 Z-4 J-0.4
N5195 G1 Y90.004
N5200 G17 G3 X50 Y89.604 I0.4
N5205 G1 X53.5
N5210 G2 X55.5 Y87.604 J-2
N5215 G1 Y66.001
N5220 X65.457 Y28.841
N5225 G2 X18.127 Y16.159 I-23.665 J-6.341
N5230 G1 X-1.932 Y91.018
N5235 G2 X0 Y93.536 I1.932 J0.518
N5240 G1 X12.5
N5245 G2 X14.5 Y91.536 J-2
N5250 G1 Y81.536
N5255 G2 X12.5 Y79.536 I-2
N5260 G1 X9.427
N5265 X25.854 Y18.229
N5270 G3 X38.897 Y6.256 I15.938 J4.271
N5275 G1 X38.007 Y9.58
N5280 G2 X39.421 Y12.03 I1.932 J0.518
N5285 G1 X49.08 Y14.618
N5290 G2 X51.53 Y13.204 I0.518 J-1.932
N5295 G1 X52.42 Y9.879
N5300 G3 X57.73 Y26.771 I-10.629 J12.621
N5305 G1 X49.754 Y56.536
N5310 X44.7
N5315 G2 X42.7 Y58.536 J2
N5320 G1 Y67.604
N5325 G2 X44.7 Y69.604 I2
N5330 G1 X48
N5335 Y87.604
N5340 G2 X50 Y89.604 I2
N5345 G3 X50.4 Y90.004 J0.4 F150
N5350 G1 Y90.404
N5355 G19 G3 Y90.804 Z-3.6 K0.4
N5360 G0 Z5
N5365 X49.6
N5370 G1 Z-2.5 F300
N5375 Z-4.1
N5380 G2 Y90.404 Z-4.5 J-0.4
N5385 G1 Y90.004
N5390 G17 G3 X50 Y89.604 I0.4
N5395 G1 X53.5
N5400 G2 X55.5 Y87.604 J-2
N5405 G1 Y66.001
N5410 X65.457 Y28.841
N5415 G2 X18.127 Y16.159 I-23.665 J-6.341
N5420 G1 X-1.932 Y91.018
N5425 G2 X0 Y93.536 I1.932 J0.518
N5430 G1 X12.5
N5435 G2 X14.5 Y91.536 J-2
N5440 G1 Y81.536
N5445 G2 X12.5 Y79.536 I-2
N5450 G1 X9.427
N5455 X25.854 Y18.229
N5460 G3 X38.897 Y6.256 I15.938 J4.271
N5465 G1 X38.007 Y9.58
N5470 G2 X39.421 Y12.03 I1.932 J0.518
N5475 G1 X49.08 Y14.618
N5480 G2 X51.53 Y13.204 I0.518 J-1.932
N5485 G1 X52.42 Y9.879
N5490 G3 X57.73 Y26.771 I-10.629 J12.621
N5495 G1 X49.754 Y56.536
N5500 X44.7
N5505 G2 X42.7 Y58.536 J2
N5510 G1 Y67.604
N5515 G2 X44.7 Y69.604 I2
N5520 G1 X48
N5525 Y87.604
N5530 G2 X50 Y89.604 I2
N5535 G3 X50.4 Y90.004 J0.4 F150
N5540 G1 Y90.404
N5545 G19 G3 Y90.804 Z-4.1 K0.4
N5550 G0 Z5
N5555 X49.6
N5560 G1 Z-3 F300
N5565 Z-4.6
N5570 G2 Y90.404 Z-5 J-0.4
N5575 G1 Y90.004
N5580 G17 G3 X50 Y89.604 I0.4
N5585 G1 X53.5
N5590 G2 X55.5 Y87.604 J-2
N5595 G1 Y66.001
N5600 X65.457 Y28.841
N5605 G2 X18.127 Y16.159 I-23.665 J-6.341
N5610 G1 X-1.932 Y91.018
N5615 G2 X0 Y93.536 I1.932 J0.518
N5620 G1 X12.5
N5625 G2 X14.5 Y91.536 J-2
N5630 G1 Y81.536
N5635 G2 X12.5 Y79.536 I-2
N5640 G1 X9.427
N5645 X25.854 Y18.229
N5650 G3 X38.897 Y6.256 I15.938 J4.271
N5655 G1 X38.007 Y9.58
N5660 G2 X39.421 Y12.03 I1.932 J0.518
N5665 G1 X49.08 Y14.618
N5670 G2 X51.53 Y13.204 I0.518 J-1.932
N5675 G1 X52.42 Y9.879
N5680 G3 X57.73 Y26.771 I-10.629 J12.621
N5685 G1 X49.754 Y56.536
N5690 X44.7
N5695 G2 X42.7 Y58.536 J2
N5700 G1 Y67.604
N5705 G2 X44.7 Y69.604 I2
N5710 G1 X48
N5715 Y87.604
N5720 G2 X50 Y89.604 I2
N5725 G3 X50.4 Y90.004 J0.4 F150
N5730 G1 Y90.404
N5735 G19 G3 Y90.804 Z-4.6 K0.4
N5740 G0 Z5
N5745 X49.6
N5750 G1 Z-3.5 F300
N5755 Z-5.1
N5760 G2 Y90.404 Z-5.5 J-0.4
N5765 G1 Y90.004
N5770 G17 G3 X50 Y89.604 I0.4
N5775 G1 X53.5
N5780 G2 X55.5 Y87.604 J-2
N5785 G1 Y66.001
N5790 X65.457 Y28.841
N5795 G2 X18.127 Y16.159 I-23.665 J-6.341
N5800 G1 X-1.932 Y91.018
N5805 G2 X0 Y93.536 I1.932 J0.518
N5810 G1 X12.5
N5815 G2 X14.5 Y91.536 J-2
N5820 G1 Y81.536
N5825 G2 X12.5 Y79.536 I-2
N5830 G1 X9.427
N5835 X25.854 Y18.229
N5840 G3 X38.897 Y6.256 I15.938 J4.271
N5845 G1 X38.007 Y9.58
N5850 G2 X39.421 Y12.03 I1.932 J0.518
N5855 G1 X49.08 Y14.618
N5860 G2 X51.53 Y13.204 I0.518 J-1.932
N5865 G1 X52.42 Y9.879
N5870 G3 X57.73 Y26.771 I-10.629 J12.621
N5875 G1 X49.754 Y56.536
N5880 X44.7
N5885 G2 X42.7 Y58.536 J2
N5890 G1 Y67.604
N5895 G2 X44.7 Y69.604 I2
N5900 G1 X48
N5905 Y87.604
N5910 G2 X50 Y89.604 I2
N5915 G3 X50.4 Y90.004 J0.4 F150
N5920 G1 Y90.404
N5925 G19 G3 Y90.804 Z-5.1 K0.4
N5930 G0 Z5
N5935 X49.6
N5940 G1 Z-4 F300
N5945 Z-5.6
N5950 G2 Y90.404 Z-6 J-0.4
N5955 G1 Y90.004
N5960 G17 G3 X50 Y89.604 I0.4
N5965 G1 X53.5
N5970 G2 X55.5 Y87.604 J-2
N5975 G1 Y66.001
N5980 X65.457 Y28.841
N5985 G2 X18.127 Y16.159 I-23.665 J-6.341
N5990 G1 X-1.932 Y91.018
N5995 G2 X0 Y93.536 I1.932 J0.518
N6000 G1 X12.5
N6005 G2 X14.5 Y91.536 J-2
N6010 G1 Y81.536
N6015 G2 X12.5 Y79.536 I-2
N6020 G1 X9.427
N6025 X25.854 Y18.229
N6030 G3 X38.897 Y6.256 I15.938 J4.271
N6035 G1 X38.007 Y9.58
N6040 G2 X39.421 Y12.03 I1.932 J0.518
N6045 G1 X49.08 Y14.618
N6050 G2 X51.53 Y13.204 I0.518 J-1.932
N6055 G1 X52.42 Y9.879
N6060 G3 X57.73 Y26.771 I-10.629 J12.621
N6065 G1 X49.754 Y56.536
N6070 X44.7
N6075 G2 X42.7 Y58.536 J2
N6080 G1 Y67.604
N6085 G2 X44.7 Y69.604 I2
N6090 G1 X48
N6095 Y87.604
N6100 G2 X50 Y89.604 I2
N6105 G3 X50.4 Y90.004 J0.4 F150
N6110 G1 Y90.404
N6115 G19 G3 Y90.804 Z-5.6 K0.4
N6120 G0 Z5
N6125 X49.6
N6130 G1 Z-4.5 F300
N6135 Z-6.1
N6140 G2 Y90.404 Z-6.5 J-0.4
N6145 G1 Y90.004
N6150 G17 G3 X50 Y89.604 I0.4
N6155 G1 X53.5
N6160 G2 X55.5 Y87.604 J-2
N6165 G1 Y66.001
N6170 X65.457 Y28.841
N6175 G2 X18.127 Y16.159 I-23.665 J-6.341
N6180 G1 X-1.932 Y91.018
N6185 G2 X0 Y93.536 I1.932 J0.518
N6190 G1 X12.5
N6195 G2 X14.5 Y91.536 J-2
N6200 G1 Y81.536
N6205 G2 X12.5 Y79.536 I-2
N6210 G1 X9.427
N6215 X25.854 Y18.229
N6220 G3 X38.897 Y6.256 I15.938 J4.271
N6225 G1 X38.007 Y9.58
N6230 G2 X39.421 Y12.03 I1.932 J0.518
N6235 G1 X49.08 Y14.618
N6240 G2 X51.53 Y13.204 I0.518 J-1.932
N6245 G1 X52.42 Y9.879
N6250 G3 X57.73 Y26.771 I-10.629 J12.621
N6255 G1 X49.754 Y56.536
N6260 X44.7
N6265 G2 X42.7 Y58.536 J2
N6270 G1 Y67.604
N6275 G2 X44.7 Y69.604 I2
N6280 G1 X48
N6285 Y87.604
N6290 G2 X50 Y89.604 I2
N6295 G3 X50.4 Y90.004 J0.4 F150
N6300 G1 Y90.404
N6305 G19 G3 Y90.804 Z-6.1 K0.4
N6310 G0 Z5
N6315 X49.6
N6320 G1 Z-5 F300
N6325 Z-6.6
N6330 G2 Y90.404 Z-7 J-0.4
N6335 G1 Y90.004
N6340 G17 G3 X50 Y89.604 I0.4
N6345 G1 X53.5
N6350 G2 X55.5 Y87.604 J-2
N6355 G1 Y66.001
N6360 X65.457 Y28.841
N6365 G2 X18.127 Y16.159 I-23.665 J-6.341
N6370 G1 X-1.932 Y91.018
N6375 G2 X0 Y93.536 I1.932 J0.518
N6380 G1 X12.5
N6385 G2 X14.5 Y91.536 J-2
N6390 G1 Y81.536
N6395 G2 X12.5 Y79.536 I-2
N6400 G1 X9.427
N6405 X25.854 Y18.229
N6410 G3 X38.897 Y6.256 I15.938 J4.271
N6415 G1 X38.007 Y9.58
N6420 G2 X39.421 Y12.03 I1.932 J0.518
N6425 G1 X49.08 Y14.618
N6430 G2 X51.53 Y13.204 I0.518 J-1.932
N6435 G1 X52.42 Y9.879
N6440 G3 X57.73 Y26.771 I-10.629 J12.621
N6445 G1 X49.754 Y56.536
N6450 X44.7
N6455 G2 X42.7 Y58.536 J2
N6460 G1 Y67.604
N6465 G2 X44.7 Y69.604 I2
N6470 G1 X48
N6475 Y87.604
N6480 G2 X50 Y89.604 I2
N6485 G3 X50.4 Y90.004 J0.4 F150
N6490 G1 Y90.404
N6495 G19 G3 Y90.804 Z-6.6 K0.4
N6500 G0 Z5
N6505 X49.6
N6510 G1 Z-5.5 F300
N6515 Z-7.1
N6520 G2 Y90.404 Z-7.5 J-0.4
N6525 G1 Y90.004
N6530 G17 G3 X50 Y89.604 I0.4
N6535 G1 X53.5
N6540 G2 X55.5 Y87.604 J-2
N6545 G1 Y66.001
N6550 X65.457 Y28.841
N6555 G2 X18.127 Y16.159 I-23.665 J-6.341
N6560 G1 X-1.932 Y91.018
N6565 G2 X0 Y93.536 I1.932 J0.518
N6570 G1 X12.5
N6575 G2 X14.5 Y91.536 J-2
N6580 G1 Y81.536
N6585 G2 X12.5 Y79.536 I-2
N6590 G1 X9.427
N6595 X25.854 Y18.229
N6600 G3 X38.897 Y6.256 I15.938 J4.271
N6605 G1 X38.007 Y9.58
N6610 G2 X39.421 Y12.03 I1.932 J0.518
N6615 G1 X49.08 Y14.618
N6620 G2 X51.53 Y13.204 I0.518 J-1.932
N6625 G1 X52.42 Y9.879
N6630 G3 X57.73 Y26.771 I-10.629 J12.621
N6635 G1 X49.754 Y56.536
N6640 X44.7
N6645 G2 X42.7 Y58.536 J2
N6650 G1 Y67.604
N6655 G2 X44.7 Y69.604 I2
N6660 G1 X48
N6665 Y87.604
N6670 G2 X50 Y89.604 I2
N6675 G3 X50.4 Y90.004 J0.4 F150
N6680 G1 Y90.404
N6685 G19 G3 Y90.804 Z-7.1 K0.4
N6690 G0 Z5
N6695 X49.6
N6700 G1 Z-6 F300
N6705 Z-7.6
N6710 G2 Y90.404 Z-8 J-0.4
N6715 G1 Y90.004
N6720 G17 G3 X50 Y89.604 I0.4
N6725 G1 X53.5
N6730 G2 X55.5 Y87.604 J-2
N6735 G1 Y66.001
N6740 X65.457 Y28.841
N6745 G2 X18.127 Y16.159 I-23.665 J-6.341
N6750 G1 X-1.932 Y91.018
N6755 G2 X0 Y93.536 I1.932 J0.518
N6760 G1 X12.5
N6765 G2 X14.5 Y91.536 J-2
N6770 G1 Y81.536
N6775 G2 X12.5 Y79.536 I-2
N6780 G1 X9.427
N6785 X25.854 Y18.229
N6790 G3 X38.897 Y6.256 I15.938 J4.271
N6795 G1 X38.007 Y9.58
N6800 G2 X39.421 Y12.03 I1.932 J0.518
N6805 G1 X49.08 Y14.618
N6810 G2 X51.53 Y13.204 I0.518 J-1.932
N6815 G1 X52.42 Y9.879
N6820 G3 X57.73 Y26.771 I-10.629 J12.621
N6825 G1 X49.754 Y56.536
N6830 X44.7
N6835 G2 X42.7 Y58.536 J2
N6840 G1 Y67.604
N6845 G2 X44.7 Y69.604 I2
N6850 G1 X48
N6855 Y87.604
N6860 G2 X50 Y89.604 I2
N6865 G3 X50.4 Y90.004 J0.4 F150
N6870 G1 Y90.404
N6875 G19 G3 Y90.804 Z-7.6 K0.4
N6880 G0 Z5
N6885 X49.6
N6890 G1 Z-6.5 F300
N6895 Z-8.1
N6900 G2 Y90.404 Z-8.5 J-0.4
N6905 G1 Y90.004
N6910 G17 G3 X50 Y89.604 I0.4
N6915 G1 X53.5
N6920 G2 X55.5 Y87.604 J-2
N6925 G1 Y66.001
N6930 X65.457 Y28.841
N6935 G2 X18.127 Y16.159 I-23.665 J-6.341
N6940 G1 X-1.932 Y91.018
N6945 G2 X0 Y93.536 I1.932 J0.518
N6950 G1 X12.5
N6955 G2 X14.5 Y91.536 J-2
N6960 G1 Y81.536
N6965 G2 X12.5 Y79.536 I-2
N6970 G1 X9.427
N6975 X25.854 Y18.229
N6980 G3 X38.897 Y6.256 I15.938 J4.271
N6985 G1 X38.007 Y9.58
N6990 G2 X39.421 Y12.03 I1.932 J0.518
N6995 G1 X49.08 Y14.618
N7000 G2 X51.53 Y13.204 I0.518 J-1.932
N7005 G1 X52.42 Y9.879
N7010 G3 X57.73 Y26.771 I-10.629 J12.621
N7015 G1 X49.754 Y56.536
N7020 X44.7
N7025 G2 X42.7 Y58.536 J2
N7030 G1 Y67.604
N7035 G2 X44.7 Y69.604 I2
N7040 G1 X48
N7045 Y87.604
N7050 G2 X50 Y89.604 I2
N7055 G3 X50.4 Y90.004 J0.4 F150
N7060 G1 Y90.404
N7065 G19 G3 Y90.804 Z-8.1 K0.4
N7070 G0 Z5
N7075 X49.6
N7080 G1 Z-7 F300
N7085 Z-8.4
N7090 G2 Y90.404 Z-8.8 J-0.4
N7095 G1 Y90.004
N7100 G17 G3 X50 Y89.604 I0.4
N7105 G1 X53.5
N7110 G2 X55.5 Y87.604 J-2
N7115 G1 Y66.001
N7120 X65.457 Y28.841
N7125 G2 X18.127 Y16.159 I-23.665 J-6.341
N7130 G1 X-1.932 Y91.018
N7135 G2 X0 Y93.536 I1.932 J0.518
N7140 G1 X12.5
N7145 G2 X14.5 Y91.536 J-2
N7150 G1 Y81.536
N7155 G2 X12.5 Y79.536 I-2
N7160 G1 X9.427
N7165 X25.854 Y18.229
N7170 G3 X38.897 Y6.256 I15.938 J4.271
N7175 G1 X38.007 Y9.58
N7180 G2 X39.421 Y12.03 I1.932 J0.518
N7185 G1 X49.08 Y14.618
N7190 G2 X51.53 Y13.204 I0.518 J-1.932
N7195 G1 X52.42 Y9.879
N7200 G3 X57.73 Y26.771 I-10.629 J12.621
N7205 G1 X49.754 Y56.536
N7210 X44.7
N7215 G2 X42.7 Y58.536 J2
N7220 G1 Y67.604
N7225 G2 X44.7 Y69.604 I2
N7230 G1 X48
N7235 Y87.604
N7240 G2 X50 Y89.604 I2
N7245 G3 X50.4 Y90.004 J0.4 F150
N7250 G1 Y90.404
N7255 G19 G3 Y90.804 Z-8.4 K0.4
N7260 G0 Z5
N7265 X49.6
N7270 G1 Z-7.3 F300
N7275 Z-8.7
N7280 G2 Y90.404 Z-9.1 J-0.4
N7285 G1 Y90.004
N7290 G17 G3 X50 Y89.604 I0.4
N7295 G1 X53.5
N7300 G2 X55.5 Y87.604 J-2
N7305 G1 Y66.001
N7310 X65.457 Y28.841
N7315 G2 X18.127 Y16.159 I-23.665 J-6.341
N7320 G1 X-1.932 Y91.018
N7325 G2 X0 Y93.536 I1.932 J0.518
N7330 G1 X12.5
N7335 G2 X14.5 Y91.536 J-2
N7340 G1 Y81.536
N7345 G2 X12.5 Y79.536 I-2
N7350 G1 X9.427
N7355 X25.854 Y18.229
N7360 G3 X38.897 Y6.256 I15.938 J4.271
N7365 G1 X38.007 Y9.58
N7370 G2 X39.421 Y12.03 I1.932 J0.518
N7375 G1 X49.08 Y14.618
N7380 G2 X51.53 Y13.204 I0.518 J-1.932
N7385 G1 X52.42 Y9.879
N7390 G3 X57.73 Y26.771 I-10.629 J12.621
N7395 G1 X49.754 Y56.536
N7400 X44.7
N7405 G2 X42.7 Y58.536 J2
N7410 G1 Y67.604
N7415 G2 X44.7 Y69.604 I2
N7420 G1 X48
N7425 Y87.604
N7430 G2 X50 Y89.604 I2
N7435 G3 X50.4 Y90.004 J0.4 F150
N7440 G1 Y90.404
N7445 G19 G3 Y90.804 Z-8.7 K0.4
N7450 G0 Z15
N7455 X112.311 Y103.707
N7460 Z5
N7465 G1 Z1.5 F300
N7470 Z-0.1
N7475 X112.318 Y103.711 Z-0.178
N7480 X112.339 Y103.721 Z-0.253
N7485 X112.372 Y103.737 Z-0.322
N7490 X112.416 Y103.759 Z-0.383
N7495 X112.471 Y103.786 Z-0.433
N7500 X112.533 Y103.817 Z-0.47
N7505 X112.6 Y103.85 Z-0.492
N7510 X112.67 Y103.885 Z-0.5
N7515 X113.028 Y104.063
N7520 G17 G3 X113.208 Y104.599 I-0.178 J0.358
N7525 G2 X113 Y105.488 I1.792 J0.889
N7530 G1 Y123.488
N7535 X109.7
N7540 G2 X107.7 Y125.488 J2
N7545 G1 Y134.556
N7550 G2 X109.7 Y136.556 I2
N7555 G1 X114.754
N7560 X122.729 Y166.321
N7565 G3 X117.42 Y183.212 I-15.937 J4.271
N7570 G1 X116.53 Y179.888
N7575 G2 X114.08 Y178.474 I-1.932 J0.518
N7580 G1 X104.421 Y181.062
N7585 G2 X103.007 Y183.512 I0.518 J1.932
N7590 G1 X103.898 Y186.836
N7595 G3 X90.854 Y174.862 I2.894 J-16.244
N7600 G1 X74.427 Y113.556
N7605 X77.5
N7610 G2 X79.5 Y111.556 J-2
N7615 G1 Y101.556
N7620 G2 X77.5 Y99.556 I-2
N7625 G1 X65
N7630 G2 X63.068 Y102.074 J2
N7635 G1 X83.127 Y176.933
N7640 G2 X113.133 Y194.257 I23.665 J-6.341
N7645 X130.457 Y164.25 I-6.341 J-23.665
N7650 G1 X120.5 Y127.091
N7655 Y105.488
N7660 G2 X118.5 Y103.488 I-2
N7665 G1 X115
N7670 G2 X113.208 Y104.599 J2
N7675 G3 X112.672 Y104.779 I-0.358 J-0.178 F150
N7680 G1 X112.314 Y104.602
N7685 X112.244 Y104.567 Z-0.492
N7690 X112.177 Y104.534 Z-0.47
N7695 X112.115 Y104.503 Z-0.433
N7700 X112.061 Y104.476 Z-0.383
N7705 X112.016 Y104.454 Z-0.322
N7710 X111.983 Y104.437 Z-0.253
N7715 X111.963 Y104.427 Z-0.178
N7720 X111.956 Y104.424 Z-0.1
N7725 G0 Z5
N7730 X118.9 Y102.288
N7735 G1 Z1 F300
N7740 Z-0.6
N7745 G19 G3 Y102.688 Z-1 J0.4
N7750 G1 Y103.088
N7755 G17 G3 X118.5 Y103.488 I-0.4
N7760 G1 X115
N7765 G2 X113 Y105.488 J2
N7770 G1 Y123.488
N7775 X109.7
N7780 G2 X107.7 Y125.488 J2
N7785 G1 Y134.556
N7790 G2 X109.7 Y136.556 I2
N7795 G1 X114.754
N7800 X122.729 Y166.321
N7805 G3 X117.42 Y183.212 I-15.937 J4.271
N7810 G1 X116.53 Y179.888
N7815 G2 X114.08 Y178.474 I-1.932 J0.518
N7820 G1 X104.421 Y181.062
N7825 G2 X103.007 Y183.512 I0.518 J1.932
N7830 G1 X103.898 Y186.836
N7835 G3 X90.854 Y174.862 I2.894 J-16.244
N7840 G1 X74.427 Y113.556
N7845 X77.5
N7850 G2 X79.5 Y111.556 J-2
N7855 G1 Y101.556
N7860 G2 X77.5 Y99.556 I-2
N7865 G1 X65
N7870 G2 X63.068 Y102.074 J2
N7875 G1 X83.127 Y176.933
N7880 G2 X113.133 Y194.257 I23.665 J-6.341
N7885 X130.457 Y164.25 I-6.341 J-23.665
N7890 G1 X120.5 Y127.091
N7895 Y105.488
N7900 G2 X118.5 Y103.488 I-2
N7905 G3 X118.1 Y103.088 J-0.4 F150
N7910 G1 Y102.688
N7915 G19 G2 Y102.288 Z-0.6 K0.4
N7920 G0 Z5
N7925 X118.9
N7930 G1 Z0.5 F300
N7935 Z-1.1
N7940 G3 Y102.688 Z-1.5 J0.4
N7945 G1 Y103.088
N7950 G17 G3 X118.5 Y103.488 I-0.4
N7955 G1 X115
N7960 G2 X113 Y105.488 J2
N7965 G1 Y123.488
N7970 X109.7
N7975 G2 X107.7 Y125.488 J2
N7980 G1 Y134.556
N7985 G2 X109.7 Y136.556 I2
N7990 G1 X114.754
N7995 X122.729 Y166.321
N8000 G3 X117.42 Y183.212 I-15.937 J4.271
N8005 G1 X116.53 Y179.888
N8010 G2 X114.08 Y178.474 I-1.932 J0.518
N8015 G1 X104.421 Y181.062
N8020 G2 X103.007 Y183.512 I0.518 J1.932
N8025 G1 X103.898 Y186.836
N8030 G3 X90.854 Y174.862 I2.894 J-16.244
N8035 G1 X74.427 Y113.556
N8040 X77.5
N8045 G2 X79.5 Y111.556 J-2
N8050 G1 Y101.556
N8055 G2 X77.5 Y99.556 I-2
N8060 G1 X65
N8065 G2 X63.068 Y102.074 J2
N8070 G1 X83.127 Y176.933
N8075 G2 X113.133 Y194.257 I23.665 J-6.341
N8080 X130.457 Y164.25 I-6.341 J-23.665
N8085 G1 X120.5 Y127.091
N8090 Y105.488
N8095 G2 X118.5 Y103.488 I-2
N8100 G3 X118.1 Y103.088 J-0.4 F150
N8105 G1 Y102.688
N8110 G19 G2 Y102.288 Z-1.1 K0.4
N8115 G0 Z5
N8120 X118.9
N8125 G1 Z0 F300
N8130 Z-1.6
N8135 G3 Y102.688 Z-2 J0.4
N8140 G1 Y103.088
N8145 G17 G3 X118.5 Y103.488 I-0.4
N8150 G1 X115
N8155 G2 X113 Y105.488 J2
N8160 G1 Y123.488
N8165 X109.7
N8170 G2 X107.7 Y125.488 J2
N8175 G1 Y134.556
N8180 G2 X109.7 Y136.556 I2
N8185 G1 X114.754
N8190 X122.729 Y166.321
N8195 G3 X117.42 Y183.212 I-15.937 J4.271
N8200 G1 X116.53 Y179.888
N8205 G2 X114.08 Y178.474 I-1.932 J0.518
N8210 G1 X104.421 Y181.062
N8215 G2 X103.007 Y183.512 I0.518 J1.932
N8220 G1 X103.898 Y186.836
N8225 G3 X90.854 Y174.862 I2.894 J-16.244
N8230 G1 X74.427 Y113.556
N8235 X77.5
N8240 G2 X79.5 Y111.556 J-2
N8245 G1 Y101.556
N8250 G2 X77.5 Y99.556 I-2
N8255 G1 X65
N8260 G2 X63.068 Y102.074 J2
N8265 G1 X83.127 Y176.933
N8270 G2 X113.133 Y194.257 I23.665 J-6.341
N8275 X130.457 Y164.25 I-6.341 J-23.665
N8280 G1 X120.5 Y127.091
N8285 Y105.488
N8290 G2 X118.5 Y103.488 I-2
N8295 G3 X118.1 Y103.088 J-0.4 F150
N8300 G1 Y102.688
N8305 G19 G2 Y102.288 Z-1.6 K0.4
N8310 G0 Z5
N8315 X118.9
N8320 G1 Z-0.5 F300
N8325 Z-2.1
N8330 G3 Y102.688 Z-2.5 J0.4
N8335 G1 Y103.088
N8340 G17 G3 X118.5 Y103.488 I-0.4
N8345 G1 X115
N8350 G2 X113 Y105.488 J2
N8355 G1 Y123.488
N8360 X109.7
N8365 G2 X107.7 Y125.488 J2
N8370 G1 Y134.556
N8375 G2 X109.7 Y136.556 I2
N8380 G1 X114.754
N8385 X122.729 Y166.321
N8390 G3 X117.42 Y183.212 I-15.937 J4.271
N8395 G1 X116.53 Y179.888
N8400 G2 X114.08 Y178.474 I-1.932 J0.518
N8405 G1 X104.421 Y181.062
N8410 G2 X103.007 Y183.512 I0.518 J1.932
N8415 G1 X103.898 Y186.836
N8420 G3 X90.854 Y174.862 I2.894 J-16.244
N8425 G1 X74.427 Y113.556
N8430 X77.5
N8435 G2 X79.5 Y111.556 J-2
N8440 G1 Y101.556
N8445 G2 X77.5 Y99.556 I-2
N8450 G1 X65
N8455 G2 X63.068 Y102.074 J2
N8460 G1 X83.127 Y176.933
N8465 G2 X113.133 Y194.257 I23.665 J-6.341
N8470 X130.457 Y164.25 I-6.341 J-23.665
N8475 G1 X120.5 Y127.091
N8480 Y105.488
N8485 G2 X118.5 Y103.488 I-2
N8490 G3 X118.1 Y103.088 J-0.4 F150
N8495 G1 Y102.688
N8500 G19 G2 Y102.288 Z-2.1 K0.4
N8505 G0 Z5
N8510 X118.9
N8515 G1 Z-1 F300
N8520 Z-2.6
N8525 G3 Y102.688 Z-3 J0.4
N8530 G1 Y103.088
N8535 G17 G3 X118.5 Y103.488 I-0.4
N8540 G1 X115
N8545 G2 X113 Y105.488 J2
N8550 G1 Y123.488
N8555 X109.7
N8560 G2 X107.7 Y125.488 J2
N8565 G1 Y134.556
N8570 G2 X109.7 Y136.556 I2
N8575 G1 X114.754
N8580 X122.729 Y166.321
N8585 G3 X117.42 Y183.212 I-15.937 J4.271
N8590 G1 X116.53 Y179.888
N8595 G2 X114.08 Y178.474 I-1.932 J0.518
N8600 G1 X104.421 Y181.062
N8605 G2 X103.007 Y183.512 I0.518 J1.932
N8610 G1 X103.898 Y186.836
N8615 G3 X90.854 Y174.862 I2.894 J-16.244
N8620 G1 X74.427 Y113.556
N8625 X77.5
N8630 G2 X79.5 Y111.556 J-2
N8635 G1 Y101.556
N8640 G2 X77.5 Y99.556 I-2
N8645 G1 X65
N8650 G2 X63.068 Y102.074 J2
N8655 G1 X83.127 Y176.933
N8660 G2 X113.133 Y194.257 I23.665 J-6.341
N8665 X130.457 Y164.25 I-6.341 J-23.665
N8670 G1 X120.5 Y127.091
N8675 Y105.488
N8680 G2 X118.5 Y103.488 I-2
N8685 G3 X118.1 Y103.088 J-0.4 F150
N8690 G1 Y102.688
N8695 G19 G2 Y102.288 Z-2.6 K0.4
N8700 G0 Z5
N8705 X118.9
N8710 G1 Z-1.5 F300
N8715 Z-3.1
N8720 G3 Y102.688 Z-3.5 J0.4
N8725 G1 Y103.088
N8730 G17 G3 X118.5 Y103.488 I-0.4
N8735 G1 X115
N8740 G2 X113 Y105.488 J2
N8745 G1 Y123.488
N8750 X109.7
N8755 G2 X107.7 Y125.488 J2
N8760 G1 Y134.556
N8765 G2 X109.7 Y136.556 I2
N8770 G1 X114.754
N8775 X122.729 Y166.321
N8780 G3 X117.42 Y183.212 I-15.937 J4.271
N8785 G1 X116.53 Y179.888
N8790 G2 X114.08 Y178.474 I-1.932 J0.518
N8795 G1 X104.421 Y181.062
N8800 G2 X103.007 Y183.512 I0.518 J1.932
N8805 G1 X103.898 Y186.836
N8810 G3 X90.854 Y174.862 I2.894 J-16.244
N8815 G1 X74.427 Y113.556
N8820 X77.5
N8825 G2 X79.5 Y111.556 J-2
N8830 G1 Y101.556
N8835 G2 X77.5 Y99.556 I-2
N8840 G1 X65
N8845 G2 X63.068 Y102.074 J2
N8850 G1 X83.127 Y176.933
N8855 G2 X113.133 Y194.257 I23.665 J-6.341
N8860 X130.457 Y164.25 I-6.341 J-23.665
N8865 G1 X120.5 Y127.091
N8870 Y105.488
N8875 G2 X118.5 Y103.488 I-2
N8880 G3 X118.1 Y103.088 J-0.4 F150
N8885 G1 Y102.688
N8890 G19 G2 Y102.288 Z-3.1 K0.4
N8895 G0 Z5
N8900 X118.9
N8905 G1 Z-2 F300
N8910 Z-3.6
N8915 G3 Y102.688 Z-4 J0.4
N8920 G1 Y103.088
N8925 G17 G3 X118.5 Y103.488 I-0.4
N8930 G1 X115
N8935 G2 X113 Y105.488 J2
N8940 G1 Y123.488
N8945 X109.7
N8950 G2 X107.7 Y125.488 J2
N8955 G1 Y134.556
N8960 G2 X109.7 Y136.556 I2
N8965 G1 X114.754
N8970 X122.729 Y166.321
N8975 G3 X117.42 Y183.212 I-15.937 J4.271
N8980 G1 X116.53 Y179.888
N8985 G2 X114.08 Y178.474 I-1.932 J0.518
N8990 G1 X104.421 Y181.062
N8995 G2 X103.007 Y183.512 I0.518 J1.932
N9000 G1 X103.898 Y186.836
N9005 G3 X90.854 Y174.862 I2.894 J-16.244
N9010 G1 X74.427 Y113.556
N9015 X77.5
N9020 G2 X79.5 Y111.556 J-2
N9025 G1 Y101.556
N9030 G2 X77.5 Y99.556 I-2
N9035 G1 X65
N9040 G2 X63.068 Y102.074 J2
N9045 G1 X83.127 Y176.933
N9050 G2 X113.133 Y194.257 I23.665 J-6.341
N9055 X130.457 Y164.25 I-6.341 J-23.665
N9060 G1 X120.5 Y127.091
N9065 Y105.488
N9070 G2 X118.5 Y103.488 I-2
N9075 G3 X118.1 Y103.088 J-0.4 F150
N9080 G1 Y102.688
N9085 G19 G2 Y102.288 Z-3.6 K0.4
N9090 G0 Z5
N9095 X118.9
N9100 G1 Z-2.5 F300
N9105 Z-4.1
N9110 G3 Y102.688 Z-4.5 J0.4
N9115 G1 Y103.088
N9120 G17 G3 X118.5 Y103.488 I-0.4
N9125 G1 X115
N9130 G2 X113 Y105.488 J2
N9135 G1 Y123.488
N9140 X109.7
N9145 G2 X107.7 Y125.488 J2
N9150 G1 Y134.556
N9155 G2 X109.7 Y136.556 I2
N9160 G1 X114.754
N9165 X122.729 Y166.321
N9170 G3 X117.42 Y183.212 I-15.937 J4.271
N9175 G1 X116.53 Y179.888
N9180 G2 X114.08 Y178.474 I-1.932 J0.518
N9185 G1 X104.421 Y181.062
N9190 G2 X103.007 Y183.512 I0.518 J1.932
N9195 G1 X103.898 Y186.836
N9200 G3 X90.854 Y174.862 I2.894 J-16.244
N9205 G1 X74.427 Y113.556
N9210 X77.5
N9215 G2 X79.5 Y111.556 J-2
N9220 G1 Y101.556
N9225 G2 X77.5 Y99.556 I-2
N9230 G1 X65
N9235 G2 X63.068 Y102.074 J2
N9240 G1 X83.127 Y176.933
N9245 G2 X113.133 Y194.257 I23.665 J-6.341
N9250 X130.457 Y164.25 I-6.341 J-23.665
N9255 G1 X120.5 Y127.091
N9260 Y105.488
N9265 G2 X118.5 Y103.488 I-2
N9270 G3 X118.1 Y103.088 J-0.4 F150
N9275 G1 Y102.688
N9280 G19 G2 Y102.288 Z-4.1 K0.4
N9285 G0 Z5
N9290 X118.9
N9295 G1 Z-3 F300
N9300 Z-4.6
N9305 G3 Y102.688 Z-5 J0.4
N9310 G1 Y103.088
N9315 G17 G3 X118.5 Y103.488 I-0.4
N9320 G1 X115
N9325 G2 X113 Y105.488 J2
N9330 G1 Y123.488
N9335 X109.7
N9340 G2 X107.7 Y125.488 J2
N9345 G1 Y134.556
N9350 G2 X109.7 Y136.556 I2
N9355 G1 X114.754
N9360 X122.729 Y166.321
N9365 G3 X117.42 Y183.212 I-15.937 J4.271
N9370 G1 X116.53 Y179.888
N9375 G2 X114.08 Y178.474 I-1.932 J0.518
N9380 G1 X104.421 Y181.062
N9385 G2 X103.007 Y183.512 I0.518 J1.932
N9390 G1 X103.898 Y186.836
N9395 G3 X90.854 Y174.862 I2.894 J-16.244
N9400 G1 X74.427 Y113.556
N9405 X77.5
N9410 G2 X79.5 Y111.556 J-2
N9415 G1 Y101.556
N9420 G2 X77.5 Y99.556 I-2
N9425 G1 X65
N9430 G2 X63.068 Y102.074 J2
N9435 G1 X83.127 Y176.933
N9440 G2 X113.133 Y194.257 I23.665 J-6.341
N9445 X130.457 Y164.25 I-6.341 J-23.665
N9450 G1 X120.5 Y127.091
N9455 Y105.488
N9460 G2 X118.5 Y103.488 I-2
N9465 G3 X118.1 Y103.088 J-0.4 F150
N9470 G1 Y102.688
N9475 G19 G2 Y102.288 Z-4.6 K0.4
N9480 G0 Z5
N9485 X118.9
N9490 G1 Z-3.5 F300
N9495 Z-5.1
N9500 G3 Y102.688 Z-5.5 J0.4
N9505 G1 Y103.088
N9510 G17 G3 X118.5 Y103.488 I-0.4
N9515 G1 X115
N9520 G2 X113 Y105.488 J2
N9525 G1 Y123.488
N9530 X109.7
N9535 G2 X107.7 Y125.488 J2
N9540 G1 Y134.556
N9545 G2 X109.7 Y136.556 I2
N9550 G1 X114.754
N9555 X122.729 Y166.321
N9560 G3 X117.42 Y183.212 I-15.937 J4.271
N9565 G1 X116.53 Y179.888
N9570 G2 X114.08 Y178.474 I-1.932 J0.518
N9575 G1 X104.421 Y181.062
N9580 G2 X103.007 Y183.512 I0.518 J1.932
N9585 G1 X103.898 Y186.836
N9590 G3 X90.854 Y174.862 I2.894 J-16.244
N9595 G1 X74.427 Y113.556
N9600 X77.5
N9605 G2 X79.5 Y111.556 J-2
N9610 G1 Y101.556
N9615 G2 X77.5 Y99.556 I-2
N9620 G1 X65
N9625 G2 X63.068 Y102.074 J2
N9630 G1 X83.127 Y176.933
N9635 G2 X113.133 Y194.257 I23.665 J-6.341
N9640 X130.457 Y164.25 I-6.341 J-23.665
N9645 G1 X120.5 Y127.091
N9650 Y105.488
N9655 G2 X118.5 Y103.488 I-2
N9660 G3 X118.1 Y103.088 J-0.4 F150
N9665 G1 Y102.688
N9670 G19 G2 Y102.288 Z-5.1 K0.4
N9675 G0 Z5
N9680 X118.9
N9685 G1 Z-4 F300
N9690 Z-5.6
N9695 G3 Y102.688 Z-6 J0.4
N9700 G1 Y103.088
N9705 G17 G3 X118.5 Y103.488 I-0.4
N9710 G1 X115
N9715 G2 X113 Y105.488 J2
N9720 G1 Y123.488
N9725 X109.7
N9730 G2 X107.7 Y125.488 J2
N9735 G1 Y134.556
N9740 G2 X109.7 Y136.556 I2
N9745 G1 X114.754
N9750 X122.729 Y166.321
N9755 G3 X117.42 Y183.212 I-15.937 J4.271
N9760 G1 X116.53 Y179.888
N9765 G2 X114.08 Y178.474 I-1.932 J0.518
N9770 G1 X104.421 Y181.062
N9775 G2 X103.007 Y183.512 I0.518 J1.932
N9780 G1 X103.898 Y186.836
N9785 G3 X90.854 Y174.862 I2.894 J-16.244
N9790 G1 X74.427 Y113.556
N9795 X77.5
N9800 G2 X79.5 Y111.556 J-2
N9805 G1 Y101.556
N9810 G2 X77.5 Y99.556 I-2
N9815 G1 X65
N9820 G2 X63.068 Y102.074 J2
N9825 G1 X83.127 Y176.933
N9830 G2 X113.133 Y194.257 I23.665 J-6.341
N9835 X130.457 Y164.25 I-6.341 J-23.665
N9840 G1 X120.5 Y127.091
N9845 Y105.488
N9850 G2 X118.5 Y103.488 I-2
N9855 G3 X118.1 Y103.088 J-0.4 F150
N9860 G1 Y102.688
N9865 G19 G2 Y102.288 Z-5.6 K0.4
N9870 G0 Z5
N9875 X118.9
N9880 G1 Z-4.5 F300
N9885 Z-6.1
N9890 G3 Y102.688 Z-6.5 J0.4
N9895 G1 Y103.088
N9900 G17 G3 X118.5 Y103.488 I-0.4
N9905 G1 X115
N9910 G2 X113 Y105.488 J2
N9915 G1 Y123.488
N9920 X109.7
N9925 G2 X107.7 Y125.488 J2
N9930 G1 Y134.556
N9935 G2 X109.7 Y136.556 I2
N9940 G1 X114.754
N9945 X122.729 Y166.321
N9950 G3 X117.42 Y183.212 I-15.937 J4.271
N9955 G1 X116.53 Y179.888
N9960 G2 X114.08 Y178.474 I-1.932 J0.518
N9965 G1 X104.421 Y181.062
N9970 G2 X103.007 Y183.512 I0.518 J1.932
N9975 G1 X103.898 Y186.836
N9980 G3 X90.854 Y174.862 I2.894 J-16.244
N9985 G1 X74.427 Y113.556
N9990 X77.5
N9995 G2 X79.5 Y111.556 J-2
N10000 G1 Y101.556
N10005 G2 X77.5 Y99.556 I-2
N10010 G1 X65
N10015 G2 X63.068 Y102.074 J2
N10020 G1 X83.127 Y176.933
N10025 G2 X113.133 Y194.257 I23.665 J-6.341
N10030 X130.457 Y164.25 I-6.341 J-23.665
N10035 G1 X120.5 Y127.091
N10040 Y105.488
N10045 G2 X118.5 Y103.488 I-2
N10050 G3 X118.1 Y103.088 J-0.4 F150
N10055 G1 Y102.688
N10060 G19 G2 Y102.288 Z-6.1 K0.4
N10065 G0 Z5
N10070 X118.9
N10075 G1 Z-5 F300
N10080 Z-6.6
N10085 G3 Y102.688 Z-7 J0.4
N10090 G1 Y103.088
N10095 G17 G3 X118.5 Y103.488 I-0.4
N10100 G1 X115
N10105 G2 X113 Y105.488 J2
N10110 G1 Y123.488
N10115 X109.7
N10120 G2 X107.7 Y125.488 J2
N10125 G1 Y134.556
N10130 G2 X109.7 Y136.556 I2
N10135 G1 X114.754
N10140 X122.729 Y166.321
N10145 G3 X117.42 Y183.212 I-15.937 J4.271
N10150 G1 X116.53 Y179.888
N10155 G2 X114.08 Y178.474 I-1.932 J0.518
N10160 G1 X104.421 Y181.062
N10165 G2 X103.007 Y183.512 I0.518 J1.932
N10170 G1 X103.898 Y186.836
N10175 G3 X90.854 Y174.862 I2.894 J-16.244
N10180 G1 X74.427 Y113.556
N10185 X77.5
N10190 G2 X79.5 Y111.556 J-2
N10195 G1 Y101.556
N10200 G2 X77.5 Y99.556 I-2
N10205 G1 X65
N10210 G2 X63.068 Y102.074 J2
N10215 G1 X83.127 Y176.933
N10220 G2 X113.133 Y194.257 I23.665 J-6.341
N10225 X130.457 Y164.25 I-6.341 J-23.665
N10230 G1 X120.5 Y127.091
N10235 Y105.488
N10240 G2 X118.5 Y103.488 I-2
N10245 G3 X118.1 Y103.088 J-0.4 F150
N10250 G1 Y102.688
N10255 G19 G2 Y102.288 Z-6.6 K0.4
N10260 G0 Z5
N10265 X118.9
N10270 G1 Z-5.5 F300
N10275 Z-7.1
N10280 G3 Y102.688 Z-7.5 J0.4
N10285 G1 Y103.088
N10290 G17 G3 X118.5 Y103.488 I-0.4
N10295 G1 X115
N10300 G2 X113 Y105.488 J2
N10305 G1 Y123.488
N10310 X109.7
N10315 G2 X107.7 Y125.488 J2
N10320 G1 Y134.556
N10325 G2 X109.7 Y136.556 I2
N10330 G1 X114.754
N10335 X122.729 Y166.321
N10340 G3 X117.42 Y183.212 I-15.937 J4.271
N10345 G1 X116.53 Y179.888
N10350 G2 X114.08 Y178.474 I-1.932 J0.518
N10355 G1 X104.421 Y181.062
N10360 G2 X103.007 Y183.512 I0.518 J1.932
N10365 G1 X103.898 Y186.836
N10370 G3 X90.854 Y174.862 I2.894 J-16.244
N10375 G1 X74.427 Y113.556
N10380 X77.5
N10385 G2 X79.5 Y111.556 J-2
N10390 G1 Y101.556
N10395 G2 X77.5 Y99.556 I-2
N10400 G1 X65
N10405 G2 X63.068 Y102.074 J2
N10410 G1 X83.127 Y176.933
N10415 G2 X113.133 Y194.257 I23.665 J-6.341
N10420 X130.457 Y164.25 I-6.341 J-23.665
N10425 G1 X120.5 Y127.091
N10430 Y105.488
N10435 G2 X118.5 Y103.488 I-2
N10440 G3 X118.1 Y103.088 J-0.4 F150
N10445 G1 Y102.688
N10450 G19 G2 Y102.288 Z-7.1 K0.4
N10455 G0 Z5
N10460 X118.9
N10465 G1 Z-6 F300
N10470 Z-7.6
N10475 G3 Y102.688 Z-8 J0.4
N10480 G1 Y103.088
N10485 G17 G3 X118.5 Y103.488 I-0.4
N10490 G1 X115
N10495 G2 X113 Y105.488 J2
N10500 G1 Y123.488
N10505 X109.7
N10510 G2 X107.7 Y125.488 J2
N10515 G1 Y134.556
N10520 G2 X109.7 Y136.556 I2
N10525 G1 X114.754
N10530 X122.729 Y166.321
N10535 G3 X117.42 Y183.212 I-15.937 J4.271
N10540 G1 X116.53 Y179.888
N10545 G2 X114.08 Y178.474 I-1.932 J0.518
N10550 G1 X104.421 Y181.062
N10555 G2 X103.007 Y183.512 I0.518 J1.932
N10560 G1 X103.898 Y186.836
N10565 G3 X90.854 Y174.862 I2.894 J-16.244
N10570 G1 X74.427 Y113.556
N10575 X77.5
N10580 G2 X79.5 Y111.556 J-2
N10585 G1 Y101.556
N10590 G2 X77.5 Y99.556 I-2
N10595 G1 X65
N10600 G2 X63.068 Y102.074 J2
N10605 G1 X83.127 Y176.933
N10610 G2 X113.133 Y194.257 I23.665 J-6.341
N10615 X130.457 Y164.25 I-6.341 J-23.665
N10620 G1 X120.5 Y127.091
N10625 Y105.488
N10630 G2 X118.5 Y103.488 I-2
N10635 G3 X118.1 Y103.088 J-0.4 F150
N10640 G1 Y102.688
N10645 G19 G2 Y102.288 Z-7.6 K0.4
N10650 G0 Z5
N10655 X118.9
N10660 G1 Z-6.5 F300
N10665 Z-8.1
N10670 G3 Y102.688 Z-8.5 J0.4
N10675 G1 Y103.088
N10680 G17 G3 X118.5 Y103.488 I-0.4
N10685 G1 X115
N10690 G2 X113 Y105.488 J2
N10695 G1 Y123.488
N10700 X109.7
N10705 G2 X107.7 Y125.488 J2
N10710 G1 Y134.556
N10715 G2 X109.7 Y136.556 I2
N10720 G1 X114.754
N10725 X122.729 Y166.321
N10730 G3 X117.42 Y183.212 I-15.937 J4.271
N10735 G1 X116.53 Y179.888
N10740 G2 X114.08 Y178.474 I-1.932 J0.518
N10745 G1 X104.421 Y181.062
N10750 G2 X103.007 Y183.512 I0.518 J1.932
N10755 G1 X103.898 Y186.836
N10760 G3 X90.854 Y174.862 I2.894 J-16.244
N10765 G1 X74.427 Y113.556
N10770 X77.5
N10775 G2 X79.5 Y111.556 J-2
N10780 G1 Y101.556
N10785 G2 X77.5 Y99.556 I-2
N10790 G1 X65
N10795 G2 X63.068 Y102.074 J2
N10800 G1 X83.127 Y176.933
N10805 G2 X113.133 Y194.257 I23.665 J-6.341
N10810 X130.457 Y164.25 I-6.341 J-23.665
N10815 G1 X120.5 Y127.091
N10820 Y105.488
N10825 G2 X118.5 Y103.488 I-2
N10830 G3 X118.1 Y103.088 J-0.4 F150
N10835 G1 Y102.688
N10840 G19 G2 Y102.288 Z-8.1 K0.4
N10845 G0 Z5
N10850 X118.9
N10855 G1 Z-7 F300
N10860 Z-8.401
N10865 G3 Y102.688 Z-8.801 J0.4
N10870 G1 Y103.088
N10875 G17 G3 X118.5 Y103.488 I-0.4
N10880 G1 X115
N10885 G2 X113 Y105.488 J2
N10890 G1 Y123.488
N10895 X109.7
N10900 G2 X107.7 Y125.488 J2
N10905 G1 Y134.556
N10910 G2 X109.7 Y136.556 I2
N10915 G1 X114.754
N10920 X122.729 Y166.321
N10925 G3 X117.42 Y183.212 I-15.937 J4.271
N10930 G1 X116.53 Y179.888
N10935 G2 X114.08 Y178.474 I-1.932 J0.518
N10940 G1 X104.421 Y181.062
N10945 G2 X103.007 Y183.512 I0.518 J1.932
N10950 G1 X103.898 Y186.836
N10955 G3 X90.854 Y174.862 I2.894 J-16.244
N10960 G1 X74.427 Y113.556
N10965 X77.5
N10970 G2 X79.5 Y111.556 J-2
N10975 G1 Y101.556
N10980 G2 X77.5 Y99.556 I-2
N10985 G1 X65
N10990 G2 X63.068 Y102.074 J2
N10995 G1 X83.127 Y176.933
N11000 G2 X113.133 Y194.257 I23.665 J-6.341
N11005 X130.457 Y164.25 I-6.341 J-23.665
N11010 G1 X120.5 Y127.091
N11015 Y105.488
N11020 G2 X118.5 Y103.488 I-2
N11025 G3 X118.1 Y103.088 J-0.4 F150
N11030 G1 Y102.688
N11035 G19 G2 Y102.288 Z-8.401 K0.4
N11040 G0 Z5
N11045 X118.9
N11050 G1 Z-7.301 F300
N11055 Z-8.701
N11060 G3 Y102.688 Z-9.101 J0.4
N11065 G1 Y103.088
N11070 G17 G3 X118.5 Y103.488 I-0.4
N11075 G1 X115
N11080 G2 X113 Y105.488 J2
N11085 G1 Y123.488
N11090 X109.7
N11095 G2 X107.7 Y125.488 J2
N11100 G1 Y134.556
N11105 G2 X109.7 Y136.556 I2
N11110 G1 X114.754
N11115 X122.729 Y166.321
N11120 G3 X117.42 Y183.212 I-15.937 J4.271
N11125 G1 X116.53 Y179.888
N11130 G2 X114.08 Y178.474 I-1.932 J0.518
N11135 G1 X104.421 Y181.062
N11140 G2 X103.007 Y183.512 I0.518 J1.932
N11145 G1 X103.898 Y186.836
N11150 G3 X90.854 Y174.862 I2.894 J-16.244
N11155 G1 X74.427 Y113.556
N11160 X77.5
N11165 G2 X79.5 Y111.556 J-2
N11170 G1 Y101.556
N11175 G2 X77.5 Y99.556 I-2
N11180 G1 X65
N11185 G2 X63.068 Y102.074 J2
N11190 G1 X83.127 Y176.933
N11195 G2 X113.133 Y194.257 I23.665 J-6.341
N11200 X130.457 Y164.25 I-6.341 J-23.665
N11205 G1 X120.5 Y127.091
N11210 Y105.488
N11215 G2 X118.5 Y103.488 I-2
N11220 G3 X118.1 Y103.088 J-0.4 F150
N11225 G1 Y102.688
N11230 G19 G2 Y102.288 Z-8.701 K0.4
N11235 G0 Z5
N11240 X114.6 Y90.804
N11245 G1 Z1.5 F300
N11250 Z-0.1
N11255 G2 Y90.404 Z-0.5 J-0.4
N11260 G1 Y90.004
N11265 G17 G3 X115 Y89.604 I0.4
N11270 G1 X118.5
N11275 G2 X120.5 Y87.604 J-2
N11280 G1 Y66.001
N11285 X130.457 Y28.841
N11290 G2 X113.133 Y-1.165 I-23.665 J-6.341
N11295 X83.127 Y16.159 I-6.341 J23.665
N11300 G1 X63.068 Y91.018
N11305 G2 X65 Y93.536 I1.932 J0.518
N11310 G1 X77.5
N11315 G2 X79.5 Y91.536 J-2
N11320 G1 Y81.536
N11325 G2 X77.5 Y79.536 I-2
N11330 G1 X74.427
N11335 X90.854 Y18.229
N11340 G3 X103.898 Y6.256 I15.938 J4.271
N11345 G1 X103.007 Y9.58
N11350 G2 X104.421 Y12.03 I1.932 J0.517
N11355 G1 X114.08 Y14.618
N11360 G2 X116.53 Y13.203 I0.518 J-1.932
N11365 G1 X117.42 Y9.879
N11370 G3 X122.729 Y26.771 I-10.628 J12.62
N11375 G1 X114.754 Y56.536
N11380 X109.7
N11385 G2 X107.7 Y58.536 J2
N11390 G1 Y67.604
N11395 G2 X109.7 Y69.604 I2
N11400 G1 X113
N11405 Y87.604
N11410 G2 X115 Y89.604 I2
N11415 G3 X115.4 Y90.004 J0.4 F150
N11420 G1 Y90.404
N11425 G19 G3 Y90.804 Z-0.1 K0.4
N11430 G0 Z5
N11435 X114.6
N11440 G1 Z1 F300
N11445 Z-0.6
N11450 G2 Y90.404 Z-1 J-0.4
N11455 G1 Y90.004
N11460 G17 G3 X115 Y89.604 I0.4
N11465 G1 X118.5
N11470 G2 X120.5 Y87.604 J-2
N11475 G1 Y66.001
N11480 X130.457 Y28.841
N11485 G2 X113.133 Y-1.165 I-23.665 J-6.341
N11490 X83.127 Y16.159 I-6.341 J23.665
N11495 G1 X63.068 Y91.018
N11500 G2 X65 Y93.536 I1.932 J0.518
N11505 G1 X77.5
N11510 G2 X79.5 Y91.536 J-2
N11515 G1 Y81.536
N11520 G2 X77.5 Y79.536 I-2
N11525 G1 X74.427
N11530 X90.854 Y18.229
N11535 G3 X103.898 Y6.256 I15.938 J4.271
N11540 G1 X103.007 Y9.58
N11545 G2 X104.421 Y12.03 I1.932 J0.517
N11550 G1 X114.08 Y14.618
N11555 G2 X116.53 Y13.203 I0.518 J-1.932
N11560 G1 X117.42 Y9.879
N11565 G3 X122.729 Y26.771 I-10.628 J12.62
N11570 G1 X114.754 Y56.536
N11575 X109.7
N11580 G2 X107.7 Y58.536 J2
N11585 G1 Y67.604
N11590 G2 X109.7 Y69.604 I2
N11595 G1 X113
N11600 Y87.604
N11605 G2 X115 Y89.604 I2
N11610 G3 X115.4 Y90.004 J0.4 F150
N11615 G1 Y90.404
N11620 G19 G3 Y90.804 Z-0.6 K0.4
N11625 G0 Z5
N11630 X114.6
N11635 G1 Z0.5 F300
N11640 Z-1.1
N11645 G2 Y90.404 Z-1.5 J-0.4
N11650 G1 Y90.004
N11655 G17 G3 X115 Y89.604 I0.4
N11660 G1 X118.5
N11665 G2 X120.5 Y87.604 J-2
N11670 G1 Y66.001
N11675 X130.457 Y28.841
N11680 G2 X113.133 Y-1.165 I-23.665 J-6.341
N11685 X83.127 Y16.159 I-6.341 J23.665
N11690 G1 X63.068 Y91.018
N11695 G2 X65 Y93.536 I1.932 J0.518
N11700 G1 X77.5
N11705 G2 X79.5 Y91.536 J-2
N11710 G1 Y81.536
N11715 G2 X77.5 Y79.536 I-2
N11720 G1 X74.427
N11725 X90.854 Y18.229
N11730 G3 X103.898 Y6.256 I15.938 J4.271
N11735 G1 X103.007 Y9.58
N11740 G2 X104.421 Y12.03 I1.932 J0.517
N11745 G1 X114.08 Y14.618
N11750 G2 X116.53 Y13.203 I0.518 J-1.932
N11755 G1 X117.42 Y9.879
N11760 G3 X122.729 Y26.771 I-10.628 J12.62
N11765 G1 X114.754 Y56.536
N11770 X109.7
N11775 G2 X107.7 Y58.536 J2
N11780 G1 Y67.604
N11785 G2 X109.7 Y69.604 I2
N11790 G1 X113
N11795 Y87.604
N11800 G2 X115 Y89.604 I2
N11805 G3 X115.4 Y90.004 J0.4 F150
N11810 G1 Y90.404
N11815 G19 G3 Y90.804 Z-1.1 K0.4
N11820 G0 Z5
N11825 X114.6
N11830 G1 Z0 F300
N11835 Z-1.6
N11840 G2 Y90.404 Z-2 J-0.4
N11845 G1 Y90.004
N11850 G17 G3 X115 Y89.604 I0.4
N11855 G1 X118.5
N11860 G2 X120.5 Y87.604 J-2
N11865 G1 Y66.001
N11870 X130.457 Y28.841
N11875 G2 X113.133 Y-1.165 I-23.665 J-6.341
N11880 X83.127 Y16.159 I-6.341 J23.665
N11885 G1 X63.068 Y91.018
N11890 G2 X65 Y93.536 I1.932 J0.518
N11895 G1 X77.5
N11900 G2 X79.5 Y91.536 J-2
N11905 G1 Y81.536
N11910 G2 X77.5 Y79.536 I-2
N11915 G1 X74.427
N11920 X90.854 Y18.229
N11925 G3 X103.898 Y6.256 I15.938 J4.271
N11930 G1 X103.007 Y9.58
N11935 G2 X104.421 Y12.03 I1.932 J0.517
N11940 G1 X114.08 Y14.618
N11945 G2 X116.53 Y13.203 I0.518 J-1.932
N11950 G1 X117.42 Y9.879
N11955 G3 X122.729 Y26.771 I-10.628 J12.62
N11960 G1 X114.754 Y56.536
N11965 X109.7
N11970 G2 X107.7 Y58.536 J2
N11975 G1 Y67.604
N11980 G2 X109.7 Y69.604 I2
N11985 G1 X113
N11990 Y87.604
N11995 G2 X115 Y89.604 I2
N12000 G3 X115.4 Y90.004 J0.4 F150
N12005 G1 Y90.404
N12010 G19 G3 Y90.804 Z-1.6 K0.4
N12015 G0 Z5
N12020 X114.6
N12025 G1 Z-0.5 F300
N12030 Z-2.1
N12035 G2 Y90.404 Z-2.5 J-0.4
N12040 G1 Y90.004
N12045 G17 G3 X115 Y89.604 I0.4
N12050 G1 X118.5
N12055 G2 X120.5 Y87.604 J-2
N12060 G1 Y66.001
N12065 X130.457 Y28.841
N12070 G2 X113.133 Y-1.165 I-23.665 J-6.341
N12075 X83.127 Y16.159 I-6.341 J23.665
N12080 G1 X63.068 Y91.018
N12085 G2 X65 Y93.536 I1.932 J0.518
N12090 G1 X77.5
N12095 G2 X79.5 Y91.536 J-2
N12100 G1 Y81.536
N12105 G2 X77.5 Y79.536 I-2
N12110 G1 X74.427
N12115 X90.854 Y18.229
N12120 G3 X103.898 Y6.256 I15.938 J4.271
N12125 G1 X103.007 Y9.58
N12130 G2 X104.421 Y12.03 I1.932 J0.517
N12135 G1 X114.08 Y14.618
N12140 G2 X116.53 Y13.203 I0.518 J-1.932
N12145 G1 X117.42 Y9.879
N12150 G3 X122.729 Y26.771 I-10.628 J12.62
N12155 G1 X114.754 Y56.536
N12160 X109.7
N12165 G2 X107.7 Y58.536 J2
N12170 G1 Y67.604
N12175 G2 X109.7 Y69.604 I2
N12180 G1 X113
N12185 Y87.604
N12190 G2 X115 Y89.604 I2
N12195 G3 X115.4 Y90.004 J0.4 F150
N12200 G1 Y90.404
N12205 G19 G3 Y90.804 Z-2.1 K0.4
N12210 G0 Z5
N12215 X114.6
N12220 G1 Z-1 F300
N12225 Z-2.6
N12230 G2 Y90.404 Z-3 J-0.4
N12235 G1 Y90.004
N12240 G17 G3 X115 Y89.604 I0.4
N12245 G1 X118.5
N12250 G2 X120.5 Y87.604 J-2
N12255 G1 Y66.001
N12260 X130.457 Y28.841
N12265 G2 X113.133 Y-1.165 I-23.665 J-6.341
N12270 X83.127 Y16.159 I-6.341 J23.665
N12275 G1 X63.068 Y91.018
N12280 G2 X65 Y93.536 I1.932 J0.518
N12285 G1 X77.5
N12290 G2 X79.5 Y91.536 J-2
N12295 G1 Y81.536
N12300 G2 X77.5 Y79.536 I-2
N12305 G1 X74.427
N12310 X90.854 Y18.229
N12315 G3 X103.898 Y6.256 I15.938 J4.271
N12320 G1 X103.007 Y9.58
N12325 G2 X104.421 Y12.03 I1.932 J0.517
N12330 G1 X114.08 Y14.618
N12335 G2 X116.53 Y13.203 I0.518 J-1.932
N12340 G1 X117.42 Y9.879
N12345 G3 X122.729 Y26.771 I-10.628 J12.62
N12350 G1 X114.754 Y56.536
N12355 X109.7
N12360 G2 X107.7 Y58.536 J2
N12365 G1 Y67.604
N12370 G2 X109.7 Y69.604 I2
N12375 G1 X113
N12380 Y87.604
N12385 G2 X115 Y89.604 I2
N12390 G3 X115.4 Y90.004 J0.4 F150
N12395 G1 Y90.404
N12400 G19 G3 Y90.804 Z-2.6 K0.4
N12405 G0 Z5
N12410 X114.6
N12415 G1 Z-1.5 F300
N12420 Z-3.1
N12425 G2 Y90.404 Z-3.5 J-0.4
N12430 G1 Y90.004
N12435 G17 G3 X115 Y89.604 I0.4
N12440 G1 X118.5
N12445 G2 X120.5 Y87.604 J-2
N12450 G1 Y66.001
N12455 X130.457 Y28.841
N12460 G2 X113.133 Y-1.165 I-23.665 J-6.341
N12465 X83.127 Y16.159 I-6.341 J23.665
N12470 G1 X63.068 Y91.018
N12475 G2 X65 Y93.536 I1.932 J0.518
N12480 G1 X77.5
N12485 G2 X79.5 Y91.536 J-2
N12490 G1 Y81.536
N12495 G2 X77.5 Y79.536 I-2
N12500 G1 X74.427
N12505 X90.854 Y18.229
N12510 G3 X103.898 Y6.256 I15.938 J4.271
N12515 G1 X103.007 Y9.58
N12520 G2 X104.421 Y12.03 I1.932 J0.517
N12525 G1 X114.08 Y14.618
N12530 G2 X116.53 Y13.203 I0.518 J-1.932
N12535 G1 X117.42 Y9.879
N12540 G3 X122.729 Y26.771 I-10.628 J12.62
N12545 G1 X114.754 Y56.536
N12550 X109.7
N12555 G2 X107.7 Y58.536 J2
N12560 G1 Y67.604
N12565 G2 X109.7 Y69.604 I2
N12570 G1 X113
N12575 Y87.604
N12580 G2 X115 Y89.604 I2
N12585 G3 X115.4 Y90.004 J0.4 F150
N12590 G1 Y90.404
N12595 G19 G3 Y90.804 Z-3.1 K0.4
N12600 G0 Z5
N12605 X114.6
N12610 G1 Z-2 F300
N12615 Z-3.6
N12620 G2 Y90.404 Z-4 J-0.4
N12625 G1 Y90.004
N12630 G17 G3 X115 Y89.604 I0.4
N12635 G1 X118.5
N12640 G2 X120.5 Y87.604 J-2
N12645 G1 Y66.001
N12650 X130.457 Y28.841
N12655 G2 X113.133 Y-1.165 I-23.665 J-6.341
N12660 X83.127 Y16.159 I-6.341 J23.665
N12665 G1 X63.068 Y91.018
N12670 G2 X65 Y93.536 I1.932 J0.518
N12675 G1 X77.5
N12680 G2 X79.5 Y91.536 J-2
N12685 G1 Y81.536
N12690 G2 X77.5 Y79.536 I-2
N12695 G1 X74.427
N12700 X90.854 Y18.229
N12705 G3 X103.898 Y6.256 I15.938 J4.271
N12710 G1 X103.007 Y9.58
N12715 G2 X104.421 Y12.03 I1.932 J0.517
N12720 G1 X114.08 Y14.618
N12725 G2 X116.53 Y13.203 I0.518 J-1.932
N12730 G1 X117.42 Y9.879
N12735 G3 X122.729 Y26.771 I-10.628 J12.62
N12740 G1 X114.754 Y56.536
N12745 X109.7
N12750 G2 X107.7 Y58.536 J2
N12755 G1 Y67.604
N12760 G2 X109.7 Y69.604 I2
N12765 G1 X113
N12770 Y87.604
N12775 G2 X115 Y89.604 I2
N12780 G3 X115.4 Y90.004 J0.4 F150
N12785 G1 Y90.404
N12790 G19 G3 Y90.804 Z-3.6 K0.4
N12795 G0 Z5
N12800 X114.6
N12805 G1 Z-2.5 F300
N12810 Z-4.1
N12815 G2 Y90.404 Z-4.5 J-0.4
N12820 G1 Y90.004
N12825 G17 G3 X115 Y89.604 I0.4
N12830 G1 X118.5
N12835 G2 X120.5 Y87.604 J-2
N12840 G1 Y66.001
N12845 X130.457 Y28.841
N12850 G2 X113.133 Y-1.165 I-23.665 J-6.341
N12855 X83.127 Y16.159 I-6.341 J23.665
N12860 G1 X63.068 Y91.018
N12865 G2 X65 Y93.536 I1.932 J0.518
N12870 G1 X77.5
N12875 G2 X79.5 Y91.536 J-2
N12880 G1 Y81.536
N12885 G2 X77.5 Y79.536 I-2
N12890 G1 X74.427
N12895 X90.854 Y18.229
N12900 G3 X103.898 Y6.256 I15.938 J4.271
N12905 G1 X103.007 Y9.58
N12910 G2 X104.421 Y12.03 I1.932 J0.517
N12915 G1 X114.08 Y14.618
N12920 G2 X116.53 Y13.203 I0.518 J-1.932
N12925 G1 X117.42 Y9.879
N12930 G3 X122.729 Y26.771 I-10.628 J12.62
N12935 G1 X114.754 Y56.536
N12940 X109.7
N12945 G2 X107.7 Y58.536 J2
N12950 G1 Y67.604
N12955 G2 X109.7 Y69.604 I2
N12960 G1 X113
N12965 Y87.604
N12970 G2 X115 Y89.604 I2
N12975 G3 X115.4 Y90.004 J0.4 F150
N12980 G1 Y90.404
N12985 G19 G3 Y90.804 Z-4.1 K0.4
N12990 G0 Z5
N12995 X114.6
N13000 G1 Z-3 F300
N13005 Z-4.6
N13010 G2 Y90.404 Z-5 J-0.4
N13015 G1 Y90.004
N13020 G17 G3 X115 Y89.604 I0.4
N13025 G1 X118.5
N13030 G2 X120.5 Y87.604 J-2
N13035 G1 Y66.001
N13040 X130.457 Y28.841
N13045 G2 X113.133 Y-1.165 I-23.665 J-6.341
N13050 X83.127 Y16.159 I-6.341 J23.665
N13055 G1 X63.068 Y91.018
N13060 G2 X65 Y93.536 I1.932 J0.518
N13065 G1 X77.5
N13070 G2 X79.5 Y91.536 J-2
N13075 G1 Y81.536
N13080 G2 X77.5 Y79.536 I-2
N13085 G1 X74.427
N13090 X90.854 Y18.229
N13095 G3 X103.898 Y6.256 I15.938 J4.271
N13100 G1 X103.007 Y9.58
N13105 G2 X104.421 Y12.03 I1.932 J0.517
N13110 G1 X114.08 Y14.618
N13115 G2 X116.53 Y13.203 I0.518 J-1.932
N13120 G1 X117.42 Y9.879
N13125 G3 X122.729 Y26.771 I-10.628 J12.62
N13130 G1 X114.754 Y56.536
N13135 X109.7
N13140 G2 X107.7 Y58.536 J2
N13145 G1 Y67.604
N13150 G2 X109.7 Y69.604 I2
N13155 G1 X113
N13160 Y87.604
N13165 G2 X115 Y89.604 I2
N13170 G3 X115.4 Y90.004 J0.4 F150
N13175 G1 Y90.404
N13180 G19 G3 Y90.804 Z-4.6 K0.4
N13185 G0 Z5
N13190 X114.6
N13195 G1 Z-3.5 F300
N13200 Z-5.1
N13205 G2 Y90.404 Z-5.5 J-0.4
N13210 G1 Y90.004
N13215 G17 G3 X115 Y89.604 I0.4
N13220 G1 X118.5
N13225 G2 X120.5 Y87.604 J-2
N13230 G1 Y66.001
N13235 X130.457 Y28.841
N13240 G2 X113.133 Y-1.165 I-23.665 J-6.341
N13245 X83.127 Y16.159 I-6.341 J23.665
N13250 G1 X63.068 Y91.018
N13255 G2 X65 Y93.536 I1.932 J0.518
N13260 G1 X77.5
N13265 G2 X79.5 Y91.536 J-2
N13270 G1 Y81.536
N13275 G2 X77.5 Y79.536 I-2
N13280 G1 X74.427
N13285 X90.854 Y18.229
N13290 G3 X103.898 Y6.256 I15.938 J4.271
N13295 G1 X103.007 Y9.58
N13300 G2 X104.421 Y12.03 I1.932 J0.517
N13305 G1 X114.08 Y14.618
N13310 G2 X116.53 Y13.203 I0.518 J-1.932
N13315 G1 X117.42 Y9.879
N13320 G3 X122.729 Y26.771 I-10.628 J12.62
N13325 G1 X114.754 Y56.536
N13330 X109.7
N13335 G2 X107.7 Y58.536 J2
N13340 G1 Y67.604
N13345 G2 X109.7 Y69.604 I2
N13350 G1 X113
N13355 Y87.604
N13360 G2 X115 Y89.604 I2
N13365 G3 X115.4 Y90.004 J0.4 F150
N13370 G1 Y90.404
N13375 G19 G3 Y90.804 Z-5.1 K0.4
N13380 G0 Z5
N13385 X114.6
N13390 G1 Z-4 F300
N13395 Z-5.6
N13400 G2 Y90.404 Z-6 J-0.4
N13405 G1 Y90.004
N13410 G17 G3 X115 Y89.604 I0.4
N13415 G1 X118.5
N13420 G2 X120.5 Y87.604 J-2
N13425 G1 Y66.001
N13430 X130.457 Y28.841
N13435 G2 X113.133 Y-1.165 I-23.665 J-6.341
N13440 X83.127 Y16.159 I-6.341 J23.665
N13445 G1 X63.068 Y91.018
N13450 G2 X65 Y93.536 I1.932 J0.518
N13455 G1 X77.5
N13460 G2 X79.5 Y91.536 J-2
N13465 G1 Y81.536
N13470 G2 X77.5 Y79.536 I-2
N13475 G1 X74.427
N13480 X90.854 Y18.229
N13485 G3 X103.898 Y6.256 I15.938 J4.271
N13490 G1 X103.007 Y9.58
N13495 G2 X104.421 Y12.03 I1.932 J0.517
N13500 G1 X114.08 Y14.618
N13505 G2 X116.53 Y13.203 I0.518 J-1.932
N13510 G1 X117.42 Y9.879
N13515 G3 X122.729 Y26.771 I-10.628 J12.62
N13520 G1 X114.754 Y56.536
N13525 X109.7
N13530 G2 X107.7 Y58.536 J2
N13535 G1 Y67.604
N13540 G2 X109.7 Y69.604 I2
N13545 G1 X113
N13550 Y87.604
N13555 G2 X115 Y89.604 I2
N13560 G3 X115.4 Y90.004 J0.4 F150
N13565 G1 Y90.404
N13570 G19 G3 Y90.804 Z-5.6 K0.4
N13575 G0 Z5
N13580 X114.6
N13585 G1 Z-4.5 F300
N13590 Z-6.1
N13595 G2 Y90.404 Z-6.5 J-0.4
N13600 G1 Y90.004
N13605 G17 G3 X115 Y89.604 I0.4
N13610 G1 X118.5
N13615 G2 X120.5 Y87.604 J-2
N13620 G1 Y66.001
N13625 X130.457 Y28.841
N13630 G2 X113.133 Y-1.165 I-23.665 J-6.341
N13635 X83.127 Y16.159 I-6.341 J23.665
N13640 G1 X63.068 Y91.018
N13645 G2 X65 Y93.536 I1.932 J0.518
N13650 G1 X77.5
N13655 G2 X79.5 Y91.536 J-2
N13660 G1 Y81.536
N13665 G2 X77.5 Y79.536 I-2
N13670 G1 X74.427
N13675 X90.854 Y18.229
N13680 G3 X103.898 Y6.256 I15.938 J4.271
N13685 G1 X103.007 Y9.58
N13690 G2 X104.421 Y12.03 I1.932 J0.517
N13695 G1 X114.08 Y14.618
N13700 G2 X116.53 Y13.203 I0.518 J-1.932
N13705 G1 X117.42 Y9.879
N13710 G3 X122.729 Y26.771 I-10.628 J12.62
N13715 G1 X114.754 Y56.536
N13720 X109.7
N13725 G2 X107.7 Y58.536 J2
N13730 G1 Y67.604
N13735 G2 X109.7 Y69.604 I2
N13740 G1 X113
N13745 Y87.604
N13750 G2 X115 Y89.604 I2
N13755 G3 X115.4 Y90.004 J0.4 F150
N13760 G1 Y90.404
N13765 G19 G3 Y90.804 Z-6.1 K0.4
N13770 G0 Z5
N13775 X114.6
N13780 G1 Z-5 F300
N13785 Z-6.6
N13790 G2 Y90.404 Z-7 J-0.4
N13795 G1 Y90.004
N13800 G17 G3 X115 Y89.604 I0.4
N13805 G1 X118.5
N13810 G2 X120.5 Y87.604 J-2
N13815 G1 Y66.001
N13820 X130.457 Y28.841
N13825 G2 X113.133 Y-1.165 I-23.665 J-6.341
N13830 X83.127 Y16.159 I-6.341 J23.665
N13835 G1 X63.068 Y91.018
N13840 G2 X65 Y93.536 I1.932 J0.518
N13845 G1 X77.5
N13850 G2 X79.5 Y91.536 J-2
N13855 G1 Y81.536
N13860 G2 X77.5 Y79.536 I-2
N13865 G1 X74.427
N13870 X90.854 Y18.229
N13875 G3 X103.898 Y6.256 I15.938 J4.271
N13880 G1 X103.007 Y9.58
N13885 G2 X104.421 Y12.03 I1.932 J0.517
N13890 G1 X114.08 Y14.618
N13895 G2 X116.53 Y13.203 I0.518 J-1.932
N13900 G1 X117.42 Y9.879
N13905 G3 X122.729 Y26.771 I-10.628 J12.62
N13910 G1 X114.754 Y56.536
N13915 X109.7
N13920 G2 X107.7 Y58.536 J2
N13925 G1 Y67.604
N13930 G2 X109.7 Y69.604 I2
N13935 G1 X113
N13940 Y87.604
N13945 G2 X115 Y89.604 I2
N13950 G3 X115.4 Y90.004 J0.4 F150
N13955 G1 Y90.404
N13960 G19 G3 Y90.804 Z-6.6 K0.4
N13965 G0 Z5
N13970 X114.6
N13975 G1 Z-5.5 F300
N13980 Z-7.1
N13985 G2 Y90.404 Z-7.5 J-0.4
N13990 G1 Y90.004
N13995 G17 G3 X115 Y89.604 I0.4
N14000 G1 X118.5
N14005 G2 X120.5 Y87.604 J-2
N14010 G1 Y66.001
N14015 X130.457 Y28.841
N14020 G2 X113.133 Y-1.165 I-23.665 J-6.341
N14025 X83.127 Y16.159 I-6.341 J23.665
N14030 G1 X63.068 Y91.018
N14035 G2 X65 Y93.536 I1.932 J0.518
N14040 G1 X77.5
N14045 G2 X79.5 Y91.536 J-2
N14050 G1 Y81.536
N14055 G2 X77.5 Y79.536 I-2
N14060 G1 X74.427
N14065 X90.854 Y18.229
N14070 G3 X103.898 Y6.256 I15.938 J4.271
N14075 G1 X103.007 Y9.58
N14080 G2 X104.421 Y12.03 I1.932 J0.517
N14085 G1 X114.08 Y14.618
N14090 G2 X116.53 Y13.203 I0.518 J-1.932
N14095 G1 X117.42 Y9.879
N14100 G3 X122.729 Y26.771 I-10.628 J12.62
N14105 G1 X114.754 Y56.536
N14110 X109.7
N14115 G2 X107.7 Y58.536 J2
N14120 G1 Y67.604
N14125 G2 X109.7 Y69.604 I2
N14130 G1 X113
N14135 Y87.604
N14140 G2 X115 Y89.604 I2
N14145 G3 X115.4 Y90.004 J0.4 F150
N14150 G1 Y90.404
N14155 G19 G3 Y90.804 Z-7.1 K0.4
N14160 G0 Z5
N14165 X114.6
N14170 G1 Z-6 F300
N14175 Z-7.6
N14180 G2 Y90.404 Z-8 J-0.4
N14185 G1 Y90.004
N14190 G17 G3 X115 Y89.604 I0.4
N14195 G1 X118.5
N14200 G2 X120.5 Y87.604 J-2
N14205 G1 Y66.001
N14210 X130.457 Y28.841
N14215 G2 X113.133 Y-1.165 I-23.665 J-6.341
N14220 X83.127 Y16.159 I-6.341 J23.665
N14225 G1 X63.068 Y91.018
N14230 G2 X65 Y93.536 I1.932 J0.518
N14235 G1 X77.5
N14240 G2 X79.5 Y91.536 J-2
N14245 G1 Y81.536
N14250 G2 X77.5 Y79.536 I-2
N14255 G1 X74.427
N14260 X90.854 Y18.229
N14265 G3 X103.898 Y6.256 I15.938 J4.271
N14270 G1 X103.007 Y9.58
N14275 G2 X104.421 Y12.03 I1.932 J0.517
N14280 G1 X114.08 Y14.618
N14285 G2 X116.53 Y13.203 I0.518 J-1.932
N14290 G1 X117.42 Y9.879
N14295 G3 X122.729 Y26.771 I-10.628 J12.62
N14300 G1 X114.754 Y56.536
N14305 X109.7
N14310 G2 X107.7 Y58.536 J2
N14315 G1 Y67.604
N14320 G2 X109.7 Y69.604 I2
N14325 G1 X113
N14330 Y87.604
N14335 G2 X115 Y89.604 I2
N14340 G3 X115.4 Y90.004 J0.4 F150
N14345 G1 Y90.404
N14350 G19 G3 Y90.804 Z-7.6 K0.4
N14355 G0 Z5
N14360 X114.6
N14365 G1 Z-6.5 F300
N14370 Z-8.1
N14375 G2 Y90.404 Z-8.5 J-0.4
N14380 G1 Y90.004
N14385 G17 G3 X115 Y89.604 I0.4
N14390 G1 X118.5
N14395 G2 X120.5 Y87.604 J-2
N14400 G1 Y66.001
N14405 X130.457 Y28.841
N14410 G2 X113.133 Y-1.165 I-23.665 J-6.341
N14415 X83.127 Y16.159 I-6.341 J23.665
N14420 G1 X63.068 Y91.018
N14425 G2 X65 Y93.536 I1.932 J0.518
N14430 G1 X77.5
N14435 G2 X79.5 Y91.536 J-2
N14440 G1 Y81.536
N14445 G2 X77.5 Y79.536 I-2
N14450 G1 X74.427
N14455 X90.854 Y18.229
N14460 G3 X103.898 Y6.256 I15.938 J4.271
N14465 G1 X103.007 Y9.58
N14470 G2 X104.421 Y12.03 I1.932 J0.517
N14475 G1 X114.08 Y14.618
N14480 G2 X116.53 Y13.203 I0.518 J-1.932
N14485 G1 X117.42 Y9.879
N14490 G3 X122.729 Y26.771 I-10.628 J12.62
N14495 G1 X114.754 Y56.536
N14500 X109.7
N14505 G2 X107.7 Y58.536 J2
N14510 G1 Y67.604
N14515 G2 X109.7 Y69.604 I2
N14520 G1 X113
N14525 Y87.604
N14530 G2 X115 Y89.604 I2
N14535 G3 X115.4 Y90.004 J0.4 F150
N14540 G1 Y90.404
N14545 G19 G3 Y90.804 Z-8.1 K0.4
N14550 G0 Z5
N14555 X114.6
N14560 G1 Z-7 F300
N14565 Z-8.401
N14570 G2 Y90.404 Z-8.801 J-0.4
N14575 G1 Y90.004
N14580 G17 G3 X115 Y89.604 I0.4
N14585 G1 X118.5
N14590 G2 X120.5 Y87.604 J-2
N14595 G1 Y66.001
N14600 X130.457 Y28.841
N14605 G2 X113.133 Y-1.165 I-23.665 J-6.341
N14610 X83.127 Y16.159 I-6.341 J23.665
N14615 G1 X63.068 Y91.018
N14620 G2 X65 Y93.536 I1.932 J0.518
N14625 G1 X77.5
N14630 G2 X79.5 Y91.536 J-2
N14635 G1 Y81.536
N14640 G2 X77.5 Y79.536 I-2
N14645 G1 X74.427
N14650 X90.854 Y18.229
N14655 G3 X103.898 Y6.256 I15.938 J4.271
N14660 G1 X103.007 Y9.58
N14665 G2 X104.421 Y12.03 I1.932 J0.517
N14670 G1 X114.08 Y14.618
N14675 G2 X116.53 Y13.203 I0.518 J-1.932
N14680 G1 X117.42 Y9.879
N14685 G3 X122.729 Y26.771 I-10.628 J12.62
N14690 G1 X114.754 Y56.536
N14695 X109.7
N14700 G2 X107.7 Y58.536 J2
N14705 G1 Y67.604
N14710 G2 X109.7 Y69.604 I2
N14715 G1 X113
N14720 Y87.604
N14725 G2 X115 Y89.604 I2
N14730 G3 X115.4 Y90.004 J0.4 F150
N14735 G1 Y90.404
N14740 G19 G3 Y90.804 Z-8.401 K0.4
N14745 G0 Z5
N14750 X114.6
N14755 G1 Z-7.301 F300
N14760 Z-8.701
N14765 G2 Y90.404 Z-9.101 J-0.4
N14770 G1 Y90.004
N14775 G17 G3 X115 Y89.604 I0.4
N14780 G1 X118.5
N14785 G2 X120.5 Y87.604 J-2
N14790 G1 Y66.001
N14795 X130.457 Y28.841
N14800 G2 X113.133 Y-1.165 I-23.665 J-6.341
N14805 X83.127 Y16.159 I-6.341 J23.665
N14810 G1 X63.068 Y91.018
N14815 G2 X65 Y93.536 I1.932 J0.518
N14820 G1 X77.5
N14825 G2 X79.5 Y91.536 J-2
N14830 G1 Y81.536
N14835 G2 X77.5 Y79.536 I-2
N14840 G1 X74.427
N14845 X90.854 Y18.229
N14850 G3 X103.898 Y6.256 I15.938 J4.271
N14855 G1 X103.007 Y9.58
N14860 G2 X104.421 Y12.03 I1.932 J0.517
N14865 G1 X114.08 Y14.618
N14870 G2 X116.53 Y13.203 I0.518 J-1.932
N14875 G1 X117.42 Y9.879
N14880 G3 X122.729 Y26.771 I-10.628 J12.62
N14885 G1 X114.754 Y56.536
N14890 X109.7
N14895 G2 X107.7 Y58.536 J2
N14900 G1 Y67.604
N14905 G2 X109.7 Y69.604 I2
N14910 G1 X113
N14915 Y87.604
N14920 G2 X115 Y89.604 I2
N14925 G3 X115.4 Y90.004 J0.4 F150
N14930 G1 Y90.404
N14935 G19 G3 Y90.804 Z-8.701 K0.4
N14940 G0 Z15
N14945 G17
N14950 M9
N14955 G28
N14960 M30
%
