%
(1001)
(T1 D=2 CR=0 - ZMIN=-9.2 - flat end mill)
N10 G90 G94
N15 G17
N20 G21
N25 M9
N30 G28

(2D ??23)
N35 T1 M6
(0)
N40 S23873 M3
N45 G54
N50 M8
N55 G0 X-1.6 Y-0.2
N60 G43 Z15
N65 Z5
N70 G1 Z1.5 F300
N75 Z-0.3
N80 G18 G2 X-1.4 Z-0.5 I0.2
N85 G1 X-1.2
N90 G17 G3 X-1 Y0 J0.2
N95 G1 Y127.864
N100 G2 X0 Y128.864 I1
N105 G1 X3.5
N110 G2 X4.5 Y127.864 J-1
N115 G1 Y124.864
N120 X16.25
N125 G2 X17.25 Y123.864 J-1
N130 G1 Y120.864
N135 G2 X16.25 Y119.864 I-1
N140 G1 X14.25
N145 Y115.932
N150 G2 X13.25 Y114.932 I-1
N155 G1 X4.5
N160 Y12.932
N165 X13.25
N170 G2 X14.25 Y11.932 J-1
N175 G1 Y8
N180 X16.25
N185 G2 X17.25 Y7 J-1
N190 G1 Y4
N195 G2 X16.25 Y3 I-1
N200 G1 X4.5
N205 Y0
N210 G2 X3.5 Y-1 I-1
N215 G1 X0
N220 G2 X-1 Y0 J1
N225 G3 X-1.2 Y0.2 I-0.2
N230 G1 X-1.4
N235 G18 G3 X-1.6 Z-0.3 K0.2
N240 G0 Z5
N245 Y-0.2
N250 G1 Z1 F300
N255 Z-0.8
N260 G2 X-1.4 Z-1 I0.2
N265 G1 X-1.2
N270 G17 G3 X-1 Y0 J0.2
N275 G1 Y127.864
N280 G2 X0 Y128.864 I1
N285 G1 X3.5
N290 G2 X4.5 Y127.864 J-1
N295 G1 Y124.864
N300 X16.25
N305 G2 X17.25 Y123.864 J-1
N310 G1 Y120.864
N315 G2 X16.25 Y119.864 I-1
N320 G1 X14.25
N325 Y115.932
N330 G2 X13.25 Y114.932 I-1
N335 G1 X4.5
N340 Y12.932
N345 X13.25
N350 G2 X14.25 Y11.932 J-1
N355 G1 Y8
N360 X16.25
N365 G2 X17.25 Y7 J-1
N370 G1 Y4
N375 G2 X16.25 Y3 I-1
N380 G1 X4.5
N385 Y0
N390 G2 X3.5 Y-1 I-1
N395 G1 X0
N400 G2 X-1 Y0 J1
N405 G3 X-1.2 Y0.2 I-0.2
N410 G1 X-1.4
N415 G18 G3 X-1.6 Z-0.8 K0.2
N420 G0 Z5
N425 Y-0.2
N430 G1 Z0.5 F300
N435 Z-1.3
N440 G2 X-1.4 Z-1.5 I0.2
N445 G1 X-1.2
N450 G17 G3 X-1 Y0 J0.2
N455 G1 Y127.864
N460 G2 X0 Y128.864 I1
N465 G1 X3.5
N470 G2 X4.5 Y127.864 J-1
N475 G1 Y124.864
N480 X16.25
N485 G2 X17.25 Y123.864 J-1
N490 G1 Y120.864
N495 G2 X16.25 Y119.864 I-1
N500 G1 X14.25
N505 Y115.932
N510 G2 X13.25 Y114.932 I-1
N515 G1 X4.5
N520 Y12.932
N525 X13.25
N530 G2 X14.25 Y11.932 J-1
N535 G1 Y8
N540 X16.25
N545 G2 X17.25 Y7 J-1
N550 G1 Y4
N555 G2 X16.25 Y3 I-1
N560 G1 X4.5
N565 Y0
N570 G2 X3.5 Y-1 I-1
N575 G1 X0
N580 G2 X-1 Y0 J1
N585 G3 X-1.2 Y0.2 I-0.2
N590 G1 X-1.4
N595 G18 G3 X-1.6 Z-1.3 K0.2
N600 G0 Z5
N605 Y-0.2
N610 G1 Z0 F300
N615 Z-1.8
N620 G2 X-1.4 Z-2 I0.2
N625 G1 X-1.2
N630 G17 G3 X-1 Y0 J0.2
N635 G1 Y127.864
N640 G2 X0 Y128.864 I1
N645 G1 X3.5
N650 G2 X4.5 Y127.864 J-1
N655 G1 Y124.864
N660 X16.25
N665 G2 X17.25 Y123.864 J-1
N670 G1 Y120.864
N675 G2 X16.25 Y119.864 I-1
N680 G1 X14.25
N685 Y115.932
N690 G2 X13.25 Y114.932 I-1
N695 G1 X4.5
N700 Y12.932
N705 X13.25
N710 G2 X14.25 Y11.932 J-1
N715 G1 Y8
N720 X16.25
N725 G2 X17.25 Y7 J-1
N730 G1 Y4
N735 G2 X16.25 Y3 I-1
N740 G1 X4.5
N745 Y0
N750 G2 X3.5 Y-1 I-1
N755 G1 X0
N760 G2 X-1 Y0 J1
N765 G3 X-1.2 Y0.2 I-0.2
N770 G1 X-1.4
N775 G18 G3 X-1.6 Z-1.8 K0.2
N780 G0 Z5
N785 Y-0.2
N790 G1 Z-0.5 F300
N795 Z-2.3
N800 G2 X-1.4 Z-2.5 I0.2
N805 G1 X-1.2
N810 G17 G3 X-1 Y0 J0.2
N815 G1 Y127.864
N820 G2 X0 Y128.864 I1
N825 G1 X3.5
N830 G2 X4.5 Y127.864 J-1
N835 G1 Y124.864
N840 X16.25
N845 G2 X17.25 Y123.864 J-1
N850 G1 Y120.864
N855 G2 X16.25 Y119.864 I-1
N860 G1 X14.25
N865 Y115.932
N870 G2 X13.25 Y114.932 I-1
N875 G1 X4.5
N880 Y12.932
N885 X13.25
N890 G2 X14.25 Y11.932 J-1
N895 G1 Y8
N900 X16.25
N905 G2 X17.25 Y7 J-1
N910 G1 Y4
N915 G2 X16.25 Y3 I-1
N920 G1 X4.5
N925 Y0
N930 G2 X3.5 Y-1 I-1
N935 G1 X0
N940 G2 X-1 Y0 J1
N945 G3 X-1.2 Y0.2 I-0.2
N950 G1 X-1.4
N955 G18 G3 X-1.6 Z-2.3 K0.2
N960 G0 Z5
N965 Y-0.2
N970 G1 Z-1 F300
N975 Z-2.8
N980 G2 X-1.4 Z-3 I0.2
N985 G1 X-1.2
N990 G17 G3 X-1 Y0 J0.2
N995 G1 Y127.864
N1000 G2 X0 Y128.864 I1
N1005 G1 X3.5
N1010 G2 X4.5 Y127.864 J-1
N1015 G1 Y124.864
N1020 X16.25
N1025 G2 X17.25 Y123.864 J-1
N1030 G1 Y120.864
N1035 G2 X16.25 Y119.864 I-1
N1040 G1 X14.25
N1045 Y115.932
N1050 G2 X13.25 Y114.932 I-1
N1055 G1 X4.5
N1060 Y12.932
N1065 X13.25
N1070 G2 X14.25 Y11.932 J-1
N1075 G1 Y8
N1080 X16.25
N1085 G2 X17.25 Y7 J-1
N1090 G1 Y4
N1095 G2 X16.25 Y3 I-1
N1100 G1 X4.5
N1105 Y0
N1110 G2 X3.5 Y-1 I-1
N1115 G1 X0
N1120 G2 X-1 Y0 J1
N1125 G3 X-1.2 Y0.2 I-0.2
N1130 G1 X-1.4
N1135 G18 G3 X-1.6 Z-2.8 K0.2
N1140 G0 Z5
N1145 Y-0.2
N1150 G1 Z-1.5 F300
N1155 Z-3.3
N1160 G2 X-1.4 Z-3.5 I0.2
N1165 G1 X-1.2
N1170 G17 G3 X-1 Y0 J0.2
N1175 G1 Y127.864
N1180 G2 X0 Y128.864 I1
N1185 G1 X3.5
N1190 G2 X4.5 Y127.864 J-1
N1195 G1 Y124.864
N1200 X16.25
N1205 G2 X17.25 Y123.864 J-1
N1210 G1 Y120.864
N1215 G2 X16.25 Y119.864 I-1
N1220 G1 X14.25
N1225 Y115.932
N1230 G2 X13.25 Y114.932 I-1
N1235 G1 X4.5
N1240 Y12.932
N1245 X13.25
N1250 G2 X14.25 Y11.932 J-1
N1255 G1 Y8
N1260 X16.25
N1265 G2 X17.25 Y7 J-1
N1270 G1 Y4
N1275 G2 X16.25 Y3 I-1
N1280 G1 X4.5
N1285 Y0
N1290 G2 X3.5 Y-1 I-1
N1295 G1 X0
N1300 G2 X-1 Y0 J1
N1305 G3 X-1.2 Y0.2 I-0.2
N1310 G1 X-1.4
N1315 G18 G3 X-1.6 Z-3.3 K0.2
N1320 G0 Z5
N1325 Y-0.2
N1330 G1 Z-2 F300
N1335 Z-3.8
N1340 G2 X-1.4 Z-4 I0.2
N1345 G1 X-1.2
N1350 G17 G3 X-1 Y0 J0.2
N1355 G1 Y127.864
N1360 G2 X0 Y128.864 I1
N1365 G1 X3.5
N1370 G2 X4.5 Y127.864 J-1
N1375 G1 Y124.864
N1380 X16.25
N1385 G2 X17.25 Y123.864 J-1
N1390 G1 Y120.864
N1395 G2 X16.25 Y119.864 I-1
N1400 G1 X14.25
N1405 Y115.932
N1410 G2 X13.25 Y114.932 I-1
N1415 G1 X4.5
N1420 Y12.932
N1425 X13.25
N1430 G2 X14.25 Y11.932 J-1
N1435 G1 Y8
N1440 X16.25
N1445 G2 X17.25 Y7 J-1
N1450 G1 Y4
N1455 G2 X16.25 Y3 I-1
N1460 G1 X4.5
N1465 Y0
N1470 G2 X3.5 Y-1 I-1
N1475 G1 X0
N1480 G2 X-1 Y0 J1
N1485 G3 X-1.2 Y0.2 I-0.2
N1490 G1 X-1.4
N1495 G18 G3 X-1.6 Z-3.8 K0.2
N1500 G0 Z5
N1505 Y-0.2
N1510 G1 Z-2.5 F300
N1515 Z-4.3
N1520 G2 X-1.4 Z-4.5 I0.2
N1525 G1 X-1.2
N1530 G17 G3 X-1 Y0 J0.2
N1535 G1 Y127.864
N1540 G2 X0 Y128.864 I1
N1545 G1 X3.5
N1550 G2 X4.5 Y127.864 J-1
N1555 G1 Y124.864
N1560 X16.25
N1565 G2 X17.25 Y123.864 J-1
N1570 G1 Y120.864
N1575 G2 X16.25 Y119.864 I-1
N1580 G1 X14.25
N1585 Y115.932
N1590 G2 X13.25 Y114.932 I-1
N1595 G1 X4.5
N1600 Y12.932
N1605 X13.25
N1610 G2 X14.25 Y11.932 J-1
N1615 G1 Y8
N1620 X16.25
N1625 G2 X17.25 Y7 J-1
N1630 G1 Y4
N1635 G2 X16.25 Y3 I-1
N1640 G1 X4.5
N1645 Y0
N1650 G2 X3.5 Y-1 I-1
N1655 G1 X0
N1660 G2 X-1 Y0 J1
N1665 G3 X-1.2 Y0.2 I-0.2
N1670 G1 X-1.4
N1675 G18 G3 X-1.6 Z-4.3 K0.2
N1680 G0 Z5
N1685 Y-0.2
N1690 G1 Z-3 F300
N1695 Z-4.8
N1700 G2 X-1.4 Z-5 I0.2
N1705 G1 X-1.2
N1710 G17 G3 X-1 Y0 J0.2
N1715 G1 Y127.864
N1720 G2 X0 Y128.864 I1
N1725 G1 X3.5
N1730 G2 X4.5 Y127.864 J-1
N1735 G1 Y124.864
N1740 X16.25
N1745 G2 X17.25 Y123.864 J-1
N1750 G1 Y120.864
N1755 G2 X16.25 Y119.864 I-1
N1760 G1 X14.25
N1765 Y115.932
N1770 G2 X13.25 Y114.932 I-1
N1775 G1 X4.5
N1780 Y12.932
N1785 X13.25
N1790 G2 X14.25 Y11.932 J-1
N1795 G1 Y8
N1800 X16.25
N1805 G2 X17.25 Y7 J-1
N1810 G1 Y4
N1815 G2 X16.25 Y3 I-1
N1820 G1 X4.5
N1825 Y0
N1830 G2 X3.5 Y-1 I-1
N1835 G1 X0
N1840 G2 X-1 Y0 J1
N1845 G3 X-1.2 Y0.2 I-0.2
N1850 G1 X-1.4
N1855 G18 G3 X-1.6 Z-4.8 K0.2
N1860 G0 Z5
N1865 Y-0.2
N1870 G1 Z-3.5 F300
N1875 Z-5.3
N1880 G2 X-1.4 Z-5.5 I0.2
N1885 G1 X-1.2
N1890 G17 G3 X-1 Y0 J0.2
N1895 G1 Y127.864
N1900 G2 X0 Y128.864 I1
N1905 G1 X3.5
N1910 G2 X4.5 Y127.864 J-1
N1915 G1 Y124.864
N1920 X16.25
N1925 G2 X17.25 Y123.864 J-1
N1930 G1 Y120.864
N1935 G2 X16.25 Y119.864 I-1
N1940 G1 X14.25
N1945 Y115.932
N1950 G2 X13.25 Y114.932 I-1
N1955 G1 X4.5
N1960 Y12.932
N1965 X13.25
N1970 G2 X14.25 Y11.932 J-1
N1975 G1 Y8
N1980 X16.25
N1985 G2 X17.25 Y7 J-1
N1990 G1 Y4
N1995 G2 X16.25 Y3 I-1
N2000 G1 X4.5
N2005 Y0
N2010 G2 X3.5 Y-1 I-1
N2015 G1 X0
N2020 G2 X-1 Y0 J1
N2025 G3 X-1.2 Y0.2 I-0.2
N2030 G1 X-1.4
N2035 G18 G3 X-1.6 Z-5.3 K0.2
N2040 G0 Z5
N2045 Y-0.2
N2050 G1 Z-4 F300
N2055 Z-5.8
N2060 G2 X-1.4 Z-6 I0.2
N2065 G1 X-1.2
N2070 G17 G3 X-1 Y0 J0.2
N2075 G1 Y127.864
N2080 G2 X0 Y128.864 I1
N2085 G1 X3.5
N2090 G2 X4.5 Y127.864 J-1
N2095 G1 Y124.864
N2100 X16.25
N2105 G2 X17.25 Y123.864 J-1
N2110 G1 Y120.864
N2115 G2 X16.25 Y119.864 I-1
N2120 G1 X14.25
N2125 Y115.932
N2130 G2 X13.25 Y114.932 I-1
N2135 G1 X4.5
N2140 Y12.932
N2145 X13.25
N2150 G2 X14.25 Y11.932 J-1
N2155 G1 Y8
N2160 X16.25
N2165 G2 X17.25 Y7 J-1
N2170 G1 Y4
N2175 G2 X16.25 Y3 I-1
N2180 G1 X4.5
N2185 Y0
N2190 G2 X3.5 Y-1 I-1
N2195 G1 X0
N2200 G2 X-1 Y0 J1
N2205 G3 X-1.2 Y0.2 I-0.2
N2210 G1 X-1.4
N2215 G18 G3 X-1.6 Z-5.8 K0.2
N2220 G0 Z5
N2225 Y-0.2
N2230 G1 Z-4.5 F300
N2235 Z-6.3
N2240 G2 X-1.4 Z-6.5 I0.2
N2245 G1 X-1.2
N2250 G17 G3 X-1 Y0 J0.2
N2255 G1 Y127.864
N2260 G2 X0 Y128.864 I1
N2265 G1 X3.5
N2270 G2 X4.5 Y127.864 J-1
N2275 G1 Y124.864
N2280 X16.25
N2285 G2 X17.25 Y123.864 J-1
N2290 G1 Y120.864
N2295 G2 X16.25 Y119.864 I-1
N2300 G1 X14.25
N2305 Y115.932
N2310 G2 X13.25 Y114.932 I-1
N2315 G1 X4.5
N2320 Y12.932
N2325 X13.25
N2330 G2 X14.25 Y11.932 J-1
N2335 G1 Y8
N2340 X16.25
N2345 G2 X17.25 Y7 J-1
N2350 G1 Y4
N2355 G2 X16.25 Y3 I-1
N2360 G1 X4.5
N2365 Y0
N2370 G2 X3.5 Y-1 I-1
N2375 G1 X0
N2380 G2 X-1 Y0 J1
N2385 G3 X-1.2 Y0.2 I-0.2
N2390 G1 X-1.4
N2395 G18 G3 X-1.6 Z-6.3 K0.2
N2400 G0 Z5
N2405 Y-0.2
N2410 G1 Z-5 F300
N2415 Z-6.8
N2420 G2 X-1.4 Z-7 I0.2
N2425 G1 X-1.2
N2430 G17 G3 X-1 Y0 J0.2
N2435 G1 Y127.864
N2440 G2 X0 Y128.864 I1
N2445 G1 X3.5
N2450 G2 X4.5 Y127.864 J-1
N2455 G1 Y124.864
N2460 X16.25
N2465 G2 X17.25 Y123.864 J-1
N2470 G1 Y120.864
N2475 G2 X16.25 Y119.864 I-1
N2480 G1 X14.25
N2485 Y115.932
N2490 G2 X13.25 Y114.932 I-1
N2495 G1 X4.5
N2500 Y12.932
N2505 X13.25
N2510 G2 X14.25 Y11.932 J-1
N2515 G1 Y8
N2520 X16.25
N2525 G2 X17.25 Y7 J-1
N2530 G1 Y4
N2535 G2 X16.25 Y3 I-1
N2540 G1 X4.5
N2545 Y0
N2550 G2 X3.5 Y-1 I-1
N2555 G1 X0
N2560 G2 X-1 Y0 J1
N2565 G3 X-1.2 Y0.2 I-0.2
N2570 G1 X-1.4
N2575 G18 G3 X-1.6 Z-6.8 K0.2
N2580 G0 Z5
N2585 Y-0.2
N2590 G1 Z-5.5 F300
N2595 Z-7.3
N2600 G2 X-1.4 Z-7.5 I0.2
N2605 G1 X-1.2
N2610 G17 G3 X-1 Y0 J0.2
N2615 G1 Y127.864
N2620 G2 X0 Y128.864 I1
N2625 G1 X3.5
N2630 G2 X4.5 Y127.864 J-1
N2635 G1 Y124.864
N2640 X16.25
N2645 G2 X17.25 Y123.864 J-1
N2650 G1 Y120.864
N2655 G2 X16.25 Y119.864 I-1
N2660 G1 X14.25
N2665 Y115.932
N2670 G2 X13.25 Y114.932 I-1
N2675 G1 X4.5
N2680 Y12.932
N2685 X13.25
N2690 G2 X14.25 Y11.932 J-1
N2695 G1 Y8
N2700 X16.25
N2705 G2 X17.25 Y7 J-1
N2710 G1 Y4
N2715 G2 X16.25 Y3 I-1
N2720 G1 X4.5
N2725 Y0
N2730 G2 X3.5 Y-1 I-1
N2735 G1 X0
N2740 G2 X-1 Y0 J1
N2745 G3 X-1.2 Y0.2 I-0.2
N2750 G1 X-1.4
N2755 G18 G3 X-1.6 Z-7.3 K0.2
N2760 G0 Z5
N2765 Y-0.2
N2770 G1 Z-6 F300
N2775 Z-7.8
N2780 G2 X-1.4 Z-8 I0.2
N2785 G1 X-1.2
N2790 G17 G3 X-1 Y0 J0.2
N2795 G1 Y127.864
N2800 G2 X0 Y128.864 I1
N2805 G1 X3.5
N2810 G2 X4.5 Y127.864 J-1
N2815 G1 Y124.864
N2820 X16.25
N2825 G2 X17.25 Y123.864 J-1
N2830 G1 Y120.864
N2835 G2 X16.25 Y119.864 I-1
N2840 G1 X14.25
N2845 Y115.932
N2850 G2 X13.25 Y114.932 I-1
N2855 G1 X4.5
N2860 Y12.932
N2865 X13.25
N2870 G2 X14.25 Y11.932 J-1
N2875 G1 Y8
N2880 X16.25
N2885 G2 X17.25 Y7 J-1
N2890 G1 Y4
N2895 G2 X16.25 Y3 I-1
N2900 G1 X4.5
N2905 Y0
N2910 G2 X3.5 Y-1 I-1
N2915 G1 X0
N2920 G2 X-1 Y0 J1
N2925 G3 X-1.2 Y0.2 I-0.2
N2930 G1 X-1.4
N2935 G18 G3 X-1.6 Z-7.8 K0.2
N2940 G0 Z5
N2945 Y-0.2
N2950 G1 Z-6.5 F300
N2955 Z-8.3
N2960 G2 X-1.4 Z-8.5 I0.2
N2965 G1 X-1.2
N2970 G17 G3 X-1 Y0 J0.2
N2975 G1 Y127.864
N2980 G2 X0 Y128.864 I1
N2985 G1 X3.5
N2990 G2 X4.5 Y127.864 J-1
N2995 G1 Y124.864
N3000 X16.25
N3005 G2 X17.25 Y123.864 J-1
N3010 G1 Y120.864
N3015 G2 X16.25 Y119.864 I-1
N3020 G1 X14.25
N3025 Y115.932
N3030 G2 X13.25 Y114.932 I-1
N3035 G1 X4.5
N3040 Y12.932
N3045 X13.25
N3050 G2 X14.25 Y11.932 J-1
N3055 G1 Y8
N3060 X16.25
N3065 G2 X17.25 Y7 J-1
N3070 G1 Y4
N3075 G2 X16.25 Y3 I-1
N3080 G1 X4.5
N3085 Y0
N3090 G2 X3.5 Y-1 I-1
N3095 G1 X0
N3100 G2 X-1 Y0 J1
N3105 G3 X-1.2 Y0.2 I-0.2
N3110 G1 X-1.4
N3115 G18 G3 X-1.6 Z-8.3 K0.2
N3120 G0 Z5
N3125 Y-0.2
N3130 G1 Z-7 F300
N3135 Z-8.8
N3140 G2 X-1.4 Z-9 I0.2
N3145 G1 X-1.2
N3150 G17 G3 X-1 Y0 J0.2
N3155 G1 Y127.864
N3160 G2 X0 Y128.864 I1
N3165 G1 X3.5
N3170 G2 X4.5 Y127.864 J-1
N3175 G1 Y124.864
N3180 X16.25
N3185 G2 X17.25 Y123.864 J-1
N3190 G1 Y120.864
N3195 G2 X16.25 Y119.864 I-1
N3200 G1 X14.25
N3205 Y115.932
N3210 G2 X13.25 Y114.932 I-1
N3215 G1 X4.5
N3220 Y12.932
N3225 X13.25
N3230 G2 X14.25 Y11.932 J-1
N3235 G1 Y8
N3240 X16.25
N3245 G2 X17.25 Y7 J-1
N3250 G1 Y4
N3255 G2 X16.25 Y3 I-1
N3260 G1 X4.5
N3265 Y0
N3270 G2 X3.5 Y-1 I-1
N3275 G1 X0
N3280 G2 X-1 Y0 J1
N3285 G3 X-1.2 Y0.2 I-0.2
N3290 G1 X-1.4
N3295 G18 G3 X-1.6 Z-8.8 K0.2
N3300 G0 Z5
N3305 Y-0.2
N3310 G1 Z-7.5 F300
N3315 Z-9
N3320 G2 X-1.4 Z-9.2 I0.2
N3325 G1 X-1.2
N3330 G17 G3 X-1 Y0 J0.2
N3335 G1 Y127.864
N3340 G2 X0 Y128.864 I1
N3345 G1 X3.5
N3350 G2 X4.5 Y127.864 J-1
N3355 G1 Y124.864
N3360 X16.25
N3365 G2 X17.25 Y123.864 J-1
N3370 G1 Y120.864
N3375 G2 X16.25 Y119.864 I-1
N3380 G1 X14.25
N3385 Y115.932
N3390 G2 X13.25 Y114.932 I-1
N3395 G1 X4.5
N3400 Y12.932
N3405 X13.25
N3410 G2 X14.25 Y11.932 J-1
N3415 G1 Y8
N3420 X16.25
N3425 G2 X17.25 Y7 J-1
N3430 G1 Y4
N3435 G2 X16.25 Y3 I-1
N3440 G1 X4.5
N3445 Y0
N3450 G2 X3.5 Y-1 I-1
N3455 G1 X0
N3460 G2 X-1 Y0 J1
N3465 G3 X-1.2 Y0.2 I-0.2
N3470 G1 X-1.4
N3475 G18 G3 X-1.6 Z-9 K0.2
N3480 G0 Z15
N3485 G17
N3490 M9
N3495 G28
N3500 M30
%
