%
(1001)
(T2 D=4 CR=0 - ZMIN=-9.2 - flat end mill)
N10 G90 G94
N15 G17
N20 G21
N25 M9
N30 G28

(2D ????17)
N35 T2 M6
N40 S10000 M3
N45 G54
N50 M8
N55 G0 X16.333 Y78.635
N60 G43 Z15
N65 Z5
N70 G1 Z-0.1 F300
N75 X16.325 Z-0.178
N80 X16.302 Z-0.253
N85 X16.265 Z-0.322
N90 X16.216 Y78.634 Z-0.383
N95 X16.155 Z-0.433
N100 X16.086 Z-0.47
N105 X16.011 Z-0.492
N110 X15.933 Y78.633 Z-0.5
N115 X14.897 Y78.63
N120 X9.5 Y78.61
N125 X7.607 Y78.62
N130 G3 X7.406 Y78.42 I-0.001 J-0.2
N135 G1 X7.403 Y77.546
N140 G3 X7.603 Y77.345 I0.2 J-0.001
N145 G1 X14.883
N150 G3 X15.083 Y77.545 J0.2
N155 G1 Y79.8
N160 G3 X14.883 Y80 I-0.2
N165 G1 X7.607
N170 G3 X7.407 Y79.799 J-0.2
N175 G1 X7.417 Y76.199
N180 G3 X7.617 Y76 I0.2 J0.001
N185 G1 X14.893
N190 X14.942 Y76.006
N195 X14.988 Y76.024
N200 X15.029 Y76.053
N205 X15.061 Y76.091
N210 X15.082 Y76.135
N215 X15.844 Y78.368
N220 G3 X15.654 Y78.632 I-0.189 J0.065
N225 G1 X15.575 Z-0.508
N230 X15.5 Z-0.531
N235 X15.43 Y78.631 Z-0.568
N240 X15.37 Z-0.619
N245 X15.32 Z-0.68
N250 X15.283 Z-0.75
N255 X15.246 Z-0.82
N260 X15.197 Z-0.881
N265 X15.136 Y78.63 Z-0.932
N270 X15.066 Z-0.969
N275 X14.991 Z-0.992
N280 X14.912 Z-1
N285 X14.897
N290 X9.5 Y78.61
N295 X7.607 Y78.62
N300 G3 X7.406 Y78.42 I-0.001 J-0.2
N305 G1 X7.403 Y77.546
N310 G3 X7.603 Y77.345 I0.2 J-0.001
N315 G1 X14.883
N320 G3 X15.083 Y77.545 J0.2
N325 G1 Y79.8
N330 G3 X14.883 Y80 I-0.2
N335 G1 X7.607
N340 G3 X7.407 Y79.799 J-0.2
N345 G1 X7.417 Y76.199
N350 G3 X7.617 Y76 I0.2 J0.001
N355 G1 X14.893
N360 X14.942 Y76.006
N365 X14.988 Y76.024
N370 X15.029 Y76.053
N375 X15.061 Y76.091
N380 X15.082 Y76.135
N385 X15.844 Y78.368
N390 G3 X15.654 Y78.632 I-0.189 J0.065
N395 G1 X15.575 Z-1.008
N400 X15.5 Z-1.031
N405 X15.43 Y78.631 Z-1.068
N410 X15.37 Z-1.119
N415 X15.32 Z-1.18
N420 X15.283 Z-1.25
N425 X15.246 Z-1.32
N430 X15.197 Z-1.381
N435 X15.136 Y78.63 Z-1.432
N440 X15.066 Z-1.469
N445 X14.991 Z-1.492
N450 X14.912 Z-1.5
N455 X14.897
N460 X9.5 Y78.61
N465 X7.607 Y78.62
N470 G3 X7.406 Y78.42 I-0.001 J-0.2
N475 G1 X7.403 Y77.546
N480 G3 X7.603 Y77.345 I0.2 J-0.001
N485 G1 X14.883
N490 G3 X15.083 Y77.545 J0.2
N495 G1 Y79.8
N500 G3 X14.883 Y80 I-0.2
N505 G1 X7.607
N510 G3 X7.407 Y79.799 J-0.2
N515 G1 X7.417 Y76.199
N520 G3 X7.617 Y76 I0.2 J0.001
N525 G1 X14.893
N530 X14.942 Y76.006
N535 X14.988 Y76.024
N540 X15.029 Y76.053
N545 X15.061 Y76.091
N550 X15.082 Y76.135
N555 X15.844 Y78.368
N560 G3 X15.654 Y78.632 I-0.189 J0.065
N565 G1 X15.575 Z-1.508
N570 X15.5 Z-1.531
N575 X15.43 Y78.631 Z-1.568
N580 X15.37 Z-1.619
N585 X15.32 Z-1.68
N590 X15.283 Z-1.75
N595 X15.246 Z-1.82
N600 X15.197 Z-1.881
N605 X15.136 Y78.63 Z-1.932
N610 X15.066 Z-1.969
N615 X14.991 Z-1.992
N620 X14.912 Z-2
N625 X14.897
N630 X9.5 Y78.61
N635 X7.607 Y78.62
N640 G3 X7.406 Y78.42 I-0.001 J-0.2
N645 G1 X7.403 Y77.546
N650 G3 X7.603 Y77.345 I0.2 J-0.001
N655 G1 X14.883
N660 G3 X15.083 Y77.545 J0.2
N665 G1 Y79.8
N670 G3 X14.883 Y80 I-0.2
N675 G1 X7.607
N680 G3 X7.407 Y79.799 J-0.2
N685 G1 X7.417 Y76.199
N690 G3 X7.617 Y76 I0.2 J0.001
N695 G1 X14.893
N700 X14.942 Y76.006
N705 X14.988 Y76.024
N710 X15.029 Y76.053
N715 X15.061 Y76.091
N720 X15.082 Y76.135
N725 X15.844 Y78.368
N730 G3 X15.654 Y78.632 I-0.189 J0.065
N735 G1 X15.575 Z-2.008
N740 X15.5 Z-2.031
N745 X15.43 Y78.631 Z-2.068
N750 X15.37 Z-2.119
N755 X15.32 Z-2.18
N760 X15.283 Z-2.25
N765 X15.246 Z-2.32
N770 X15.197 Z-2.381
N775 X15.136 Y78.63 Z-2.432
N780 X15.066 Z-2.469
N785 X14.991 Z-2.492
N790 X14.912 Z-2.5
N795 X14.897
N800 X9.5 Y78.61
N805 X7.607 Y78.62
N810 G3 X7.406 Y78.42 I-0.001 J-0.2
N815 G1 X7.403 Y77.546
N820 G3 X7.603 Y77.345 I0.2 J-0.001
N825 G1 X14.883
N830 G3 X15.083 Y77.545 J0.2
N835 G1 Y79.8
N840 G3 X14.883 Y80 I-0.2
N845 G1 X7.607
N850 G3 X7.407 Y79.799 J-0.2
N855 G1 X7.417 Y76.199
N860 G3 X7.617 Y76 I0.2 J0.001
N865 G1 X14.893
N870 X14.942 Y76.006
N875 X14.988 Y76.024
N880 X15.029 Y76.053
N885 X15.061 Y76.091
N890 X15.082 Y76.135
N895 X15.844 Y78.368
N900 G3 X15.654 Y78.632 I-0.189 J0.065
N905 G1 X15.575 Z-2.508
N910 X15.5 Z-2.531
N915 X15.43 Y78.631 Z-2.568
N920 X15.37 Z-2.619
N925 X15.32 Z-2.68
N930 X15.283 Z-2.75
N935 X15.246 Z-2.82
N940 X15.197 Z-2.881
N945 X15.136 Y78.63 Z-2.932
N950 X15.066 Z-2.969
N955 X14.991 Z-2.992
N960 X14.912 Z-3
N965 X14.897
N970 X9.5 Y78.61
N975 X7.607 Y78.62
N980 G3 X7.406 Y78.42 I-0.001 J-0.2
N985 G1 X7.403 Y77.546
N990 G3 X7.603 Y77.345 I0.2 J-0.001
N995 G1 X14.883
N1000 G3 X15.083 Y77.545 J0.2
N1005 G1 Y79.8
N1010 G3 X14.883 Y80 I-0.2
N1015 G1 X7.607
N1020 G3 X7.407 Y79.799 J-0.2
N1025 G1 X7.417 Y76.199
N1030 G3 X7.617 Y76 I0.2 J0.001
N1035 G1 X14.893
N1040 X14.942 Y76.006
N1045 X14.988 Y76.024
N1050 X15.029 Y76.053
N1055 X15.061 Y76.091
N1060 X15.082 Y76.135
N1065 X15.844 Y78.368
N1070 G3 X15.654 Y78.632 I-0.189 J0.065
N1075 G1 X15.575 Z-3.008
N1080 X15.5 Z-3.031
N1085 X15.43 Y78.631 Z-3.068
N1090 X15.37 Z-3.119
N1095 X15.32 Z-3.18
N1100 X15.283 Z-3.25
N1105 X15.246 Z-3.32
N1110 X15.197 Z-3.381
N1115 X15.136 Y78.63 Z-3.432
N1120 X15.066 Z-3.469
N1125 X14.991 Z-3.492
N1130 X14.912 Z-3.5
N1135 X14.897
N1140 X9.5 Y78.61
N1145 X7.607 Y78.62
N1150 G3 X7.406 Y78.42 I-0.001 J-0.2
N1155 G1 X7.403 Y77.546
N1160 G3 X7.603 Y77.345 I0.2 J-0.001
N1165 G1 X14.883
N1170 G3 X15.083 Y77.545 J0.2
N1175 G1 Y79.8
N1180 G3 X14.883 Y80 I-0.2
N1185 G1 X7.607
N1190 G3 X7.407 Y79.799 J-0.2
N1195 G1 X7.417 Y76.199
N1200 G3 X7.617 Y76 I0.2 J0.001
N1205 G1 X14.893
N1210 X14.942 Y76.006
N1215 X14.988 Y76.024
N1220 X15.029 Y76.053
N1225 X15.061 Y76.091
N1230 X15.082 Y76.135
N1235 X15.844 Y78.368
N1240 G3 X15.654 Y78.632 I-0.189 J0.065
N1245 G1 X15.575 Z-3.508
N1250 X15.5 Z-3.531
N1255 X15.43 Y78.631 Z-3.568
N1260 X15.37 Z-3.619
N1265 X15.32 Z-3.68
N1270 X15.283 Z-3.75
N1275 X15.246 Z-3.82
N1280 X15.197 Z-3.881
N1285 X15.136 Y78.63 Z-3.932
N1290 X15.066 Z-3.969
N1295 X14.991 Z-3.992
N1300 X14.912 Z-4
N1305 X14.897
N1310 X9.5 Y78.61
N1315 X7.607 Y78.62
N1320 G3 X7.406 Y78.42 I-0.001 J-0.2
N1325 G1 X7.403 Y77.546
N1330 G3 X7.603 Y77.345 I0.2 J-0.001
N1335 G1 X14.883
N1340 G3 X15.083 Y77.545 J0.2
N1345 G1 Y79.8
N1350 G3 X14.883 Y80 I-0.2
N1355 G1 X7.607
N1360 G3 X7.407 Y79.799 J-0.2
N1365 G1 X7.417 Y76.199
N1370 G3 X7.617 Y76 I0.2 J0.001
N1375 G1 X14.893
N1380 X14.942 Y76.006
N1385 X14.988 Y76.024
N1390 X15.029 Y76.053
N1395 X15.061 Y76.091
N1400 X15.082 Y76.135
N1405 X15.844 Y78.368
N1410 G3 X15.654 Y78.632 I-0.189 J0.065
N1415 G1 X15.575 Z-4.008
N1420 X15.5 Z-4.031
N1425 X15.43 Y78.631 Z-4.068
N1430 X15.37 Z-4.119
N1435 X15.32 Z-4.18
N1440 X15.283 Z-4.25
N1445 X15.246 Z-4.32
N1450 X15.197 Z-4.381
N1455 X15.136 Y78.63 Z-4.432
N1460 X15.066 Z-4.469
N1465 X14.991 Z-4.492
N1470 X14.912 Z-4.5
N1475 X14.897
N1480 X9.5 Y78.61
N1485 X7.607 Y78.62
N1490 G3 X7.406 Y78.42 I-0.001 J-0.2
N1495 G1 X7.403 Y77.546
N1500 G3 X7.603 Y77.345 I0.2 J-0.001
N1505 G1 X14.883
N1510 G3 X15.083 Y77.545 J0.2
N1515 G1 Y79.8
N1520 G3 X14.883 Y80 I-0.2
N1525 G1 X7.607
N1530 G3 X7.407 Y79.799 J-0.2
N1535 G1 X7.417 Y76.199
N1540 G3 X7.617 Y76 I0.2 J0.001
N1545 G1 X14.893
N1550 X14.942 Y76.006
N1555 X14.988 Y76.024
N1560 X15.029 Y76.053
N1565 X15.061 Y76.091
N1570 X15.082 Y76.135
N1575 X15.844 Y78.368
N1580 G3 X15.654 Y78.632 I-0.189 J0.065
N1585 G1 X15.575 Z-4.508
N1590 X15.5 Z-4.531
N1595 X15.43 Y78.631 Z-4.568
N1600 X15.37 Z-4.619
N1605 X15.32 Z-4.68
N1610 X15.283 Z-4.75
N1615 X15.246 Z-4.82
N1620 X15.197 Z-4.881
N1625 X15.136 Y78.63 Z-4.932
N1630 X15.066 Z-4.969
N1635 X14.991 Z-4.992
N1640 X14.912 Z-5
N1645 X14.897
N1650 X9.5 Y78.61
N1655 X7.607 Y78.62
N1660 G3 X7.406 Y78.42 I-0.001 J-0.2
N1665 G1 X7.403 Y77.546
N1670 G3 X7.603 Y77.345 I0.2 J-0.001
N1675 G1 X14.883
N1680 G3 X15.083 Y77.545 J0.2
N1685 G1 Y79.8
N1690 G3 X14.883 Y80 I-0.2
N1695 G1 X7.607
N1700 G3 X7.407 Y79.799 J-0.2
N1705 G1 X7.417 Y76.199
N1710 G3 X7.617 Y76 I0.2 J0.001
N1715 G1 X14.893
N1720 X14.942 Y76.006
N1725 X14.988 Y76.024
N1730 X15.029 Y76.053
N1735 X15.061 Y76.091
N1740 X15.082 Y76.135
N1745 X15.844 Y78.368
N1750 G3 X15.654 Y78.632 I-0.189 J0.065
N1755 G1 X15.575 Z-5.008
N1760 X15.5 Z-5.031
N1765 X15.43 Y78.631 Z-5.068
N1770 X15.37 Z-5.119
N1775 X15.32 Z-5.18
N1780 X15.283 Z-5.25
N1785 X15.246 Z-5.32
N1790 X15.197 Z-5.381
N1795 X15.136 Y78.63 Z-5.432
N1800 X15.066 Z-5.469
N1805 X14.991 Z-5.492
N1810 X14.912 Z-5.5
N1815 X14.897
N1820 X9.5 Y78.61
N1825 X7.607 Y78.62
N1830 G3 X7.406 Y78.42 I-0.001 J-0.2
N1835 G1 X7.403 Y77.546
N1840 G3 X7.603 Y77.345 I0.2 J-0.001
N1845 G1 X14.883
N1850 G3 X15.083 Y77.545 J0.2
N1855 G1 Y79.8
N1860 G3 X14.883 Y80 I-0.2
N1865 G1 X7.607
N1870 G3 X7.407 Y79.799 J-0.2
N1875 G1 X7.417 Y76.199
N1880 G3 X7.617 Y76 I0.2 J0.001
N1885 G1 X14.893
N1890 X14.942 Y76.006
N1895 X14.988 Y76.024
N1900 X15.029 Y76.053
N1905 X15.061 Y76.091
N1910 X15.082 Y76.135
N1915 X15.844 Y78.368
N1920 G3 X15.654 Y78.632 I-0.189 J0.065
N1925 G1 X15.575 Z-5.508
N1930 X15.5 Z-5.531
N1935 X15.43 Y78.631 Z-5.568
N1940 X15.37 Z-5.619
N1945 X15.32 Z-5.68
N1950 X15.283 Z-5.75
N1955 X15.246 Z-5.82
N1960 X15.197 Z-5.881
N1965 X15.136 Y78.63 Z-5.932
N1970 X15.066 Z-5.969
N1975 X14.991 Z-5.992
N1980 X14.912 Z-6
N1985 X14.897
N1990 X9.5 Y78.61
N1995 X7.607 Y78.62
N2000 G3 X7.406 Y78.42 I-0.001 J-0.2
N2005 G1 X7.403 Y77.546
N2010 G3 X7.603 Y77.345 I0.2 J-0.001
N2015 G1 X14.883
N2020 G3 X15.083 Y77.545 J0.2
N2025 G1 Y79.8
N2030 G3 X14.883 Y80 I-0.2
N2035 G1 X7.607
N2040 G3 X7.407 Y79.799 J-0.2
N2045 G1 X7.417 Y76.199
N2050 G3 X7.617 Y76 I0.2 J0.001
N2055 G1 X14.893
N2060 X14.942 Y76.006
N2065 X14.988 Y76.024
N2070 X15.029 Y76.053
N2075 X15.061 Y76.091
N2080 X15.082 Y76.135
N2085 X15.844 Y78.368
N2090 G3 X15.654 Y78.632 I-0.189 J0.065
N2095 G1 X15.575 Z-6.008
N2100 X15.5 Z-6.031
N2105 X15.43 Y78.631 Z-6.068
N2110 X15.37 Z-6.119
N2115 X15.32 Z-6.18
N2120 X15.283 Z-6.25
N2125 X15.246 Z-6.32
N2130 X15.197 Z-6.381
N2135 X15.136 Y78.63 Z-6.432
N2140 X15.066 Z-6.469
N2145 X14.991 Z-6.492
N2150 X14.912 Z-6.5
N2155 X14.897
N2160 X9.5 Y78.61
N2165 X7.607 Y78.62
N2170 G3 X7.406 Y78.42 I-0.001 J-0.2
N2175 G1 X7.403 Y77.546
N2180 G3 X7.603 Y77.345 I0.2 J-0.001
N2185 G1 X14.883
N2190 G3 X15.083 Y77.545 J0.2
N2195 G1 Y79.8
N2200 G3 X14.883 Y80 I-0.2
N2205 G1 X7.607
N2210 G3 X7.407 Y79.799 J-0.2
N2215 G1 X7.417 Y76.199
N2220 G3 X7.617 Y76 I0.2 J0.001
N2225 G1 X14.893
N2230 X14.942 Y76.006
N2235 X14.988 Y76.024
N2240 X15.029 Y76.053
N2245 X15.061 Y76.091
N2250 X15.082 Y76.135
N2255 X15.844 Y78.368
N2260 G3 X15.654 Y78.632 I-0.189 J0.065
N2265 G1 X15.575 Z-6.508
N2270 X15.5 Z-6.531
N2275 X15.43 Y78.631 Z-6.568
N2280 X15.37 Z-6.619
N2285 X15.32 Z-6.68
N2290 X15.283 Z-6.75
N2295 X15.246 Z-6.82
N2300 X15.197 Z-6.881
N2305 X15.136 Y78.63 Z-6.932
N2310 X15.066 Z-6.969
N2315 X14.991 Z-6.992
N2320 X14.912 Z-7
N2325 X14.897
N2330 X9.5 Y78.61
N2335 X7.607 Y78.62
N2340 G3 X7.406 Y78.42 I-0.001 J-0.2
N2345 G1 X7.403 Y77.546
N2350 G3 X7.603 Y77.345 I0.2 J-0.001
N2355 G1 X14.883
N2360 G3 X15.083 Y77.545 J0.2
N2365 G1 Y79.8
N2370 G3 X14.883 Y80 I-0.2
N2375 G1 X7.607
N2380 G3 X7.407 Y79.799 J-0.2
N2385 G1 X7.417 Y76.199
N2390 G3 X7.617 Y76 I0.2 J0.001
N2395 G1 X14.893
N2400 X14.942 Y76.006
N2405 X14.988 Y76.024
N2410 X15.029 Y76.053
N2415 X15.061 Y76.091
N2420 X15.082 Y76.135
N2425 X15.844 Y78.368
N2430 G3 X15.654 Y78.632 I-0.189 J0.065
N2435 G1 X15.575 Z-7.008
N2440 X15.5 Z-7.031
N2445 X15.43 Y78.631 Z-7.068
N2450 X15.37 Z-7.119
N2455 X15.32 Z-7.18
N2460 X15.283 Z-7.25
N2465 X15.246 Z-7.32
N2470 X15.197 Z-7.381
N2475 X15.136 Y78.63 Z-7.432
N2480 X15.066 Z-7.469
N2485 X14.991 Z-7.492
N2490 X14.912 Z-7.5
N2495 X14.897
N2500 X9.5 Y78.61
N2505 X7.607 Y78.62
N2510 G3 X7.406 Y78.42 I-0.001 J-0.2
N2515 G1 X7.403 Y77.546
N2520 G3 X7.603 Y77.345 I0.2 J-0.001
N2525 G1 X14.883
N2530 G3 X15.083 Y77.545 J0.2
N2535 G1 Y79.8
N2540 G3 X14.883 Y80 I-0.2
N2545 G1 X7.607
N2550 G3 X7.407 Y79.799 J-0.2
N2555 G1 X7.417 Y76.199
N2560 G3 X7.617 Y76 I0.2 J0.001
N2565 G1 X14.893
N2570 X14.942 Y76.006
N2575 X14.988 Y76.024
N2580 X15.029 Y76.053
N2585 X15.061 Y76.091
N2590 X15.082 Y76.135
N2595 X15.844 Y78.368
N2600 G3 X15.654 Y78.632 I-0.189 J0.065
N2605 G1 X15.575 Z-7.508
N2610 X15.5 Z-7.531
N2615 X15.43 Y78.631 Z-7.568
N2620 X15.37 Z-7.619
N2625 X15.32 Z-7.68
N2630 X15.283 Z-7.75
N2635 X15.246 Z-7.82
N2640 X15.197 Z-7.881
N2645 X15.136 Y78.63 Z-7.932
N2650 X15.066 Z-7.969
N2655 X14.991 Z-7.992
N2660 X14.912 Z-8
N2665 X14.897
N2670 X9.5 Y78.61
N2675 X7.607 Y78.62
N2680 G3 X7.406 Y78.42 I-0.001 J-0.2
N2685 G1 X7.403 Y77.546
N2690 G3 X7.603 Y77.345 I0.2 J-0.001
N2695 G1 X14.883
N2700 G3 X15.083 Y77.545 J0.2
N2705 G1 Y79.8
N2710 G3 X14.883 Y80 I-0.2
N2715 G1 X7.607
N2720 G3 X7.407 Y79.799 J-0.2
N2725 G1 X7.417 Y76.199
N2730 G3 X7.617 Y76 I0.2 J0.001
N2735 G1 X14.893
N2740 X14.942 Y76.006
N2745 X14.988 Y76.024
N2750 X15.029 Y76.053
N2755 X15.061 Y76.091
N2760 X15.082 Y76.135
N2765 X15.844 Y78.368
N2770 G3 X15.654 Y78.632 I-0.189 J0.065
N2775 G1 X15.575 Z-8.008
N2780 X15.5 Z-8.031
N2785 X15.43 Y78.631 Z-8.068
N2790 X15.37 Z-8.119
N2795 X15.32 Z-8.18
N2800 X15.283 Z-8.25
N2805 X15.246 Z-8.32
N2810 X15.197 Z-8.381
N2815 X15.136 Y78.63 Z-8.432
N2820 X15.066 Z-8.469
N2825 X14.991 Z-8.492
N2830 X14.912 Z-8.5
N2835 X14.897
N2840 X9.5 Y78.61
N2845 X7.607 Y78.62
N2850 G3 X7.406 Y78.42 I-0.001 J-0.2
N2855 G1 X7.403 Y77.546
N2860 G3 X7.603 Y77.345 I0.2 J-0.001
N2865 G1 X14.883
N2870 G3 X15.083 Y77.545 J0.2
N2875 G1 Y79.8
N2880 G3 X14.883 Y80 I-0.2
N2885 G1 X7.607
N2890 G3 X7.407 Y79.799 J-0.2
N2895 G1 X7.417 Y76.199
N2900 G3 X7.617 Y76 I0.2 J0.001
N2905 G1 X14.893
N2910 X14.942 Y76.006
N2915 X14.988 Y76.024
N2920 X15.029 Y76.053
N2925 X15.061 Y76.091
N2930 X15.082 Y76.135
N2935 X15.844 Y78.368
N2940 G3 X15.654 Y78.632 I-0.189 J0.065
N2945 G1 X15.575 Z-8.508
N2950 X15.5 Z-8.531
N2955 X15.43 Y78.631 Z-8.568
N2960 X15.37 Z-8.619
N2965 X15.32 Z-8.68
N2970 X15.283 Z-8.75
N2975 X15.246 Z-8.82
N2980 X15.197 Z-8.881
N2985 X15.136 Y78.63 Z-8.932
N2990 X15.066 Z-8.969
N2995 X14.991 Z-8.992
N3000 X14.912 Z-9
N3005 X14.897
N3010 X9.5 Y78.61
N3015 X7.607 Y78.62
N3020 G3 X7.406 Y78.42 I-0.001 J-0.2
N3025 G1 X7.403 Y77.546
N3030 G3 X7.603 Y77.345 I0.2 J-0.001
N3035 G1 X14.883
N3040 G3 X15.083 Y77.545 J0.2
N3045 G1 Y79.8
N3050 G3 X14.883 Y80 I-0.2
N3055 G1 X7.607
N3060 G3 X7.407 Y79.799 J-0.2
N3065 G1 X7.417 Y76.199
N3070 G3 X7.617 Y76 I0.2 J0.001
N3075 G1 X14.893
N3080 X14.946 Y76.007
N3085 X14.994 Y76.028
N3090 X15.036 Y76.06
N3095 X15.068 Y76.103
N3100 X15.087 Y76.152
N3105 X15.636 Y78.384
N3110 G3 X15.441 Y78.632 I-0.194 J0.048
N3115 G1 X15.37 Y78.631 Z-9.007
N3120 X15.3 Z-9.026
N3125 X15.235 Z-9.057
N3130 X15.177 Z-9.1
N3135 X15.119 Y78.63 Z-9.143
N3140 X15.054 Z-9.174
N3145 X14.984 Z-9.193
N3150 X14.912 Z-9.2
N3155 X14.897
N3160 X9.5 Y78.61
N3165 X7.607 Y78.62
N3170 G3 X7.406 Y78.42 I-0.001 J-0.2
N3175 G1 X7.403 Y77.546
N3180 G3 X7.603 Y77.345 I0.2 J-0.001
N3185 G1 X14.883
N3190 G3 X15.083 Y77.545 J0.2
N3195 G1 Y79.8
N3200 G3 X14.883 Y80 I-0.2
N3205 G1 X7.607
N3210 G3 X7.407 Y79.799 J-0.2
N3215 G1 X7.417 Y76.199
N3220 G3 X7.617 Y76 I0.2 J0.001
N3225 G1 X14.893
N3230 X14.956 Y76.005
N3235 X15.99 Y76.169
N3240 X16.067 Y76.181 Z-9.192
N3245 X16.141 Y76.193 Z-9.17
N3250 X16.209 Y76.203 Z-9.133
N3255 X16.269 Y76.213 Z-9.083
N3260 X16.318 Y76.221 Z-9.022
N3265 X16.355 Y76.227 Z-8.953
N3270 X16.377 Y76.23 Z-8.878
N3275 X16.385 Y76.231 Z-8.8
N3280 G0 Z15

(2D ??25)
N3285 X15.487 Y121.215
N3290 Z15
N3295 Z5
N3300 G1 Z1.5 F300
N3305 Z-0.1
N3310 X15.48 Y121.213 Z-0.178
N3315 X15.458 Y121.207 Z-0.253
N3320 X15.422 Y121.197 Z-0.322
N3325 X15.374 Y121.184 Z-0.383
N3330 X15.316 Y121.169 Z-0.433
N3335 X15.249 Y121.151 Z-0.47
N3340 X15.176 Y121.131 Z-0.492
N3345 X15.101 Y121.111 Z-0.5
N3350 X14.715 Y121.008
N3355 G3 X14.432 Y120.518 I0.104 J-0.386
N3360 G1 X14.932 Y118.652
N3365 G2 X15 Y118.134 I-1.932 J-0.518
N3370 G1 Y1.866
N3375 G2 X14.932 Y1.348 I-2
N3380 G1 X14.432 Y-0.518
N3385 G2 X12.5 Y-2 I-1.932 J0.518
N3390 G1 X0
N3395 G2 X-2 Y0 J2
N3400 G1 Y22
N3405 G2 X0 Y24 I2
N3410 G1 X7.5
N3415 Y96
N3420 X0
N3425 G2 X-2 Y98 J2
N3430 G1 Y120
N3435 G2 X0 Y122 I2
N3440 G1 X12.5
N3445 G2 X14.432 Y120.518 J-2
N3450 G3 X14.922 Y120.235 I0.386 J0.104
N3455 G1 X15.308 Y120.338
N3460 X15.383 Y120.359 Z-0.492
N3465 X15.456 Y120.378 Z-0.47
N3470 X15.523 Y120.396 Z-0.433
N3475 X15.581 Y120.412 Z-0.383
N3480 X15.629 Y120.424 Z-0.322
N3485 X15.665 Y120.434 Z-0.253
N3490 X15.687 Y120.44 Z-0.178
N3495 X15.694 Y120.442 Z-0.1
N3500 G0 Z5
N3505 X15.487 Y121.215
N3510 G1 Z1 F300
N3515 Z-0.6
N3520 X15.48 Y121.213 Z-0.678
N3525 X15.458 Y121.207 Z-0.753
N3530 X15.422 Y121.197 Z-0.822
N3535 X15.374 Y121.184 Z-0.883
N3540 X15.316 Y121.169 Z-0.933
N3545 X15.249 Y121.151 Z-0.97
N3550 X15.176 Y121.131 Z-0.992
N3555 X15.101 Y121.111 Z-1
N3560 X14.715 Y121.008
N3565 G3 X14.432 Y120.518 I0.104 J-0.386
N3570 G1 X14.932 Y118.652
N3575 G2 X15 Y118.134 I-1.932 J-0.518
N3580 G1 Y1.866
N3585 G2 X14.932 Y1.348 I-2
N3590 G1 X14.432 Y-0.518
N3595 G2 X12.5 Y-2 I-1.932 J0.518
N3600 G1 X0
N3605 G2 X-2 Y0 J2
N3610 G1 Y22
N3615 G2 X0 Y24 I2
N3620 G1 X7.5
N3625 Y96
N3630 X0
N3635 G2 X-2 Y98 J2
N3640 G1 Y120
N3645 G2 X0 Y122 I2
N3650 G1 X12.5
N3655 G2 X14.432 Y120.518 J-2
N3660 G3 X14.922 Y120.235 I0.386 J0.104
N3665 G1 X15.308 Y120.338
N3670 X15.383 Y120.359 Z-0.992
N3675 X15.456 Y120.378 Z-0.97
N3680 X15.523 Y120.396 Z-0.933
N3685 X15.581 Y120.412 Z-0.883
N3690 X15.629 Y120.424 Z-0.822
N3695 X15.665 Y120.434 Z-0.753
N3700 X15.687 Y120.44 Z-0.678
N3705 X15.694 Y120.442 Z-0.6
N3710 G0 Z5
N3715 X15.487 Y121.215
N3720 G1 Z0.5 F300
N3725 Z-1.1
N3730 X15.48 Y121.213 Z-1.178
N3735 X15.458 Y121.207 Z-1.253
N3740 X15.422 Y121.197 Z-1.322
N3745 X15.374 Y121.184 Z-1.383
N3750 X15.316 Y121.169 Z-1.433
N3755 X15.249 Y121.151 Z-1.47
N3760 X15.176 Y121.131 Z-1.492
N3765 X15.101 Y121.111 Z-1.5
N3770 X14.715 Y121.008
N3775 G3 X14.432 Y120.518 I0.104 J-0.386
N3780 G1 X14.932 Y118.652
N3785 G2 X15 Y118.134 I-1.932 J-0.518
N3790 G1 Y1.866
N3795 G2 X14.932 Y1.348 I-2
N3800 G1 X14.432 Y-0.518
N3805 G2 X12.5 Y-2 I-1.932 J0.518
N3810 G1 X0
N3815 G2 X-2 Y0 J2
N3820 G1 Y22
N3825 G2 X0 Y24 I2
N3830 G1 X7.5
N3835 Y96
N3840 X0
N3845 G2 X-2 Y98 J2
N3850 G1 Y120
N3855 G2 X0 Y122 I2
N3860 G1 X12.5
N3865 G2 X14.432 Y120.518 J-2
N3870 G3 X14.922 Y120.235 I0.386 J0.104
N3875 G1 X15.308 Y120.338
N3880 X15.383 Y120.359 Z-1.492
N3885 X15.456 Y120.378 Z-1.47
N3890 X15.523 Y120.396 Z-1.433
N3895 X15.581 Y120.412 Z-1.383
N3900 X15.629 Y120.424 Z-1.322
N3905 X15.665 Y120.434 Z-1.253
N3910 X15.687 Y120.44 Z-1.178
N3915 X15.694 Y120.442 Z-1.1
N3920 G0 Z5
N3925 X15.487 Y121.215
N3930 G1 Z0 F300
N3935 Z-1.6
N3940 X15.48 Y121.213 Z-1.678
N3945 X15.458 Y121.207 Z-1.753
N3950 X15.422 Y121.197 Z-1.822
N3955 X15.374 Y121.184 Z-1.883
N3960 X15.316 Y121.169 Z-1.933
N3965 X15.249 Y121.151 Z-1.97
N3970 X15.176 Y121.131 Z-1.992
N3975 X15.101 Y121.111 Z-2
N3980 X14.715 Y121.008
N3985 G3 X14.432 Y120.518 I0.104 J-0.386
N3990 G1 X14.932 Y118.652
N3995 G2 X15 Y118.134 I-1.932 J-0.518
N4000 G1 Y1.866
N4005 G2 X14.932 Y1.348 I-2
N4010 G1 X14.432 Y-0.518
N4015 G2 X12.5 Y-2 I-1.932 J0.518
N4020 G1 X0
N4025 G2 X-2 Y0 J2
N4030 G1 Y22
N4035 G2 X0 Y24 I2
N4040 G1 X7.5
N4045 Y96
N4050 X0
N4055 G2 X-2 Y98 J2
N4060 G1 Y120
N4065 G2 X0 Y122 I2
N4070 G1 X12.5
N4075 G2 X14.432 Y120.518 J-2
N4080 G3 X14.922 Y120.235 I0.386 J0.104
N4085 G1 X15.308 Y120.338
N4090 X15.383 Y120.359 Z-1.992
N4095 X15.456 Y120.378 Z-1.97
N4100 X15.523 Y120.396 Z-1.933
N4105 X15.581 Y120.412 Z-1.883
N4110 X15.629 Y120.424 Z-1.822
N4115 X15.665 Y120.434 Z-1.753
N4120 X15.687 Y120.44 Z-1.678
N4125 X15.694 Y120.442 Z-1.6
N4130 G0 Z5
N4135 X15.487 Y121.215
N4140 G1 Z-0.5 F300
N4145 Z-2.1
N4150 X15.48 Y121.213 Z-2.178
N4155 X15.458 Y121.207 Z-2.253
N4160 X15.422 Y121.197 Z-2.322
N4165 X15.374 Y121.184 Z-2.383
N4170 X15.316 Y121.169 Z-2.433
N4175 X15.249 Y121.151 Z-2.47
N4180 X15.176 Y121.131 Z-2.492
N4185 X15.101 Y121.111 Z-2.5
N4190 X14.715 Y121.008
N4195 G3 X14.432 Y120.518 I0.104 J-0.386
N4200 G1 X14.932 Y118.652
N4205 G2 X15 Y118.134 I-1.932 J-0.518
N4210 G1 Y1.866
N4215 G2 X14.932 Y1.348 I-2
N4220 G1 X14.432 Y-0.518
N4225 G2 X12.5 Y-2 I-1.932 J0.518
N4230 G1 X0
N4235 G2 X-2 Y0 J2
N4240 G1 Y22
N4245 G2 X0 Y24 I2
N4250 G1 X7.5
N4255 Y96
N4260 X0
N4265 G2 X-2 Y98 J2
N4270 G1 Y120
N4275 G2 X0 Y122 I2
N4280 G1 X12.5
N4285 G2 X14.432 Y120.518 J-2
N4290 G3 X14.922 Y120.235 I0.386 J0.104
N4295 G1 X15.308 Y120.338
N4300 X15.383 Y120.359 Z-2.492
N4305 X15.456 Y120.378 Z-2.47
N4310 X15.523 Y120.396 Z-2.433
N4315 X15.581 Y120.412 Z-2.383
N4320 X15.629 Y120.424 Z-2.322
N4325 X15.665 Y120.434 Z-2.253
N4330 X15.687 Y120.44 Z-2.178
N4335 X15.694 Y120.442 Z-2.1
N4340 G0 Z5
N4345 X15.487 Y121.215
N4350 G1 Z-1 F300
N4355 Z-2.6
N4360 X15.48 Y121.213 Z-2.678
N4365 X15.458 Y121.207 Z-2.753
N4370 X15.422 Y121.197 Z-2.822
N4375 X15.374 Y121.184 Z-2.883
N4380 X15.316 Y121.169 Z-2.933
N4385 X15.249 Y121.151 Z-2.97
N4390 X15.176 Y121.131 Z-2.992
N4395 X15.101 Y121.111 Z-3
N4400 X14.715 Y121.008
N4405 G3 X14.432 Y120.518 I0.104 J-0.386
N4410 G1 X14.932 Y118.652
N4415 G2 X15 Y118.134 I-1.932 J-0.518
N4420 G1 Y1.866
N4425 G2 X14.932 Y1.348 I-2
N4430 G1 X14.432 Y-0.518
N4435 G2 X12.5 Y-2 I-1.932 J0.518
N4440 G1 X0
N4445 G2 X-2 Y0 J2
N4450 G1 Y22
N4455 G2 X0 Y24 I2
N4460 G1 X7.5
N4465 Y96
N4470 X0
N4475 G2 X-2 Y98 J2
N4480 G1 Y120
N4485 G2 X0 Y122 I2
N4490 G1 X12.5
N4495 G2 X14.432 Y120.518 J-2
N4500 G3 X14.922 Y120.235 I0.386 J0.104
N4505 G1 X15.308 Y120.338
N4510 X15.383 Y120.359 Z-2.992
N4515 X15.456 Y120.378 Z-2.97
N4520 X15.523 Y120.396 Z-2.933
N4525 X15.581 Y120.412 Z-2.883
N4530 X15.629 Y120.424 Z-2.822
N4535 X15.665 Y120.434 Z-2.753
N4540 X15.687 Y120.44 Z-2.678
N4545 X15.694 Y120.442 Z-2.6
N4550 G0 Z5
N4555 X15.487 Y121.215
N4560 G1 Z-1.5 F300
N4565 Z-3.1
N4570 X15.48 Y121.213 Z-3.178
N4575 X15.458 Y121.207 Z-3.253
N4580 X15.422 Y121.197 Z-3.322
N4585 X15.374 Y121.184 Z-3.383
N4590 X15.316 Y121.169 Z-3.433
N4595 X15.249 Y121.151 Z-3.47
N4600 X15.176 Y121.131 Z-3.492
N4605 X15.101 Y121.111 Z-3.5
N4610 X14.715 Y121.008
N4615 G3 X14.432 Y120.518 I0.104 J-0.386
N4620 G1 X14.932 Y118.652
N4625 G2 X15 Y118.134 I-1.932 J-0.518
N4630 G1 Y1.866
N4635 G2 X14.932 Y1.348 I-2
N4640 G1 X14.432 Y-0.518
N4645 G2 X12.5 Y-2 I-1.932 J0.518
N4650 G1 X0
N4655 G2 X-2 Y0 J2
N4660 G1 Y22
N4665 G2 X0 Y24 I2
N4670 G1 X7.5
N4675 Y96
N4680 X0
N4685 G2 X-2 Y98 J2
N4690 G1 Y120
N4695 G2 X0 Y122 I2
N4700 G1 X12.5
N4705 G2 X14.432 Y120.518 J-2
N4710 G3 X14.922 Y120.235 I0.386 J0.104
N4715 G1 X15.308 Y120.338
N4720 X15.383 Y120.359 Z-3.492
N4725 X15.456 Y120.378 Z-3.47
N4730 X15.523 Y120.396 Z-3.433
N4735 X15.581 Y120.412 Z-3.383
N4740 X15.629 Y120.424 Z-3.322
N4745 X15.665 Y120.434 Z-3.253
N4750 X15.687 Y120.44 Z-3.178
N4755 X15.694 Y120.442 Z-3.1
N4760 G0 Z5
N4765 X15.487 Y121.215
N4770 G1 Z-2 F300
N4775 Z-3.6
N4780 X15.48 Y121.213 Z-3.678
N4785 X15.458 Y121.207 Z-3.753
N4790 X15.422 Y121.197 Z-3.822
N4795 X15.374 Y121.184 Z-3.883
N4800 X15.316 Y121.169 Z-3.933
N4805 X15.249 Y121.151 Z-3.97
N4810 X15.176 Y121.131 Z-3.992
N4815 X15.101 Y121.111 Z-4
N4820 X14.715 Y121.008
N4825 G3 X14.432 Y120.518 I0.104 J-0.386
N4830 G1 X14.932 Y118.652
N4835 G2 X15 Y118.134 I-1.932 J-0.518
N4840 G1 Y1.866
N4845 G2 X14.932 Y1.348 I-2
N4850 G1 X14.432 Y-0.518
N4855 G2 X12.5 Y-2 I-1.932 J0.518
N4860 G1 X0
N4865 G2 X-2 Y0 J2
N4870 G1 Y22
N4875 G2 X0 Y24 I2
N4880 G1 X7.5
N4885 Y96
N4890 X0
N4895 G2 X-2 Y98 J2
N4900 G1 Y120
N4905 G2 X0 Y122 I2
N4910 G1 X12.5
N4915 G2 X14.432 Y120.518 J-2
N4920 G3 X14.922 Y120.235 I0.386 J0.104
N4925 G1 X15.308 Y120.338
N4930 X15.383 Y120.359 Z-3.992
N4935 X15.456 Y120.378 Z-3.97
N4940 X15.523 Y120.396 Z-3.933
N4945 X15.581 Y120.412 Z-3.883
N4950 X15.629 Y120.424 Z-3.822
N4955 X15.665 Y120.434 Z-3.753
N4960 X15.687 Y120.44 Z-3.678
N4965 X15.694 Y120.442 Z-3.6
N4970 G0 Z5
N4975 X15.487 Y121.215
N4980 G1 Z-2.5 F300
N4985 Z-4.1
N4990 X15.48 Y121.213 Z-4.178
N4995 X15.458 Y121.207 Z-4.253
N5000 X15.422 Y121.197 Z-4.322
N5005 X15.374 Y121.184 Z-4.383
N5010 X15.316 Y121.169 Z-4.433
N5015 X15.249 Y121.151 Z-4.47
N5020 X15.176 Y121.131 Z-4.492
N5025 X15.101 Y121.111 Z-4.5
N5030 X14.715 Y121.008
N5035 G3 X14.432 Y120.518 I0.104 J-0.386
N5040 G1 X14.932 Y118.652
N5045 G2 X15 Y118.134 I-1.932 J-0.518
N5050 G1 Y1.866
N5055 G2 X14.932 Y1.348 I-2
N5060 G1 X14.432 Y-0.518
N5065 G2 X12.5 Y-2 I-1.932 J0.518
N5070 G1 X0
N5075 G2 X-2 Y0 J2
N5080 G1 Y22
N5085 G2 X0 Y24 I2
N5090 G1 X7.5
N5095 Y96
N5100 X0
N5105 G2 X-2 Y98 J2
N5110 G1 Y120
N5115 G2 X0 Y122 I2
N5120 G1 X12.5
N5125 G2 X14.432 Y120.518 J-2
N5130 G3 X14.922 Y120.235 I0.386 J0.104
N5135 G1 X15.308 Y120.338
N5140 X15.383 Y120.359 Z-4.492
N5145 X15.456 Y120.378 Z-4.47
N5150 X15.523 Y120.396 Z-4.433
N5155 X15.581 Y120.412 Z-4.383
N5160 X15.629 Y120.424 Z-4.322
N5165 X15.665 Y120.434 Z-4.253
N5170 X15.687 Y120.44 Z-4.178
N5175 X15.694 Y120.442 Z-4.1
N5180 G0 Z5
N5185 X15.487 Y121.215
N5190 G1 Z-3 F300
N5195 Z-4.6
N5200 X15.48 Y121.213 Z-4.678
N5205 X15.458 Y121.207 Z-4.753
N5210 X15.422 Y121.197 Z-4.822
N5215 X15.374 Y121.184 Z-4.883
N5220 X15.316 Y121.169 Z-4.933
N5225 X15.249 Y121.151 Z-4.97
N5230 X15.176 Y121.131 Z-4.992
N5235 X15.101 Y121.111 Z-5
N5240 X14.715 Y121.008
N5245 G3 X14.432 Y120.518 I0.104 J-0.386
N5250 G1 X14.932 Y118.652
N5255 G2 X15 Y118.134 I-1.932 J-0.518
N5260 G1 Y1.866
N5265 G2 X14.932 Y1.348 I-2
N5270 G1 X14.432 Y-0.518
N5275 G2 X12.5 Y-2 I-1.932 J0.518
N5280 G1 X0
N5285 G2 X-2 Y0 J2
N5290 G1 Y22
N5295 G2 X0 Y24 I2
N5300 G1 X7.5
N5305 Y96
N5310 X0
N5315 G2 X-2 Y98 J2
N5320 G1 Y120
N5325 G2 X0 Y122 I2
N5330 G1 X12.5
N5335 G2 X14.432 Y120.518 J-2
N5340 G3 X14.922 Y120.235 I0.386 J0.104
N5345 G1 X15.308 Y120.338
N5350 X15.383 Y120.359 Z-4.992
N5355 X15.456 Y120.378 Z-4.97
N5360 X15.523 Y120.396 Z-4.933
N5365 X15.581 Y120.412 Z-4.883
N5370 X15.629 Y120.424 Z-4.822
N5375 X15.665 Y120.434 Z-4.753
N5380 X15.687 Y120.44 Z-4.678
N5385 X15.694 Y120.442 Z-4.6
N5390 G0 Z5
N5395 X15.487 Y121.215
N5400 G1 Z-3.5 F300
N5405 Z-5.1
N5410 X15.48 Y121.213 Z-5.178
N5415 X15.458 Y121.207 Z-5.253
N5420 X15.422 Y121.197 Z-5.322
N5425 X15.374 Y121.184 Z-5.383
N5430 X15.316 Y121.169 Z-5.433
N5435 X15.249 Y121.151 Z-5.47
N5440 X15.176 Y121.131 Z-5.492
N5445 X15.101 Y121.111 Z-5.5
N5450 X14.715 Y121.008
N5455 G3 X14.432 Y120.518 I0.104 J-0.386
N5460 G1 X14.932 Y118.652
N5465 G2 X15 Y118.134 I-1.932 J-0.518
N5470 G1 Y1.866
N5475 G2 X14.932 Y1.348 I-2
N5480 G1 X14.432 Y-0.518
N5485 G2 X12.5 Y-2 I-1.932 J0.518
N5490 G1 X0
N5495 G2 X-2 Y0 J2
N5500 G1 Y22
N5505 G2 X0 Y24 I2
N5510 G1 X7.5
N5515 Y96
N5520 X0
N5525 G2 X-2 Y98 J2
N5530 G1 Y120
N5535 G2 X0 Y122 I2
N5540 G1 X12.5
N5545 G2 X14.432 Y120.518 J-2
N5550 G3 X14.922 Y120.235 I0.386 J0.104
N5555 G1 X15.308 Y120.338
N5560 X15.383 Y120.359 Z-5.492
N5565 X15.456 Y120.378 Z-5.47
N5570 X15.523 Y120.396 Z-5.433
N5575 X15.581 Y120.412 Z-5.383
N5580 X15.629 Y120.424 Z-5.322
N5585 X15.665 Y120.434 Z-5.253
N5590 X15.687 Y120.44 Z-5.178
N5595 X15.694 Y120.442 Z-5.1
N5600 G0 Z5
N5605 X15.487 Y121.215
N5610 G1 Z-4 F300
N5615 Z-5.6
N5620 X15.48 Y121.213 Z-5.678
N5625 X15.458 Y121.207 Z-5.753
N5630 X15.422 Y121.197 Z-5.822
N5635 X15.374 Y121.184 Z-5.883
N5640 X15.316 Y121.169 Z-5.933
N5645 X15.249 Y121.151 Z-5.97
N5650 X15.176 Y121.131 Z-5.992
N5655 X15.101 Y121.111 Z-6
N5660 X14.715 Y121.008
N5665 G3 X14.432 Y120.518 I0.104 J-0.386
N5670 G1 X14.932 Y118.652
N5675 G2 X15 Y118.134 I-1.932 J-0.518
N5680 G1 Y1.866
N5685 G2 X14.932 Y1.348 I-2
N5690 G1 X14.432 Y-0.518
N5695 G2 X12.5 Y-2 I-1.932 J0.518
N5700 G1 X0
N5705 G2 X-2 Y0 J2
N5710 G1 Y22
N5715 G2 X0 Y24 I2
N5720 G1 X7.5
N5725 Y96
N5730 X0
N5735 G2 X-2 Y98 J2
N5740 G1 Y120
N5745 G2 X0 Y122 I2
N5750 G1 X12.5
N5755 G2 X14.432 Y120.518 J-2
N5760 G3 X14.922 Y120.235 I0.386 J0.104
N5765 G1 X15.308 Y120.338
N5770 X15.383 Y120.359 Z-5.992
N5775 X15.456 Y120.378 Z-5.97
N5780 X15.523 Y120.396 Z-5.933
N5785 X15.581 Y120.412 Z-5.883
N5790 X15.629 Y120.424 Z-5.822
N5795 X15.665 Y120.434 Z-5.753
N5800 X15.687 Y120.44 Z-5.678
N5805 X15.694 Y120.442 Z-5.6
N5810 G0 Z5
N5815 X15.487 Y121.215
N5820 G1 Z-4.5 F300
N5825 Z-6.1
N5830 X15.48 Y121.213 Z-6.178
N5835 X15.458 Y121.207 Z-6.253
N5840 X15.422 Y121.197 Z-6.322
N5845 X15.374 Y121.184 Z-6.383
N5850 X15.316 Y121.169 Z-6.433
N5855 X15.249 Y121.151 Z-6.47
N5860 X15.176 Y121.131 Z-6.492
N5865 X15.101 Y121.111 Z-6.5
N5870 X14.715 Y121.008
N5875 G3 X14.432 Y120.518 I0.104 J-0.386
N5880 G1 X14.932 Y118.652
N5885 G2 X15 Y118.134 I-1.932 J-0.518
N5890 G1 Y1.866
N5895 G2 X14.932 Y1.348 I-2
N5900 G1 X14.432 Y-0.518
N5905 G2 X12.5 Y-2 I-1.932 J0.518
N5910 G1 X0
N5915 G2 X-2 Y0 J2
N5920 G1 Y22
N5925 G2 X0 Y24 I2
N5930 G1 X7.5
N5935 Y96
N5940 X0
N5945 G2 X-2 Y98 J2
N5950 G1 Y120
N5955 G2 X0 Y122 I2
N5960 G1 X12.5
N5965 G2 X14.432 Y120.518 J-2
N5970 G3 X14.922 Y120.235 I0.386 J0.104
N5975 G1 X15.308 Y120.338
N5980 X15.383 Y120.359 Z-6.492
N5985 X15.456 Y120.378 Z-6.47
N5990 X15.523 Y120.396 Z-6.433
N5995 X15.581 Y120.412 Z-6.383
N6000 X15.629 Y120.424 Z-6.322
N6005 X15.665 Y120.434 Z-6.253
N6010 X15.687 Y120.44 Z-6.178
N6015 X15.694 Y120.442 Z-6.1
N6020 G0 Z5
N6025 X15.487 Y121.215
N6030 G1 Z-5 F300
N6035 Z-6.6
N6040 X15.48 Y121.213 Z-6.678
N6045 X15.458 Y121.207 Z-6.753
N6050 X15.422 Y121.197 Z-6.822
N6055 X15.374 Y121.184 Z-6.883
N6060 X15.316 Y121.169 Z-6.933
N6065 X15.249 Y121.151 Z-6.97
N6070 X15.176 Y121.131 Z-6.992
N6075 X15.101 Y121.111 Z-7
N6080 X14.715 Y121.008
N6085 G3 X14.432 Y120.518 I0.104 J-0.386
N6090 G1 X14.932 Y118.652
N6095 G2 X15 Y118.134 I-1.932 J-0.518
N6100 G1 Y1.866
N6105 G2 X14.932 Y1.348 I-2
N6110 G1 X14.432 Y-0.518
N6115 G2 X12.5 Y-2 I-1.932 J0.518
N6120 G1 X0
N6125 G2 X-2 Y0 J2
N6130 G1 Y22
N6135 G2 X0 Y24 I2
N6140 G1 X7.5
N6145 Y96
N6150 X0
N6155 G2 X-2 Y98 J2
N6160 G1 Y120
N6165 G2 X0 Y122 I2
N6170 G1 X12.5
N6175 G2 X14.432 Y120.518 J-2
N6180 G3 X14.922 Y120.235 I0.386 J0.104
N6185 G1 X15.308 Y120.338
N6190 X15.383 Y120.359 Z-6.992
N6195 X15.456 Y120.378 Z-6.97
N6200 X15.523 Y120.396 Z-6.933
N6205 X15.581 Y120.412 Z-6.883
N6210 X15.629 Y120.424 Z-6.822
N6215 X15.665 Y120.434 Z-6.753
N6220 X15.687 Y120.44 Z-6.678
N6225 X15.694 Y120.442 Z-6.6
N6230 G0 Z5
N6235 X15.487 Y121.215
N6240 G1 Z-5.5 F300
N6245 Z-7.1
N6250 X15.48 Y121.213 Z-7.178
N6255 X15.458 Y121.207 Z-7.253
N6260 X15.422 Y121.197 Z-7.322
N6265 X15.374 Y121.184 Z-7.383
N6270 X15.316 Y121.169 Z-7.433
N6275 X15.249 Y121.151 Z-7.47
N6280 X15.176 Y121.131 Z-7.492
N6285 X15.101 Y121.111 Z-7.5
N6290 X14.715 Y121.008
N6295 G3 X14.432 Y120.518 I0.104 J-0.386
N6300 G1 X14.932 Y118.652
N6305 G2 X15 Y118.134 I-1.932 J-0.518
N6310 G1 Y1.866
N6315 G2 X14.932 Y1.348 I-2
N6320 G1 X14.432 Y-0.518
N6325 G2 X12.5 Y-2 I-1.932 J0.518
N6330 G1 X0
N6335 G2 X-2 Y0 J2
N6340 G1 Y22
N6345 G2 X0 Y24 I2
N6350 G1 X7.5
N6355 Y96
N6360 X0
N6365 G2 X-2 Y98 J2
N6370 G1 Y120
N6375 G2 X0 Y122 I2
N6380 G1 X12.5
N6385 G2 X14.432 Y120.518 J-2
N6390 G3 X14.922 Y120.235 I0.386 J0.104
N6395 G1 X15.308 Y120.338
N6400 X15.383 Y120.359 Z-7.492
N6405 X15.456 Y120.378 Z-7.47
N6410 X15.523 Y120.396 Z-7.433
N6415 X15.581 Y120.412 Z-7.383
N6420 X15.629 Y120.424 Z-7.322
N6425 X15.665 Y120.434 Z-7.253
N6430 X15.687 Y120.44 Z-7.178
N6435 X15.694 Y120.442 Z-7.1
N6440 G0 Z5
N6445 X15.487 Y121.215
N6450 G1 Z-6 F300
N6455 Z-7.6
N6460 X15.48 Y121.213 Z-7.678
N6465 X15.458 Y121.207 Z-7.753
N6470 X15.422 Y121.197 Z-7.822
N6475 X15.374 Y121.184 Z-7.883
N6480 X15.316 Y121.169 Z-7.933
N6485 X15.249 Y121.151 Z-7.97
N6490 X15.176 Y121.131 Z-7.992
N6495 X15.101 Y121.111 Z-8
N6500 X14.715 Y121.008
N6505 G3 X14.432 Y120.518 I0.104 J-0.386
N6510 G1 X14.932 Y118.652
N6515 G2 X15 Y118.134 I-1.932 J-0.518
N6520 G1 Y1.866
N6525 G2 X14.932 Y1.348 I-2
N6530 G1 X14.432 Y-0.518
N6535 G2 X12.5 Y-2 I-1.932 J0.518
N6540 G1 X0
N6545 G2 X-2 Y0 J2
N6550 G1 Y22
N6555 G2 X0 Y24 I2
N6560 G1 X7.5
N6565 Y96
N6570 X0
N6575 G2 X-2 Y98 J2
N6580 G1 Y120
N6585 G2 X0 Y122 I2
N6590 G1 X12.5
N6595 G2 X14.432 Y120.518 J-2
N6600 G3 X14.922 Y120.235 I0.386 J0.104
N6605 G1 X15.308 Y120.338
N6610 X15.383 Y120.359 Z-7.992
N6615 X15.456 Y120.378 Z-7.97
N6620 X15.523 Y120.396 Z-7.933
N6625 X15.581 Y120.412 Z-7.883
N6630 X15.629 Y120.424 Z-7.822
N6635 X15.665 Y120.434 Z-7.753
N6640 X15.687 Y120.44 Z-7.678
N6645 X15.694 Y120.442 Z-7.6
N6650 G0 Z5
N6655 X15.487 Y121.215
N6660 G1 Z-6.5 F300
N6665 Z-8.1
N6670 X15.48 Y121.213 Z-8.178
N6675 X15.458 Y121.207 Z-8.253
N6680 X15.422 Y121.197 Z-8.322
N6685 X15.374 Y121.184 Z-8.383
N6690 X15.316 Y121.169 Z-8.433
N6695 X15.249 Y121.151 Z-8.47
N6700 X15.176 Y121.131 Z-8.492
N6705 X15.101 Y121.111 Z-8.5
N6710 X14.715 Y121.008
N6715 G3 X14.432 Y120.518 I0.104 J-0.386
N6720 G1 X14.932 Y118.652
N6725 G2 X15 Y118.134 I-1.932 J-0.518
N6730 G1 Y1.866
N6735 G2 X14.932 Y1.348 I-2
N6740 G1 X14.432 Y-0.518
N6745 G2 X12.5 Y-2 I-1.932 J0.518
N6750 G1 X0
N6755 G2 X-2 Y0 J2
N6760 G1 Y22
N6765 G2 X0 Y24 I2
N6770 G1 X7.5
N6775 Y96
N6780 X0
N6785 G2 X-2 Y98 J2
N6790 G1 Y120
N6795 G2 X0 Y122 I2
N6800 G1 X12.5
N6805 G2 X14.432 Y120.518 J-2
N6810 G3 X14.922 Y120.235 I0.386 J0.104
N6815 G1 X15.308 Y120.338
N6820 X15.383 Y120.359 Z-8.492
N6825 X15.456 Y120.378 Z-8.47
N6830 X15.523 Y120.396 Z-8.433
N6835 X15.581 Y120.412 Z-8.383
N6840 X15.629 Y120.424 Z-8.322
N6845 X15.665 Y120.434 Z-8.253
N6850 X15.687 Y120.44 Z-8.178
N6855 X15.694 Y120.442 Z-8.1
N6860 G0 Z5
N6865 X15.487 Y121.215
N6870 G1 Z-7 F300
N6875 Z-8.6
N6880 X15.48 Y121.213 Z-8.678
N6885 X15.458 Y121.207 Z-8.753
N6890 X15.422 Y121.197 Z-8.822
N6895 X15.374 Y121.184 Z-8.883
N6900 X15.316 Y121.169 Z-8.933
N6905 X15.249 Y121.151 Z-8.97
N6910 X15.176 Y121.131 Z-8.992
N6915 X15.101 Y121.111 Z-9
N6920 X14.715 Y121.008
N6925 G3 X14.432 Y120.518 I0.104 J-0.386
N6930 G1 X14.932 Y118.652
N6935 G2 X15 Y118.134 I-1.932 J-0.518
N6940 G1 Y1.866
N6945 G2 X14.932 Y1.348 I-2
N6950 G1 X14.432 Y-0.518
N6955 G2 X12.5 Y-2 I-1.932 J0.518
N6960 G1 X0
N6965 G2 X-2 Y0 J2
N6970 G1 Y22
N6975 G2 X0 Y24 I2
N6980 G1 X7.5
N6985 Y96
N6990 X0
N6995 G2 X-2 Y98 J2
N7000 G1 Y120
N7005 G2 X0 Y122 I2
N7010 G1 X12.5
N7015 G2 X14.432 Y120.518 J-2
N7020 G3 X14.922 Y120.235 I0.386 J0.104
N7025 G1 X15.308 Y120.338
N7030 X15.383 Y120.359 Z-8.992
N7035 X15.456 Y120.378 Z-8.97
N7040 X15.523 Y120.396 Z-8.933
N7045 X15.581 Y120.412 Z-8.883
N7050 X15.629 Y120.424 Z-8.822
N7055 X15.665 Y120.434 Z-8.753
N7060 X15.687 Y120.44 Z-8.678
N7065 X15.694 Y120.442 Z-8.6
N7070 G0 Z5
N7075 X15.487 Y121.215
N7080 G1 Z-7.5 F300
N7085 Z-8.8
N7090 X15.48 Y121.213 Z-8.878
N7095 X15.458 Y121.207 Z-8.953
N7100 X15.422 Y121.197 Z-9.022
N7105 X15.374 Y121.184 Z-9.083
N7110 X15.316 Y121.169 Z-9.133
N7115 X15.249 Y121.151 Z-9.17
N7120 X15.176 Y121.131 Z-9.192
N7125 X15.101 Y121.111 Z-9.2
N7130 X14.715 Y121.008
N7135 G3 X14.432 Y120.518 I0.104 J-0.386
N7140 G1 X14.932 Y118.652
N7145 G2 X15 Y118.134 I-1.932 J-0.518
N7150 G1 Y1.866
N7155 G2 X14.932 Y1.348 I-2
N7160 G1 X14.432 Y-0.518
N7165 G2 X12.5 Y-2 I-1.932 J0.518
N7170 G1 X0
N7175 G2 X-2 Y0 J2
N7180 G1 Y22
N7185 G2 X0 Y24 I2
N7190 G1 X7.5
N7195 Y96
N7200 X0
N7205 G2 X-2 Y98 J2
N7210 G1 Y120
N7215 G2 X0 Y122 I2
N7220 G1 X12.5
N7225 G2 X14.432 Y120.518 J-2
N7230 G3 X14.922 Y120.235 I0.386 J0.104
N7235 G1 X15.308 Y120.338
N7240 X15.383 Y120.359 Z-9.192
N7245 X15.456 Y120.378 Z-9.17
N7250 X15.523 Y120.396 Z-9.133
N7255 X15.581 Y120.412 Z-9.083
N7260 X15.629 Y120.424 Z-9.022
N7265 X15.665 Y120.434 Z-8.953
N7270 X15.687 Y120.44 Z-8.878
N7275 X15.694 Y120.442 Z-8.8
N7280 G0 Z15

(2D ??29)
N7285 X4.3 Y73.6
N7290 Z15
N7295 Z5
N7300 G1 Z1.5 F300
N7305 Z-0.1
N7310 G18 G2 X4.7 Z-0.5 I0.4
N7315 G1 X5.1
N7320 G17 G3 X5.5 Y74 J0.4
N7325 G1 Y82
N7330 G3 X5.1 Y82.4 I-0.4
N7335 G1 X4.7
N7340 G18 G3 X4.3 Z-0.1 K0.4
N7345 G0 Z5
N7350 Y73.6
N7355 G1 Z1 F300
N7360 Z-0.6
N7365 G2 X4.7 Z-1 I0.4
N7370 G1 X5.1
N7375 G17 G3 X5.5 Y74 J0.4
N7380 G1 Y82
N7385 G3 X5.1 Y82.4 I-0.4
N7390 G1 X4.7
N7395 G18 G3 X4.3 Z-0.6 K0.4
N7400 G0 Z5
N7405 Y73.6
N7410 G1 Z0.5 F300
N7415 Z-1.1
N7420 G2 X4.7 Z-1.5 I0.4
N7425 G1 X5.1
N7430 G17 G3 X5.5 Y74 J0.4
N7435 G1 Y82
N7440 G3 X5.1 Y82.4 I-0.4
N7445 G1 X4.7
N7450 G18 G3 X4.3 Z-1.1 K0.4
N7455 G0 Z5
N7460 Y73.6
N7465 G1 Z0 F300
N7470 Z-1.6
N7475 G2 X4.7 Z-2 I0.4
N7480 G1 X5.1
N7485 G17 G3 X5.5 Y74 J0.4
N7490 G1 Y82
N7495 G3 X5.1 Y82.4 I-0.4
N7500 G1 X4.7
N7505 G18 G3 X4.3 Z-1.6 K0.4
N7510 G0 Z5
N7515 Y73.6
N7520 G1 Z-0.5 F300
N7525 Z-2.1
N7530 G2 X4.7 Z-2.5 I0.4
N7535 G1 X5.1
N7540 G17 G3 X5.5 Y74 J0.4
N7545 G1 Y82
N7550 G3 X5.1 Y82.4 I-0.4
N7555 G1 X4.7
N7560 G18 G3 X4.3 Z-2.1 K0.4
N7565 G0 Z5
N7570 Y73.6
N7575 G1 Z-1 F300
N7580 Z-2.6
N7585 G2 X4.7 Z-3 I0.4
N7590 G1 X5.1
N7595 G17 G3 X5.5 Y74 J0.4
N7600 G1 Y82
N7605 G3 X5.1 Y82.4 I-0.4
N7610 G1 X4.7
N7615 G18 G3 X4.3 Z-2.6 K0.4
N7620 G0 Z5
N7625 Y73.6
N7630 G1 Z-1.5 F300
N7635 Z-3.1
N7640 G2 X4.7 Z-3.5 I0.4
N7645 G1 X5.1
N7650 G17 G3 X5.5 Y74 J0.4
N7655 G1 Y82
N7660 G3 X5.1 Y82.4 I-0.4
N7665 G1 X4.7
N7670 G18 G3 X4.3 Z-3.1 K0.4
N7675 G0 Z5
N7680 Y73.6
N7685 G1 Z-2 F300
N7690 Z-3.6
N7695 G2 X4.7 Z-4 I0.4
N7700 G1 X5.1
N7705 G17 G3 X5.5 Y74 J0.4
N7710 G1 Y82
N7715 G3 X5.1 Y82.4 I-0.4
N7720 G1 X4.7
N7725 G18 G3 X4.3 Z-3.6 K0.4
N7730 G0 Z5
N7735 Y73.6
N7740 G1 Z-2.5 F300
N7745 Z-4.1
N7750 G2 X4.7 Z-4.5 I0.4
N7755 G1 X5.1
N7760 G17 G3 X5.5 Y74 J0.4
N7765 G1 Y82
N7770 G3 X5.1 Y82.4 I-0.4
N7775 G1 X4.7
N7780 G18 G3 X4.3 Z-4.1 K0.4
N7785 G0 Z5
N7790 Y73.6
N7795 G1 Z-3 F300
N7800 Z-4.6
N7805 G2 X4.7 Z-5 I0.4
N7810 G1 X5.1
N7815 G17 G3 X5.5 Y74 J0.4
N7820 G1 Y82
N7825 G3 X5.1 Y82.4 I-0.4
N7830 G1 X4.7
N7835 G18 G3 X4.3 Z-4.6 K0.4
N7840 G0 Z5
N7845 Y73.6
N7850 G1 Z-3.5 F300
N7855 Z-5.1
N7860 G2 X4.7 Z-5.5 I0.4
N7865 G1 X5.1
N7870 G17 G3 X5.5 Y74 J0.4
N7875 G1 Y82
N7880 G3 X5.1 Y82.4 I-0.4
N7885 G1 X4.7
N7890 G18 G3 X4.3 Z-5.1 K0.4
N7895 G0 Z5
N7900 Y73.6
N7905 G1 Z-4 F300
N7910 Z-5.6
N7915 G2 X4.7 Z-6 I0.4
N7920 G1 X5.1
N7925 G17 G3 X5.5 Y74 J0.4
N7930 G1 Y82
N7935 G3 X5.1 Y82.4 I-0.4
N7940 G1 X4.7
N7945 G18 G3 X4.3 Z-5.6 K0.4
N7950 G0 Z5
N7955 Y73.6
N7960 G1 Z-4.5 F300
N7965 Z-6.1
N7970 G2 X4.7 Z-6.5 I0.4
N7975 G1 X5.1
N7980 G17 G3 X5.5 Y74 J0.4
N7985 G1 Y82
N7990 G3 X5.1 Y82.4 I-0.4
N7995 G1 X4.7
N8000 G18 G3 X4.3 Z-6.1 K0.4
N8005 G0 Z5
N8010 Y73.6
N8015 G1 Z-5 F300
N8020 Z-6.6
N8025 G2 X4.7 Z-7 I0.4
N8030 G1 X5.1
N8035 G17 G3 X5.5 Y74 J0.4
N8040 G1 Y82
N8045 G3 X5.1 Y82.4 I-0.4
N8050 G1 X4.7
N8055 G18 G3 X4.3 Z-6.6 K0.4
N8060 G0 Z5
N8065 Y73.6
N8070 G1 Z-5.5 F300
N8075 Z-7.1
N8080 G2 X4.7 Z-7.5 I0.4
N8085 G1 X5.1
N8090 G17 G3 X5.5 Y74 J0.4
N8095 G1 Y82
N8100 G3 X5.1 Y82.4 I-0.4
N8105 G1 X4.7
N8110 G18 G3 X4.3 Z-7.1 K0.4
N8115 G0 Z5
N8120 Y73.6
N8125 G1 Z-6 F300
N8130 Z-7.6
N8135 G2 X4.7 Z-8 I0.4
N8140 G1 X5.1
N8145 G17 G3 X5.5 Y74 J0.4
N8150 G1 Y82
N8155 G3 X5.1 Y82.4 I-0.4
N8160 G1 X4.7
N8165 G18 G3 X4.3 Z-7.6 K0.4
N8170 G0 Z5
N8175 Y73.6
N8180 G1 Z-6.5 F300
N8185 Z-8.1
N8190 G2 X4.7 Z-8.5 I0.4
N8195 G1 X5.1
N8200 G17 G3 X5.5 Y74 J0.4
N8205 G1 Y82
N8210 G3 X5.1 Y82.4 I-0.4
N8215 G1 X4.7
N8220 G18 G3 X4.3 Z-8.1 K0.4
N8225 G0 Z5
N8230 Y73.6
N8235 G1 Z-7 F300
N8240 Z-8.6
N8245 G2 X4.7 Z-9 I0.4
N8250 G1 X5.1
N8255 G17 G3 X5.5 Y74 J0.4
N8260 G1 Y82
N8265 G3 X5.1 Y82.4 I-0.4
N8270 G1 X4.7
N8275 G18 G3 X4.3 Z-8.6 K0.4
N8280 G0 Z5
N8285 Y73.6
N8290 G1 Z-7.5 F300
N8295 Z-8.8
N8300 G2 X4.7 Z-9.2 I0.4
N8305 G1 X5.1
N8310 G17 G3 X5.5 Y74 J0.4
N8315 G1 Y82
N8320 G3 X5.1 Y82.4 I-0.4
N8325 G1 X4.7
N8330 G18 G3 X4.3 Z-8.8 K0.4
N8335 G0 Z5
N8340 X18.2
N8345 G1 Z1.5 F300
N8350 Z-0.1
N8355 G3 X17.8 Z-0.5 I-0.4
N8360 G1 X17.4
N8365 G17 G3 X17 Y82 J-0.4
N8370 G1 Y74
N8375 G3 X17.4 Y73.6 I0.4
N8380 G1 X17.8
N8385 G18 G2 X18.2 Z-0.1 K0.4
N8390 G0 Z5
N8395 Y82.4
N8400 G1 Z1 F300
N8405 Z-0.6
N8410 G3 X17.8 Z-1 I-0.4
N8415 G1 X17.4
N8420 G17 G3 X17 Y82 J-0.4
N8425 G1 Y74
N8430 G3 X17.4 Y73.6 I0.4
N8435 G1 X17.8
N8440 G18 G2 X18.2 Z-0.6 K0.4
N8445 G0 Z5
N8450 Y82.4
N8455 G1 Z0.5 F300
N8460 Z-1.1
N8465 G3 X17.8 Z-1.5 I-0.4
N8470 G1 X17.4
N8475 G17 G3 X17 Y82 J-0.4
N8480 G1 Y74
N8485 G3 X17.4 Y73.6 I0.4
N8490 G1 X17.8
N8495 G18 G2 X18.2 Z-1.1 K0.4
N8500 G0 Z5
N8505 Y82.4
N8510 G1 Z0 F300
N8515 Z-1.6
N8520 G3 X17.8 Z-2 I-0.4
N8525 G1 X17.4
N8530 G17 G3 X17 Y82 J-0.4
N8535 G1 Y74
N8540 G3 X17.4 Y73.6 I0.4
N8545 G1 X17.8
N8550 G18 G2 X18.2 Z-1.6 K0.4
N8555 G0 Z5
N8560 Y82.4
N8565 G1 Z-0.5 F300
N8570 Z-2.1
N8575 G3 X17.8 Z-2.5 I-0.4
N8580 G1 X17.4
N8585 G17 G3 X17 Y82 J-0.4
N8590 G1 Y74
N8595 G3 X17.4 Y73.6 I0.4
N8600 G1 X17.8
N8605 G18 G2 X18.2 Z-2.1 K0.4
N8610 G0 Z5
N8615 Y82.4
N8620 G1 Z-1 F300
N8625 Z-2.6
N8630 G3 X17.8 Z-3 I-0.4
N8635 G1 X17.4
N8640 G17 G3 X17 Y82 J-0.4
N8645 G1 Y74
N8650 G3 X17.4 Y73.6 I0.4
N8655 G1 X17.8
N8660 G18 G2 X18.2 Z-2.6 K0.4
N8665 G0 Z5
N8670 Y82.4
N8675 G1 Z-1.5 F300
N8680 Z-3.1
N8685 G3 X17.8 Z-3.5 I-0.4
N8690 G1 X17.4
N8695 G17 G3 X17 Y82 J-0.4
N8700 G1 Y74
N8705 G3 X17.4 Y73.6 I0.4
N8710 G1 X17.8
N8715 G18 G2 X18.2 Z-3.1 K0.4
N8720 G0 Z5
N8725 Y82.4
N8730 G1 Z-2 F300
N8735 Z-3.6
N8740 G3 X17.8 Z-4 I-0.4
N8745 G1 X17.4
N8750 G17 G3 X17 Y82 J-0.4
N8755 G1 Y74
N8760 G3 X17.4 Y73.6 I0.4
N8765 G1 X17.8
N8770 G18 G2 X18.2 Z-3.6 K0.4
N8775 G0 Z5
N8780 Y82.4
N8785 G1 Z-2.5 F300
N8790 Z-4.1
N8795 G3 X17.8 Z-4.5 I-0.4
N8800 G1 X17.4
N8805 G17 G3 X17 Y82 J-0.4
N8810 G1 Y74
N8815 G3 X17.4 Y73.6 I0.4
N8820 G1 X17.8
N8825 G18 G2 X18.2 Z-4.1 K0.4
N8830 G0 Z5
N8835 Y82.4
N8840 G1 Z-3 F300
N8845 Z-4.6
N8850 G3 X17.8 Z-5 I-0.4
N8855 G1 X17.4
N8860 G17 G3 X17 Y82 J-0.4
N8865 G1 Y74
N8870 G3 X17.4 Y73.6 I0.4
N8875 G1 X17.8
N8880 G18 G2 X18.2 Z-4.6 K0.4
N8885 G0 Z5
N8890 Y82.4
N8895 G1 Z-3.5 F300
N8900 Z-5.1
N8905 G3 X17.8 Z-5.5 I-0.4
N8910 G1 X17.4
N8915 G17 G3 X17 Y82 J-0.4
N8920 G1 Y74
N8925 G3 X17.4 Y73.6 I0.4
N8930 G1 X17.8
N8935 G18 G2 X18.2 Z-5.1 K0.4
N8940 G0 Z5
N8945 Y82.4
N8950 G1 Z-4 F300
N8955 Z-5.6
N8960 G3 X17.8 Z-6 I-0.4
N8965 G1 X17.4
N8970 G17 G3 X17 Y82 J-0.4
N8975 G1 Y74
N8980 G3 X17.4 Y73.6 I0.4
N8985 G1 X17.8
N8990 G18 G2 X18.2 Z-5.6 K0.4
N8995 G0 Z5
N9000 Y82.4
N9005 G1 Z-4.5 F300
N9010 Z-6.1
N9015 G3 X17.8 Z-6.5 I-0.4
N9020 G1 X17.4
N9025 G17 G3 X17 Y82 J-0.4
N9030 G1 Y74
N9035 G3 X17.4 Y73.6 I0.4
N9040 G1 X17.8
N9045 G18 G2 X18.2 Z-6.1 K0.4
N9050 G0 Z5
N9055 Y82.4
N9060 G1 Z-5 F300
N9065 Z-6.6
N9070 G3 X17.8 Z-7 I-0.4
N9075 G1 X17.4
N9080 G17 G3 X17 Y82 J-0.4
N9085 G1 Y74
N9090 G3 X17.4 Y73.6 I0.4
N9095 G1 X17.8
N9100 G18 G2 X18.2 Z-6.6 K0.4
N9105 G0 Z5
N9110 Y82.4
N9115 G1 Z-5.5 F300
N9120 Z-7.1
N9125 G3 X17.8 Z-7.5 I-0.4
N9130 G1 X17.4
N9135 G17 G3 X17 Y82 J-0.4
N9140 G1 Y74
N9145 G3 X17.4 Y73.6 I0.4
N9150 G1 X17.8
N9155 G18 G2 X18.2 Z-7.1 K0.4
N9160 G0 Z5
N9165 Y82.4
N9170 G1 Z-6 F300
N9175 Z-7.6
N9180 G3 X17.8 Z-8 I-0.4
N9185 G1 X17.4
N9190 G17 G3 X17 Y82 J-0.4
N9195 G1 Y74
N9200 G3 X17.4 Y73.6 I0.4
N9205 G1 X17.8
N9210 G18 G2 X18.2 Z-7.6 K0.4
N9215 G0 Z5
N9220 Y82.4
N9225 G1 Z-6.5 F300
N9230 Z-8.1
N9235 G3 X17.8 Z-8.5 I-0.4
N9240 G1 X17.4
N9245 G17 G3 X17 Y82 J-0.4
N9250 G1 Y74
N9255 G3 X17.4 Y73.6 I0.4
N9260 G1 X17.8
N9265 G18 G2 X18.2 Z-8.1 K0.4
N9270 G0 Z5
N9275 Y82.4
N9280 G1 Z-7 F300
N9285 Z-8.6
N9290 G3 X17.8 Z-9 I-0.4
N9295 G1 X17.4
N9300 G17 G3 X17 Y82 J-0.4
N9305 G1 Y74
N9310 G3 X17.4 Y73.6 I0.4
N9315 G1 X17.8
N9320 G18 G2 X18.2 Z-8.6 K0.4
N9325 G0 Z5
N9330 Y82.4
N9335 G1 Z-7.5 F300
N9340 Z-8.8
N9345 G3 X17.8 Z-9.2 I-0.4
N9350 G1 X17.4
N9355 G17 G3 X17 Y82 J-0.4
N9360 G1 Y74
N9365 G3 X17.4 Y73.6 I0.4
N9370 G1 X17.8
N9375 G18 G2 X18.2 Z-8.8 K0.4
N9380 G0 Z15
N9385 G17
N9390 M9
N9395 G28
N9400 M30
%
