%
(1001)
(T1 D=2 CR=0 - ZMIN=-4.1 - flat end mill)
N10 G90 G94
N15 G17
N20 G21
N25 M9
N30 G28

(2D ????8)
N35 T1 M6
(0)
N40 S23873 M3
N45 G54
N50 M8
N55 G0 X22.397 Y64.916
N60 G43 Z15
N65 Z5
N70 G1 Z3 F400
N75 Z-1.8
N80 Y64.909 Z-1.852
N85 Y64.889 Z-1.9
N90 Y64.857 Z-1.941
N95 Y64.816 Z-1.973
N100 Y64.768 Z-1.993
N105 Y64.716 Z-2
N110 Y64.696
N115 X22.406 Y54.036 F600
N120 G3 X41.177 I9.386
N125 G1 X41.186 Y64.688
N130 X41.179 Y64.741
N135 X41.158 Y64.79
N140 X41.125 Y64.832
N145 X41.082 Y64.864
N150 X41.032 Y64.883
N155 X21.037 Y69.546
N160 G3 X20.792 Y69.351 I-0.045 J-0.195
N165 G1 Y54.036
N170 G3 X42.792 I11
N175 G1 Y69.346
N180 X42.789 Y69.378
N185 X42.633 Y70.365
N190 X42.625 Y70.417 Z-1.993
N195 X42.617 Y70.464 Z-1.973
N200 X42.611 Y70.505 Z-1.941
N205 X42.606 Y70.536 Z-1.9
N210 X42.603 Y70.556 Z-1.852
N215 X42.602 Y70.563 Z-1.8
N220 G0 Z15

(2D ??11)
N225 X16.442 Y62.336
N230 Z15
N235 Z5
N240 G1 Z3 F600
N245 Z-1.8
N250 G18 G2 X16.642 Z-2 I0.2
N255 G1 X16.842 F400
N260 G17 G3 X17.042 Y62.536 J0.2
N265 X15.542 I-0.75 F600
N270 X17.042 I0.75
N275 X16.842 Y62.736 I-0.2
N280 G1 X16.642
N285 G18 G3 X16.442 Z-1.8 K0.2
N290 G0 Z5
N295 Y62.336
N300 G1 Z1 F600
N305 Z-2.85
N310 G2 X16.642 Z-3.05 I0.2
N315 G1 X16.842 F400
N320 G17 G3 X17.042 Y62.536 J0.2
N325 X15.542 I-0.75 F600
N330 X17.042 I0.75
N335 X16.842 Y62.736 I-0.2
N340 G1 X16.642
N345 G18 G3 X16.442 Z-2.85 K0.2
N350 G0 Z5
N355 Y62.336
N360 G1 Z-0.05 F600
N365 Z-3.9
N370 G2 X16.642 Z-4.1 I0.2
N375 G1 X16.842 F400
N380 G17 G3 X17.042 Y62.536 J0.2
N385 X15.542 I-0.75 F600
N390 X17.042 I0.75
N395 X16.842 Y62.736 I-0.2
N400 G1 X16.642
N405 G18 G3 X16.442 Z-3.9 K0.2
N410 G0 Z5
N415 X19.442 Y94.886
N420 G1 Z3 F600
N425 Z-1.8
N430 G2 X19.642 Z-2 I0.2
N435 G1 X19.842 F400
N440 G17 G3 X20.042 Y95.086 J0.2
N445 X18.542 I-0.75 F600
N450 X20.042 I0.75
N455 X19.842 Y95.286 I-0.2
N460 G1 X19.642
N465 G18 G3 X19.442 Z-1.8 K0.2
N470 G0 Z5
N475 Y94.886
N480 G1 Z1 F600
N485 Z-2.85
N490 G2 X19.642 Z-3.05 I0.2
N495 G1 X19.842 F400
N500 G17 G3 X20.042 Y95.086 J0.2
N505 X18.542 I-0.75 F600
N510 X20.042 I0.75
N515 X19.842 Y95.286 I-0.2
N520 G1 X19.642
N525 G18 G3 X19.442 Z-2.85 K0.2
N530 G0 Z5
N535 Y94.886
N540 G1 Z-0.05 F600
N545 Z-3.9
N550 G2 X19.642 Z-4.1 I0.2
N555 G1 X19.842 F400
N560 G17 G3 X20.042 Y95.086 J0.2
N565 X18.542 I-0.75 F600
N570 X20.042 I0.75
N575 X19.842 Y95.286 I-0.2
N580 G1 X19.642
N585 G18 G3 X19.442 Z-3.9 K0.2
N590 G0 Z5
N595 X56.442 Y96.336
N600 G1 Z3 F600
N605 Z-1.8
N610 G2 X56.642 Z-2 I0.2
N615 G1 X56.842 F400
N620 G17 G3 X57.042 Y96.536 J0.2
N625 X55.542 I-0.75 F600
N630 X57.042 I0.75
N635 X56.842 Y96.736 I-0.2
N640 G1 X56.642
N645 G18 G3 X56.442 Z-1.8 K0.2
N650 G0 Z5
N655 Y96.336
N660 G1 Z1 F600
N665 Z-2.85
N670 G2 X56.642 Z-3.05 I0.2
N675 G1 X56.842 F400
N680 G17 G3 X57.042 Y96.536 J0.2
N685 X55.542 I-0.75 F600
N690 X57.042 I0.75
N695 X56.842 Y96.736 I-0.2
N700 G1 X56.642
N705 G18 G3 X56.442 Z-2.85 K0.2
N710 G0 Z5
N715 Y96.336
N720 G1 Z-0.05 F600
N725 Z-3.9
N730 G2 X56.642 Z-4.1 I0.2
N735 G1 X56.842 F400
N740 G17 G3 X57.042 Y96.536 J0.2
N745 X55.542 I-0.75 F600
N750 X57.042 I0.75
N755 X56.842 Y96.736 I-0.2
N760 G1 X56.642
N765 G18 G3 X56.442 Z-3.9 K0.2
N770 G0 Z5
N775 Y86.336
N780 G1 Z3 F600
N785 Z-1.8
N790 G2 X56.642 Z-2 I0.2
N795 G1 X56.842 F400
N800 G17 G3 X57.042 Y86.536 J0.2
N805 X55.542 I-0.75 F600
N810 X57.042 I0.75
N815 X56.842 Y86.736 I-0.2
N820 G1 X56.642
N825 G18 G3 X56.442 Z-1.8 K0.2
N830 G0 Z5
N835 Y86.336
N840 G1 Z1 F600
N845 Z-2.85
N850 G2 X56.642 Z-3.05 I0.2
N855 G1 X56.842 F400
N860 G17 G3 X57.042 Y86.536 J0.2
N865 X55.542 I-0.75 F600
N870 X57.042 I0.75
N875 X56.842 Y86.736 I-0.2
N880 G1 X56.642
N885 G18 G3 X56.442 Z-2.85 K0.2
N890 G0 Z5
N895 Y86.336
N900 G1 Z-0.05 F600
N905 Z-3.9
N910 G2 X56.642 Z-4.1 I0.2
N915 G1 X56.842 F400
N920 G17 G3 X57.042 Y86.536 J0.2
N925 X55.542 I-0.75 F600
N930 X57.042 I0.75
N935 X56.842 Y86.736 I-0.2
N940 G1 X56.642
N945 G18 G3 X56.442 Z-3.9 K0.2
N950 G0 Z5
N955 Y109.336
N960 G1 Z3 F600
N965 Z-1.8
N970 G2 X56.642 Z-2 I0.2
N975 G1 X56.842 F400
N980 G17 G3 X57.042 Y109.536 J0.2
N985 X55.542 I-0.75 F600
N990 X57.042 I0.75
N995 X56.842 Y109.736 I-0.2
N1000 G1 X56.642
N1005 G18 G3 X56.442 Z-1.8 K0.2
N1010 G0 Z5
N1015 Y109.336
N1020 G1 Z1 F600
N1025 Z-2.85
N1030 G2 X56.642 Z-3.05 I0.2
N1035 G1 X56.842 F400
N1040 G17 G3 X57.042 Y109.536 J0.2
N1045 X55.542 I-0.75 F600
N1050 X57.042 I0.75
N1055 X56.842 Y109.736 I-0.2
N1060 G1 X56.642
N1065 G18 G3 X56.442 Z-2.85 K0.2
N1070 G0 Z5
N1075 Y109.336
N1080 G1 Z-0.05 F600
N1085 Z-3.9
N1090 G2 X56.642 Z-4.1 I0.2
N1095 G1 X56.842 F400
N1100 G17 G3 X57.042 Y109.536 J0.2
N1105 X55.542 I-0.75 F600
N1110 X57.042 I0.75
N1115 X56.842 Y109.736 I-0.2
N1120 G1 X56.642
N1125 G18 G3 X56.442 Z-3.9 K0.2
N1130 G0 Z5
N1135 X18.638 Y7.328
N1140 G1 Z3 F600
N1145 Z-1.8
N1150 G2 X18.838 Z-2 I0.2
N1155 G1 X19.038 F400
N1160 G17 G3 X19.238 Y7.528 J0.2
N1165 X17.738 I-0.75 F600
N1170 X19.238 I0.75
N1175 X19.038 Y7.728 I-0.2
N1180 G1 X18.838
N1185 G18 G3 X18.638 Z-1.8 K0.2
N1190 G0 Z5
N1195 Y7.328
N1200 G1 Z1 F600
N1205 Z-2.85
N1210 G2 X18.838 Z-3.05 I0.2
N1215 G1 X19.038 F400
N1220 G17 G3 X19.238 Y7.528 J0.2
N1225 X17.738 I-0.75 F600
N1230 X19.238 I0.75
N1235 X19.038 Y7.728 I-0.2
N1240 G1 X18.838
N1245 G18 G3 X18.638 Z-2.85 K0.2
N1250 G0 Z5
N1255 Y7.328
N1260 G1 Z-0.05 F600
N1265 Z-3.9
N1270 G2 X18.838 Z-4.1 I0.2
N1275 G1 X19.038 F400
N1280 G17 G3 X19.238 Y7.528 J0.2
N1285 X17.738 I-0.75 F600
N1290 X19.238 I0.75
N1295 X19.038 Y7.728 I-0.2
N1300 G1 X18.838
N1305 G18 G3 X18.638 Z-3.9 K0.2
N1310 G0 Z15
N1315 G17

(2D ??12)
N1320 G0 X39.903 Y64.024
N1325 Z15
N1330 Z5
N1335 G1 Z3 F600
N1340 Z-1.8
N1345 X39.908 Y64.019 Z-1.852
N1350 X39.924 Y64.007 Z-1.9
N1355 X39.949 Y63.988 Z-1.941
N1360 X39.982 Y63.962 Z-1.973
N1365 X40.02 Y63.933 Z-1.993
N1370 X40.061 Y63.901 Z-2
N1375 X40.22 Y63.779 F400
N1380 G3 X40.5 Y63.815 I0.122 J0.158
N1385 X23.083 Y77.256 I-8.708 J6.72 F600
N1390 Y63.815 I8.708 J-6.72
N1395 G2 X23.292 Y63.204 I-0.792 J-0.611
N1400 G1 Y54.036
N1405 G3 X40.292 I8.5
N1410 G1 Y63.204
N1415 G2 X40.5 Y63.815 I1
N1420 G3 X40.464 Y64.096 I-0.158 J0.122
N1425 G1 X40.306 Y64.218
N1430 X40.265 Y64.25 Z-1.993
N1435 X40.226 Y64.279 Z-1.973
N1440 X40.194 Y64.304 Z-1.941
N1445 X40.169 Y64.324 Z-1.9
N1450 X40.153 Y64.336 Z-1.852
N1455 X40.147 Y64.34 Z-1.8
N1460 G0 Z5
N1465 X39.692 Y63.004
N1470 G1 Z1 F600
N1475 Z-2.85
N1480 G18 G2 X39.892 Z-3.05 I0.2
N1485 G1 X40.092 F400
N1490 G17 G3 X40.292 Y63.204 J0.2
N1495 G2 X40.5 Y63.815 I1 F600
N1500 G3 X23.083 Y77.256 I-8.708 J6.72
N1505 Y63.815 I8.708 J-6.72
N1510 G2 X23.292 Y63.204 I-0.792 J-0.611
N1515 G1 Y54.036
N1520 G3 X40.292 I8.5
N1525 G1 Y63.204
N1530 G3 X40.092 Y63.404 I-0.2
N1535 G1 X39.892
N1540 G18 G3 X39.692 Z-2.85 K0.2
N1545 G0 Z5
N1550 Y63.004
N1555 G1 Z-0.05 F600
N1560 Z-3.9
N1565 G2 X39.892 Z-4.1 I0.2
N1570 G1 X40.092 F400
N1575 G17 G3 X40.292 Y63.204 J0.2
N1580 G2 X40.5 Y63.815 I1 F600
N1585 G3 X23.083 Y77.256 I-8.708 J6.72
N1590 Y63.815 I8.708 J-6.72
N1595 G2 X23.292 Y63.204 I-0.792 J-0.611
N1600 G1 Y54.036
N1605 G3 X40.292 I8.5
N1610 G1 Y63.204
N1615 G3 X40.092 Y63.404 I-0.2
N1620 G1 X39.892
N1625 G18 G3 X39.692 Z-3.9 K0.2
N1630 G0 Z5
N1635 X66.392 Y151.736
N1640 G1 Z3 F600
N1645 Z-1.8
N1650 G3 X66.192 Z-2 I-0.2
N1655 G1 X65.992 F400
N1660 G17 G3 X65.792 Y151.536 J-0.2
N1665 G1 Y93.402 F600
N1670 G2 X65.758 Y93.143 I-1
N1675 G1 X45.199 Y16.418
N1680 G2 X-0.199 Y28.582 I-22.699 J6.082
N1685 G1 X9.792 Y65.869
N1690 Y151.536
N1695 G2 X10.792 Y152.536 I1
N1700 G1 X64.792
N1705 G2 X65.792 Y151.536 J-1
N1710 G3 X65.992 Y151.336 I0.2
N1715 G1 X66.192
N1720 G18 G2 X66.392 Z-1.8 K0.2
N1725 G0 Z5
N1730 Y151.736
N1735 G1 Z1 F600
N1740 Z-2.85
N1745 G3 X66.192 Z-3.05 I-0.2
N1750 G1 X65.992 F400
N1755 G17 G3 X65.792 Y151.536 J-0.2
N1760 G1 Y93.402 F600
N1765 G2 X65.758 Y93.143 I-1
N1770 G1 X45.199 Y16.418
N1775 G2 X-0.199 Y28.582 I-22.699 J6.082
N1780 G1 X9.792 Y65.869
N1785 Y151.536
N1790 G2 X10.792 Y152.536 I1
N1795 G1 X64.792
N1800 G2 X65.792 Y151.536 J-1
N1805 G3 X65.992 Y151.336 I0.2
N1810 G1 X66.192
N1815 G18 G2 X66.392 Z-2.85 K0.2
N1820 G0 Z5
N1825 Y151.736
N1830 G1 Z-0.05 F600
N1835 Z-3.9
N1840 G3 X66.192 Z-4.1 I-0.2
N1845 G1 X65.992 F400
N1850 G17 G3 X65.792 Y151.536 J-0.2
N1855 G1 Y93.402 F600
N1860 G2 X65.758 Y93.143 I-1
N1865 G1 X45.199 Y16.418
N1870 G2 X-0.199 Y28.582 I-22.699 J6.082
N1875 G1 X9.792 Y65.869
N1880 Y151.536
N1885 G2 X10.792 Y152.536 I1
N1890 G1 X64.792
N1895 G2 X65.792 Y151.536 J-1
N1900 G3 X65.992 Y151.336 I0.2
N1905 G1 X66.192
N1910 G18 G2 X66.392 Z-3.9 K0.2
N1915 G0 Z15
N1920 G17
N1925 M9
N1930 G28
N1935 M30
%
