%
(1001)
(T1 D=2 CR=0 - ZMIN=-5.1 - flat end mill)
N10 G90 G94
N15 G17
N20 G21
N25 M9
N30 G28

(2D ????20)
N35 T1 M6
(0)
N40 S23873 M3
N45 G54
N50 M8
N55 G0 X103.395 Y87.63
N60 G43 Z15
N65 Z5
N70 G1 Z2.5 F400
N75 Z-1.3
N80 Y87.637 Z-1.352
N85 X103.394 Y87.657 Z-1.4
N90 Y87.689 Z-1.441
N95 Y87.73 Z-1.473
N100 Y87.778 Z-1.493
N105 Y87.83 Z-1.5
N110 Y87.85
N115 X103.386 Y98.51 F600
N120 G3 X84.614 I-9.386
N125 G1 X84.605 Y87.858
N130 X84.612 Y87.805
N135 X84.633 Y87.756
N140 X84.667 Y87.714
N145 X84.71 Y87.682
N150 X84.76 Y87.663
N155 X104.755 Y83
N160 G3 X105 Y83.195 I0.045 J0.195
N165 G1 Y98.51
N170 G3 X83 I-11
N175 G1 Y83.199
N180 G3 X83.241 Y83.004 I0.2
N185 G1 X103.236 Y87.247
N190 G3 X103.395 Y87.442 I-0.042 J0.196
N195 G1 Y87.494 Z-1.507 F400
N200 Y87.542 Z-1.527
N205 Y87.584 Z-1.559
N210 Y87.616 Z-1.6
N215 Y87.636 Z-1.648
N220 Y87.642 Z-1.7
N225 Z-2.8
N230 Y87.649 Z-2.852
N235 X103.394 Y87.669 Z-2.9
N240 Y87.701 Z-2.941
N245 Y87.742 Z-2.973
N250 Y87.791 Z-2.993
N255 Y87.842 Z-3
N260 Y87.85
N265 X103.386 Y98.51 F600
N270 G3 X84.614 I-9.386
N275 G1 X84.605 Y87.858
N280 X84.612 Y87.805
N285 X84.633 Y87.756
N290 X84.667 Y87.714
N295 X84.71 Y87.682
N300 X84.76 Y87.663
N305 X104.755 Y83
N310 G3 X105 Y83.195 I0.045 J0.195
N315 G1 Y98.51
N320 G3 X83 I-11
N325 G1 Y83.199
N330 X83.002 Y83.168
N335 X83.158 Y82.18
N340 X83.167 Y82.129 Z-2.993
N345 X83.174 Y82.082 Z-2.973
N350 X83.181 Y82.041 Z-2.941
N355 X83.186 Y82.009 Z-2.9
N360 X83.189 Y81.99 Z-2.852
N365 X83.19 Y81.983 Z-2.8
N370 G0 Z15
N375 X46.52 Y58.983
N380 Z5
N385 G1 Z2.7 F400
N390 X46.501 Y59.001 Z2.602 F600
N395 X46.446 Y59.045 Z2.529
N400 X46.366 Y59.1 Z2.5
N405 G3 X45.374 Y57.48 Z2.396 I-0.496 J-0.81
N410 X46.366 Y59.1 Z2.292 I0.496 J0.81
N415 X45.374 Y57.48 Z2.187 I-0.496 J-0.81
N420 X46.366 Y59.1 Z2.083 I0.496 J0.81
N425 X45.374 Y57.48 Z1.979 I-0.496 J-0.81
N430 X46.366 Y59.1 Z1.875 I0.496 J0.81
N435 X45.374 Y57.48 Z1.77 I-0.496 J-0.81
N440 X46.366 Y59.1 Z1.666 I0.496 J0.81
N445 X45.374 Y57.48 Z1.562 I-0.496 J-0.81
N450 X46.366 Y59.1 Z1.458 I0.496 J0.81
N455 X45.374 Y57.48 Z1.354 I-0.496 J-0.81
N460 X46.366 Y59.1 Z1.249 I0.496 J0.81
N465 X45.374 Y57.48 Z1.145 I-0.496 J-0.81
N470 X46.366 Y59.1 Z1.041 I0.496 J0.81
N475 X45.374 Y57.48 Z0.937 I-0.496 J-0.81
N480 X46.366 Y59.1 Z0.832 I0.496 J0.81
N485 X45.374 Y57.48 Z0.728 I-0.496 J-0.81
N490 X46.366 Y59.1 Z0.624 I0.496 J0.81
N495 X45.374 Y57.48 Z0.52 I-0.496 J-0.81
N500 X46.366 Y59.1 Z0.416 I0.496 J0.81
N505 X45.374 Y57.48 Z0.311 I-0.496 J-0.81
N510 X46.366 Y59.1 Z0.207 I0.496 J0.81
N515 X45.374 Y57.48 Z0.103 I-0.496 J-0.81
N520 X46.366 Y59.1 Z-0.001 I0.496 J0.81
N525 X45.374 Y57.48 Z-0.106 I-0.496 J-0.81
N530 X46.366 Y59.1 Z-0.21 I0.496 J0.81
N535 X45.374 Y57.48 Z-0.314 I-0.496 J-0.81
N540 X46.366 Y59.1 Z-0.418 I0.496 J0.81
N545 X45.374 Y57.48 Z-0.522 I-0.496 J-0.81
N550 X46.366 Y59.1 Z-0.627 I0.496 J0.81
N555 X45.374 Y57.48 Z-0.731 I-0.496 J-0.81
N560 X46.366 Y59.1 Z-0.835 I0.496 J0.81
N565 X45.374 Y57.48 Z-0.939 I-0.496 J-0.81
N570 X46.366 Y59.1 Z-1.044 I0.496 J0.81
N575 X45.374 Y57.48 Z-1.148 I-0.496 J-0.81
N580 X46.366 Y59.1 Z-1.252 I0.496 J0.81
N585 X45.374 Y57.48 Z-1.356 I-0.496 J-0.81
N590 X46.366 Y59.1 Z-1.46 I0.496 J0.81
N595 X45.3 Y59.05 Z-1.5 I-0.496 J-0.81
N600 X47.7 Y55.85 I1.2 J-1.6
N605 X45.3 Y59.05 I-1.2 J1.6
N610 X47.7 Y55.85 Z-1.719 I1.2 J-1.6
N615 X45.3 Y59.05 Z-1.939 I-1.2 J1.6
N620 X47.7 Y55.85 Z-2.158 I1.2 J-1.6
N625 X47.403 Y59.235 Z-2.3 I-1.2 J1.6
N630 X45.597 Y55.665 I-0.903 J-1.785
N635 X47.403 Y59.235 I0.903 J1.785
N640 G1 X47.356 Y59.251 Z-2.287
N645 X47.306 Y59.256 Z-2.273
N650 X47.27 Y59.252 Z-2.237
N655 X47.235 Y59.241 Z-2.2
N660 X47.211 Y59.229 Z-2.1
N665 G0 Z15
N670 X49.52 Y91.533
N675 Z5
N680 G1 Z2.7 F400
N685 X49.501 Y91.551 Z2.602 F600
N690 X49.446 Y91.595 Z2.529
N695 X49.366 Y91.65 Z2.5
N700 G3 X48.374 Y90.03 Z2.396 I-0.496 J-0.81
N705 X49.366 Y91.65 Z2.292 I0.496 J0.81
N710 X48.374 Y90.03 Z2.187 I-0.496 J-0.81
N715 X49.366 Y91.65 Z2.083 I0.496 J0.81
N720 X48.374 Y90.03 Z1.979 I-0.496 J-0.81
N725 X49.366 Y91.65 Z1.875 I0.496 J0.81
N730 X48.374 Y90.03 Z1.77 I-0.496 J-0.81
N735 X49.366 Y91.65 Z1.666 I0.496 J0.81
N740 X48.374 Y90.03 Z1.562 I-0.496 J-0.81
N745 X49.366 Y91.65 Z1.458 I0.496 J0.81
N750 X48.374 Y90.03 Z1.354 I-0.496 J-0.81
N755 X49.366 Y91.65 Z1.249 I0.496 J0.81
N760 X48.374 Y90.03 Z1.145 I-0.496 J-0.81
N765 X49.366 Y91.65 Z1.041 I0.496 J0.81
N770 X48.374 Y90.03 Z0.937 I-0.496 J-0.81
N775 X49.366 Y91.65 Z0.832 I0.496 J0.81
N780 X48.374 Y90.03 Z0.728 I-0.496 J-0.81
N785 X49.366 Y91.65 Z0.624 I0.496 J0.81
N790 X48.374 Y90.03 Z0.52 I-0.496 J-0.81
N795 X49.366 Y91.65 Z0.416 I0.496 J0.81
N800 X48.374 Y90.03 Z0.311 I-0.496 J-0.81
N805 X49.366 Y91.65 Z0.207 I0.496 J0.81
N810 X48.374 Y90.03 Z0.103 I-0.496 J-0.81
N815 X49.366 Y91.65 Z-0.001 I0.496 J0.81
N820 X48.374 Y90.03 Z-0.106 I-0.496 J-0.81
N825 X49.366 Y91.65 Z-0.21 I0.496 J0.81
N830 X48.374 Y90.03 Z-0.314 I-0.496 J-0.81
N835 X49.366 Y91.65 Z-0.418 I0.496 J0.81
N840 X48.374 Y90.03 Z-0.522 I-0.496 J-0.81
N845 X49.366 Y91.65 Z-0.627 I0.496 J0.81
N850 X48.374 Y90.03 Z-0.731 I-0.496 J-0.81
N855 X49.366 Y91.65 Z-0.835 I0.496 J0.81
N860 X48.374 Y90.03 Z-0.939 I-0.496 J-0.81
N865 X49.366 Y91.65 Z-1.044 I0.496 J0.81
N870 X48.374 Y90.03 Z-1.148 I-0.496 J-0.81
N875 X49.366 Y91.65 Z-1.252 I0.496 J0.81
N880 X48.374 Y90.03 Z-1.356 I-0.496 J-0.81
N885 X49.366 Y91.65 Z-1.46 I0.496 J0.81
N890 X48.3 Y91.6 Z-1.5 I-0.496 J-0.81
N895 X50.7 Y88.4 I1.2 J-1.6
N900 X48.3 Y91.6 I-1.2 J1.6
N905 X50.7 Y88.4 Z-1.719 I1.2 J-1.6
N910 X48.3 Y91.6 Z-1.939 I-1.2 J1.6
N915 X50.7 Y88.4 Z-2.158 I1.2 J-1.6
N920 X50.403 Y91.785 Z-2.3 I-1.2 J1.6
N925 X48.597 Y88.215 I-0.903 J-1.785
N930 X50.403 Y91.785 I0.903 J1.785
N935 G1 X50.356 Y91.801 Z-2.287
N940 X50.306 Y91.806 Z-2.273
N945 X50.27 Y91.802 Z-2.237
N950 X50.235 Y91.791 Z-2.2
N955 X50.211 Y91.779 Z-2.1
N960 G0 Z15
N965 X47.323 Y146.541
N970 Z5
N975 G1 Z2.7 F400
N980 X47.304 Y146.559 Z2.602 F600
N985 X47.25 Y146.603 Z2.529
N990 X47.17 Y146.658 Z2.5
N995 G3 X46.177 Y145.038 Z2.396 I-0.496 J-0.81
N1000 X47.17 Y146.658 Z2.292 I0.496 J0.81
N1005 X46.177 Y145.038 Z2.187 I-0.496 J-0.81
N1010 X47.17 Y146.658 Z2.083 I0.496 J0.81
N1015 X46.177 Y145.038 Z1.979 I-0.496 J-0.81
N1020 X47.17 Y146.658 Z1.875 I0.496 J0.81
N1025 X46.177 Y145.038 Z1.77 I-0.496 J-0.81
N1030 X47.17 Y146.658 Z1.666 I0.496 J0.81
N1035 X46.177 Y145.038 Z1.562 I-0.496 J-0.81
N1040 X47.17 Y146.658 Z1.458 I0.496 J0.81
N1045 X46.177 Y145.038 Z1.354 I-0.496 J-0.81
N1050 X47.17 Y146.658 Z1.249 I0.496 J0.81
N1055 X46.177 Y145.038 Z1.145 I-0.496 J-0.81
N1060 X47.17 Y146.658 Z1.041 I0.496 J0.81
N1065 X46.177 Y145.038 Z0.937 I-0.496 J-0.81
N1070 X47.17 Y146.658 Z0.832 I0.496 J0.81
N1075 X46.177 Y145.038 Z0.728 I-0.496 J-0.81
N1080 X47.17 Y146.658 Z0.624 I0.496 J0.81
N1085 X46.177 Y145.038 Z0.52 I-0.496 J-0.81
N1090 X47.17 Y146.658 Z0.416 I0.496 J0.81
N1095 X46.177 Y145.038 Z0.311 I-0.496 J-0.81
N1100 X47.17 Y146.658 Z0.207 I0.496 J0.81
N1105 X46.177 Y145.038 Z0.103 I-0.496 J-0.81
N1110 X47.17 Y146.658 Z-0.001 I0.496 J0.81
N1115 X46.177 Y145.038 Z-0.106 I-0.496 J-0.81
N1120 X47.17 Y146.658 Z-0.21 I0.496 J0.81
N1125 X46.177 Y145.038 Z-0.314 I-0.496 J-0.81
N1130 X47.17 Y146.658 Z-0.418 I0.496 J0.81
N1135 X46.177 Y145.038 Z-0.522 I-0.496 J-0.81
N1140 X47.17 Y146.658 Z-0.627 I0.496 J0.81
N1145 X46.177 Y145.038 Z-0.731 I-0.496 J-0.81
N1150 X47.17 Y146.658 Z-0.835 I0.496 J0.81
N1155 X46.177 Y145.038 Z-0.939 I-0.496 J-0.81
N1160 X47.17 Y146.658 Z-1.044 I0.496 J0.81
N1165 X46.177 Y145.038 Z-1.148 I-0.496 J-0.81
N1170 X47.17 Y146.658 Z-1.252 I0.496 J0.81
N1175 X46.177 Y145.038 Z-1.356 I-0.496 J-0.81
N1180 X47.17 Y146.658 Z-1.46 I0.496 J0.81
N1185 X46.104 Y146.608 Z-1.5 I-0.496 J-0.81
N1190 X48.504 Y143.408 I1.2 J-1.6
N1195 X46.104 Y146.608 I-1.2 J1.6
N1200 X48.504 Y143.408 Z-1.719 I1.2 J-1.6
N1205 X46.103 Y146.608 Z-1.939 I-1.2 J1.6
N1210 X48.504 Y143.408 Z-2.158 I1.2 J-1.6
N1215 X48.206 Y146.793 Z-2.3 I-1.2 J1.6
N1220 X46.401 Y143.223 I-0.903 J-1.785
N1225 X48.206 Y146.793 I0.903 J1.785
N1230 G1 X48.159 Y146.809 Z-2.287
N1235 X48.11 Y146.814 Z-2.273
N1240 X48.073 Y146.81 Z-2.237
N1245 X48.039 Y146.799 Z-2.2
N1250 X48.015 Y146.787 Z-2.1
N1255 G0 Z15
N1260 X54.52 Y177.533
N1265 Z5
N1270 G1 Z2.7 F400
N1275 X54.501 Y177.551 Z2.602 F600
N1280 X54.446 Y177.595 Z2.529
N1285 X54.366 Y177.65 Z2.5
N1290 G3 X53.374 Y176.03 Z2.396 I-0.496 J-0.81
N1295 X54.366 Y177.65 Z2.292 I0.496 J0.81
N1300 X53.374 Y176.03 Z2.187 I-0.496 J-0.81
N1305 X54.366 Y177.65 Z2.083 I0.496 J0.81
N1310 X53.374 Y176.03 Z1.979 I-0.496 J-0.81
N1315 X54.366 Y177.65 Z1.875 I0.496 J0.81
N1320 X53.374 Y176.03 Z1.77 I-0.496 J-0.81
N1325 X54.366 Y177.65 Z1.666 I0.496 J0.81
N1330 X53.374 Y176.03 Z1.562 I-0.496 J-0.81
N1335 X54.366 Y177.65 Z1.458 I0.496 J0.81
N1340 X53.374 Y176.03 Z1.354 I-0.496 J-0.81
N1345 X54.366 Y177.65 Z1.249 I0.496 J0.81
N1350 X53.374 Y176.03 Z1.145 I-0.496 J-0.81
N1355 X54.366 Y177.65 Z1.041 I0.496 J0.81
N1360 X53.374 Y176.03 Z0.937 I-0.496 J-0.81
N1365 X54.366 Y177.65 Z0.832 I0.496 J0.81
N1370 X53.374 Y176.03 Z0.728 I-0.496 J-0.81
N1375 X54.366 Y177.65 Z0.624 I0.496 J0.81
N1380 X53.374 Y176.03 Z0.52 I-0.496 J-0.81
N1385 X54.366 Y177.65 Z0.416 I0.496 J0.81
N1390 X53.374 Y176.03 Z0.311 I-0.496 J-0.81
N1395 X54.366 Y177.65 Z0.207 I0.496 J0.81
N1400 X53.374 Y176.03 Z0.103 I-0.496 J-0.81
N1405 X54.366 Y177.65 Z-0.001 I0.496 J0.81
N1410 X53.374 Y176.03 Z-0.106 I-0.496 J-0.81
N1415 X54.366 Y177.65 Z-0.21 I0.496 J0.81
N1420 X53.374 Y176.03 Z-0.314 I-0.496 J-0.81
N1425 X54.366 Y177.65 Z-0.418 I0.496 J0.81
N1430 X53.374 Y176.03 Z-0.522 I-0.496 J-0.81
N1435 X54.366 Y177.65 Z-0.627 I0.496 J0.81
N1440 X53.374 Y176.03 Z-0.731 I-0.496 J-0.81
N1445 X54.366 Y177.65 Z-0.835 I0.496 J0.81
N1450 X53.374 Y176.03 Z-0.939 I-0.496 J-0.81
N1455 X54.366 Y177.65 Z-1.044 I0.496 J0.81
N1460 X53.374 Y176.03 Z-1.148 I-0.496 J-0.81
N1465 X54.366 Y177.65 Z-1.252 I0.496 J0.81
N1470 X53.374 Y176.03 Z-1.356 I-0.496 J-0.81
N1475 X54.366 Y177.65 Z-1.46 I0.496 J0.81
N1480 X53.3 Y177.6 Z-1.5 I-0.496 J-0.81
N1485 X55.7 Y174.4 I1.2 J-1.6
N1490 X53.3 Y177.6 I-1.2 J1.6
N1495 X55.7 Y174.4 Z-1.719 I1.2 J-1.6
N1500 X53.3 Y177.6 Z-1.939 I-1.2 J1.6
N1505 X55.7 Y174.4 Z-2.158 I1.2 J-1.6
N1510 X55.403 Y177.785 Z-2.3 I-1.2 J1.6
N1515 X53.597 Y174.215 I-0.903 J-1.785
N1520 X55.403 Y177.785 I0.903 J1.785
N1525 G1 X55.356 Y177.801 Z-2.287
N1530 X55.306 Y177.806 Z-2.273
N1535 X55.27 Y177.802 Z-2.237
N1540 X55.235 Y177.791 Z-2.2
N1545 X55.211 Y177.779 Z-2.1
N1550 G0 Z15
N1555 X9.52 Y44.533
N1560 Z5
N1565 G1 Z2.7 F400
N1570 X9.501 Y44.551 Z2.602 F600
N1575 X9.446 Y44.595 Z2.529
N1580 X9.366 Y44.65 Z2.5
N1585 G3 X8.374 Y43.03 Z2.396 I-0.496 J-0.81
N1590 X9.366 Y44.65 Z2.292 I0.496 J0.81
N1595 X8.374 Y43.03 Z2.187 I-0.496 J-0.81
N1600 X9.366 Y44.65 Z2.083 I0.496 J0.81
N1605 X8.374 Y43.03 Z1.979 I-0.496 J-0.81
N1610 X9.366 Y44.65 Z1.875 I0.496 J0.81
N1615 X8.374 Y43.03 Z1.77 I-0.496 J-0.81
N1620 X9.366 Y44.65 Z1.666 I0.496 J0.81
N1625 X8.374 Y43.03 Z1.562 I-0.496 J-0.81
N1630 X9.366 Y44.65 Z1.458 I0.496 J0.81
N1635 X8.374 Y43.03 Z1.354 I-0.496 J-0.81
N1640 X9.366 Y44.65 Z1.249 I0.496 J0.81
N1645 X8.374 Y43.03 Z1.145 I-0.496 J-0.81
N1650 X9.366 Y44.65 Z1.041 I0.496 J0.81
N1655 X8.374 Y43.03 Z0.937 I-0.496 J-0.81
N1660 X9.366 Y44.65 Z0.832 I0.496 J0.81
N1665 X8.374 Y43.03 Z0.728 I-0.496 J-0.81
N1670 X9.366 Y44.65 Z0.624 I0.496 J0.81
N1675 X8.374 Y43.03 Z0.52 I-0.496 J-0.81
N1680 X9.366 Y44.65 Z0.416 I0.496 J0.81
N1685 X8.374 Y43.03 Z0.311 I-0.496 J-0.81
N1690 X9.366 Y44.65 Z0.207 I0.496 J0.81
N1695 X8.374 Y43.03 Z0.103 I-0.496 J-0.81
N1700 X9.366 Y44.65 Z-0.001 I0.496 J0.81
N1705 X8.374 Y43.03 Z-0.106 I-0.496 J-0.81
N1710 X9.366 Y44.65 Z-0.21 I0.496 J0.81
N1715 X8.374 Y43.03 Z-0.314 I-0.496 J-0.81
N1720 X9.366 Y44.65 Z-0.418 I0.496 J0.81
N1725 X8.374 Y43.03 Z-0.522 I-0.496 J-0.81
N1730 X9.366 Y44.65 Z-0.627 I0.496 J0.81
N1735 X8.374 Y43.03 Z-0.731 I-0.496 J-0.81
N1740 X9.366 Y44.65 Z-0.835 I0.496 J0.81
N1745 X8.374 Y43.03 Z-0.939 I-0.496 J-0.81
N1750 X9.366 Y44.65 Z-1.044 I0.496 J0.81
N1755 X8.374 Y43.03 Z-1.148 I-0.496 J-0.81
N1760 X9.366 Y44.65 Z-1.252 I0.496 J0.81
N1765 X8.374 Y43.03 Z-1.356 I-0.496 J-0.81
N1770 X9.366 Y44.65 Z-1.46 I0.496 J0.81
N1775 X8.3 Y44.6 Z-1.5 I-0.496 J-0.81
N1780 X10.7 Y41.4 I1.2 J-1.6
N1785 X8.3 Y44.6 I-1.2 J1.6
N1790 X10.7 Y41.4 Z-1.719 I1.2 J-1.6
N1795 X8.3 Y44.6 Z-1.939 I-1.2 J1.6
N1800 X10.7 Y41.4 Z-2.158 I1.2 J-1.6
N1805 X10.403 Y44.785 Z-2.3 I-1.2 J1.6
N1810 X8.597 Y41.215 I-0.903 J-1.785
N1815 X10.403 Y44.785 I0.903 J1.785
N1820 G1 X10.356 Y44.801 Z-2.287
N1825 X10.306 Y44.806 Z-2.273
N1830 X10.27 Y44.802 Z-2.237
N1835 X10.235 Y44.791 Z-2.2
N1840 X10.211 Y44.779 Z-2.1
N1845 G0 Z15
N1850 X9.52 Y67.533
N1855 Z5
N1860 G1 Z2.7 F400
N1865 X9.501 Y67.551 Z2.602 F600
N1870 X9.446 Y67.595 Z2.529
N1875 X9.366 Y67.65 Z2.5
N1880 G3 X8.374 Y66.03 Z2.396 I-0.496 J-0.81
N1885 X9.366 Y67.65 Z2.292 I0.496 J0.81
N1890 X8.374 Y66.03 Z2.187 I-0.496 J-0.81
N1895 X9.366 Y67.65 Z2.083 I0.496 J0.81
N1900 X8.374 Y66.03 Z1.979 I-0.496 J-0.81
N1905 X9.366 Y67.65 Z1.875 I0.496 J0.81
N1910 X8.374 Y66.03 Z1.77 I-0.496 J-0.81
N1915 X9.366 Y67.65 Z1.666 I0.496 J0.81
N1920 X8.374 Y66.03 Z1.562 I-0.496 J-0.81
N1925 X9.366 Y67.65 Z1.458 I0.496 J0.81
N1930 X8.374 Y66.03 Z1.354 I-0.496 J-0.81
N1935 X9.366 Y67.65 Z1.249 I0.496 J0.81
N1940 X8.374 Y66.03 Z1.145 I-0.496 J-0.81
N1945 X9.366 Y67.65 Z1.041 I0.496 J0.81
N1950 X8.374 Y66.03 Z0.937 I-0.496 J-0.81
N1955 X9.366 Y67.65 Z0.832 I0.496 J0.81
N1960 X8.374 Y66.03 Z0.728 I-0.496 J-0.81
N1965 X9.366 Y67.65 Z0.624 I0.496 J0.81
N1970 X8.374 Y66.03 Z0.52 I-0.496 J-0.81
N1975 X9.366 Y67.65 Z0.416 I0.496 J0.81
N1980 X8.374 Y66.03 Z0.311 I-0.496 J-0.81
N1985 X9.366 Y67.65 Z0.207 I0.496 J0.81
N1990 X8.374 Y66.03 Z0.103 I-0.496 J-0.81
N1995 X9.366 Y67.65 Z-0.001 I0.496 J0.81
N2000 X8.374 Y66.03 Z-0.106 I-0.496 J-0.81
N2005 X9.366 Y67.65 Z-0.21 I0.496 J0.81
N2010 X8.374 Y66.03 Z-0.314 I-0.496 J-0.81
N2015 X9.366 Y67.65 Z-0.418 I0.496 J0.81
N2020 X8.374 Y66.03 Z-0.522 I-0.496 J-0.81
N2025 X9.366 Y67.65 Z-0.627 I0.496 J0.81
N2030 X8.374 Y66.03 Z-0.731 I-0.496 J-0.81
N2035 X9.366 Y67.65 Z-0.835 I0.496 J0.81
N2040 X8.374 Y66.03 Z-0.939 I-0.496 J-0.81
N2045 X9.366 Y67.65 Z-1.044 I0.496 J0.81
N2050 X8.374 Y66.03 Z-1.148 I-0.496 J-0.81
N2055 X9.366 Y67.65 Z-1.252 I0.496 J0.81
N2060 X8.374 Y66.03 Z-1.356 I-0.496 J-0.81
N2065 X9.366 Y67.65 Z-1.46 I0.496 J0.81
N2070 X8.3 Y67.6 Z-1.5 I-0.496 J-0.81
N2075 X10.7 Y64.4 I1.2 J-1.6
N2080 X8.3 Y67.6 I-1.2 J1.6
N2085 X10.7 Y64.4 Z-1.719 I1.2 J-1.6
N2090 X8.3 Y67.6 Z-1.939 I-1.2 J1.6
N2095 X10.7 Y64.4 Z-2.158 I1.2 J-1.6
N2100 X10.403 Y67.785 Z-2.3 I-1.2 J1.6
N2105 X8.597 Y64.215 I-0.903 J-1.785
N2110 X10.403 Y67.785 I0.903 J1.785
N2115 G1 X10.356 Y67.801 Z-2.287
N2120 X10.306 Y67.806 Z-2.273
N2125 X10.27 Y67.802 Z-2.237
N2130 X10.235 Y67.791 Z-2.2
N2135 X10.211 Y67.779 Z-2.1
N2140 G0 Z15

(2D ??30)
N2145 X109.655 Y89.814
N2150 Z15
N2155 Z5
N2160 G1 Z2.5 F600
N2165 Z-1.3
N2170 X109.662 Z-1.352
N2175 X109.682 Z-1.4
N2180 X109.713 Y89.815 Z-1.441
N2185 X109.755 Y89.816 Z-1.473
N2190 X109.803 Y89.817 Z-1.493
N2195 X109.855 Y89.819 Z-1.5
N2200 X110.055 Y89.824 F400
N2205 G3 X110.25 Y90.028 I-0.005 J0.2
N2210 X108.75 Y89.992 I-0.75 J-0.018 F600
N2215 X110.25 Y90.028 I0.75 J0.018
N2220 X110.045 Y90.223 I-0.2 J-0.005
N2225 G1 X109.845 Y90.219
N2230 X109.793 Y90.217 Z-1.493
N2235 X109.745 Y90.216 Z-1.473
N2240 X109.704 Y90.215 Z-1.441
N2245 X109.672 Y90.214 Z-1.4
N2250 X109.652 Z-1.352
N2255 X109.645 Z-1.3
N2260 G0 Z5
N2265 X109.655 Y89.814
N2270 G1 Z1 F600
N2275 Z-2.1
N2280 X109.662 Z-2.152
N2285 X109.682 Z-2.2
N2290 X109.713 Y89.815 Z-2.241
N2295 X109.755 Y89.816 Z-2.273
N2300 X109.803 Y89.817 Z-2.293
N2305 X109.855 Y89.819 Z-2.3
N2310 X110.055 Y89.824 F400
N2315 G3 X110.25 Y90.028 I-0.005 J0.2
N2320 X108.75 Y89.992 I-0.75 J-0.018 F600
N2325 X110.25 Y90.028 I0.75 J0.018
N2330 X110.045 Y90.223 I-0.2 J-0.005
N2335 G1 X109.845 Y90.219
N2340 X109.793 Y90.217 Z-2.293
N2345 X109.745 Y90.216 Z-2.273
N2350 X109.704 Y90.215 Z-2.241
N2355 X109.672 Y90.214 Z-2.2
N2360 X109.652 Z-2.152
N2365 X109.645 Z-2.1
N2370 G0 Z5
N2375 X109.655 Y89.814
N2380 G1 Z0.2 F600
N2385 Z-2.9
N2390 X109.662 Z-2.952
N2395 X109.682 Z-3
N2400 X109.713 Y89.815 Z-3.041
N2405 X109.755 Y89.816 Z-3.073
N2410 X109.803 Y89.817 Z-3.093
N2415 X109.855 Y89.819 Z-3.1
N2420 X110.055 Y89.824 F400
N2425 G3 X110.25 Y90.028 I-0.005 J0.2
N2430 X108.75 Y89.992 I-0.75 J-0.018 F600
N2435 X110.25 Y90.028 I0.75 J0.018
N2440 X110.045 Y90.223 I-0.2 J-0.005
N2445 G1 X109.845 Y90.219
N2450 X109.793 Y90.217 Z-3.093
N2455 X109.745 Y90.216 Z-3.073
N2460 X109.704 Y90.215 Z-3.041
N2465 X109.672 Y90.214 Z-3
N2470 X109.652 Z-2.952
N2475 X109.645 Z-2.9
N2480 G0 Z5
N2485 X106.65 Y57.26
N2490 G1 Z2.5 F600
N2495 Z-1.3
N2500 G18 G2 X106.85 Z-1.5 I0.2
N2505 G1 X107.05 F400
N2510 G17 G3 X107.25 Y57.46 J0.2
N2515 X105.75 I-0.75 F600
N2520 X107.25 I0.75
N2525 X107.05 Y57.66 I-0.2
N2530 G1 X106.85
N2535 G18 G3 X106.65 Z-1.3 K0.2
N2540 G0 Z5
N2545 Y57.26
N2550 G1 Z1 F600
N2555 Z-2.1
N2560 G2 X106.85 Z-2.3 I0.2
N2565 G1 X107.05 F400
N2570 G17 G3 X107.25 Y57.46 J0.2
N2575 X105.75 I-0.75 F600
N2580 X107.25 I0.75
N2585 X107.05 Y57.66 I-0.2
N2590 G1 X106.85
N2595 G18 G3 X106.65 Z-2.1 K0.2
N2600 G0 Z5
N2605 Y57.26
N2610 G1 Z0.2 F600
N2615 Z-2.9
N2620 G2 X106.85 Z-3.1 I0.2
N2625 G1 X107.05 F400
N2630 G17 G3 X107.25 Y57.46 J0.2
N2635 X105.75 I-0.75 F600
N2640 X107.25 I0.75
N2645 X107.05 Y57.66 I-0.2
N2650 G1 X106.85
N2655 G18 G3 X106.65 Z-2.9 K0.2
N2660 G0 Z5
N2665 X69.65 Y55.81
N2670 G1 Z2.5 F600
N2675 Z-1.3
N2680 G2 X69.85 Z-1.5 I0.2
N2685 G1 X70.05 F400
N2690 G17 G3 X70.25 Y56.01 J0.2
N2695 X68.75 I-0.75 F600
N2700 X70.25 I0.75
N2705 X70.05 Y56.21 I-0.2
N2710 G1 X69.85
N2715 G18 G3 X69.65 Z-1.3 K0.2
N2720 G0 Z5
N2725 Y55.81
N2730 G1 Z1 F600
N2735 Z-2.1
N2740 G2 X69.85 Z-2.3 I0.2
N2745 G1 X70.05 F400
N2750 G17 G3 X70.25 Y56.01 J0.2
N2755 X68.75 I-0.75 F600
N2760 X70.25 I0.75
N2765 X70.05 Y56.21 I-0.2
N2770 G1 X69.85
N2775 G18 G3 X69.65 Z-2.1 K0.2
N2780 G0 Z5
N2785 Y55.81
N2790 G1 Z0.2 F600
N2795 Z-2.9
N2800 G2 X69.85 Z-3.1 I0.2
N2805 G1 X70.05 F400
N2810 G17 G3 X70.25 Y56.01 J0.2
N2815 X68.75 I-0.75 F600
N2820 X70.25 I0.75
N2825 X70.05 Y56.21 I-0.2
N2830 G1 X69.85
N2835 G18 G3 X69.65 Z-2.9 K0.2
N2840 G0 Z5
N2845 Y65.81
N2850 G1 Z2.5 F600
N2855 Z-1.3
N2860 G2 X69.85 Z-1.5 I0.2
N2865 G1 X70.05 F400
N2870 G17 G3 X70.25 Y66.01 J0.2
N2875 X68.75 I-0.75 F600
N2880 X70.25 I0.75
N2885 X70.05 Y66.21 I-0.2
N2890 G1 X69.85
N2895 G18 G3 X69.65 Z-1.3 K0.2
N2900 G0 Z5
N2905 Y65.81
N2910 G1 Z1 F600
N2915 Z-2.1
N2920 G2 X69.85 Z-2.3 I0.2
N2925 G1 X70.05 F400
N2930 G17 G3 X70.25 Y66.01 J0.2
N2935 X68.75 I-0.75 F600
N2940 X70.25 I0.75
N2945 X70.05 Y66.21 I-0.2
N2950 G1 X69.85
N2955 G18 G3 X69.65 Z-2.1 K0.2
N2960 G0 Z5
N2965 Y65.81
N2970 G1 Z0.2 F600
N2975 Z-2.9
N2980 G2 X69.85 Z-3.1 I0.2
N2985 G1 X70.05 F400
N2990 G17 G3 X70.25 Y66.01 J0.2
N2995 X68.75 I-0.75 F600
N3000 X70.25 I0.75
N3005 X70.05 Y66.21 I-0.2
N3010 G1 X69.85
N3015 G18 G3 X69.65 Z-2.9 K0.2
N3020 G0 Z5
N3025 X69.654 Y42.814
N3030 G1 Z2.5 F600
N3035 Z-1.3
N3040 X69.661 Z-1.352
N3045 X69.681 Z-1.4
N3050 X69.713 Y42.815 Z-1.441
N3055 X69.754 Y42.816 Z-1.473
N3060 X69.803 Y42.817 Z-1.493
N3065 X69.854 Y42.819 Z-1.5
N3070 X70.054 Y42.824 F400
N3075 G17 G3 X70.249 Y43.028 I-0.005 J0.2
N3080 X68.75 Y42.992 I-0.75 J-0.018 F600
N3085 X70.249 Y43.028 I0.75 J0.018
N3090 X70.045 Y43.223 I-0.2 J-0.005
N3095 G1 X69.845 Y43.219
N3100 X69.793 Y43.217 Z-1.493
N3105 X69.745 Y43.216 Z-1.473
N3110 X69.703 Y43.215 Z-1.441
N3115 X69.671 Y43.214 Z-1.4
N3120 X69.651 Z-1.352
N3125 X69.645 Z-1.3
N3130 G0 Z5
N3135 X69.654 Y42.814
N3140 G1 Z1 F600
N3145 Z-2.1
N3150 X69.661 Z-2.152
N3155 X69.681 Z-2.2
N3160 X69.713 Y42.815 Z-2.241
N3165 X69.754 Y42.816 Z-2.273
N3170 X69.803 Y42.817 Z-2.293
N3175 X69.854 Y42.819 Z-2.3
N3180 X70.054 Y42.824 F400
N3185 G3 X70.249 Y43.028 I-0.005 J0.2
N3190 X68.75 Y42.992 I-0.75 J-0.018 F600
N3195 X70.249 Y43.028 I0.75 J0.018
N3200 X70.045 Y43.223 I-0.2 J-0.005
N3205 G1 X69.845 Y43.219
N3210 X69.793 Y43.217 Z-2.293
N3215 X69.745 Y43.216 Z-2.273
N3220 X69.703 Y43.215 Z-2.241
N3225 X69.671 Y43.214 Z-2.2
N3230 X69.651 Z-2.152
N3235 X69.645 Z-2.1
N3240 G0 Z5
N3245 X69.654 Y42.814
N3250 G1 Z0.2 F600
N3255 Z-2.9
N3260 X69.661 Z-2.952
N3265 X69.681 Z-3
N3270 X69.713 Y42.815 Z-3.041
N3275 X69.754 Y42.816 Z-3.073
N3280 X69.803 Y42.817 Z-3.093
N3285 X69.854 Y42.819 Z-3.1
N3290 X70.054 Y42.824 F400
N3295 G3 X70.249 Y43.028 I-0.005 J0.2
N3300 X68.75 Y42.992 I-0.75 J-0.018 F600
N3305 X70.249 Y43.028 I0.75 J0.018
N3310 X70.045 Y43.223 I-0.2 J-0.005
N3315 G1 X69.845 Y43.219
N3320 X69.793 Y43.217 Z-3.093
N3325 X69.745 Y43.216 Z-3.073
N3330 X69.703 Y43.215 Z-3.041
N3335 X69.671 Y43.214 Z-3
N3340 X69.651 Z-2.952
N3345 X69.645 Z-2.9
N3350 G0 Z5
N3355 X107.453 Y144.818
N3360 G1 Z2.5 F600
N3365 Z-1.3
N3370 G18 G2 X107.653 Z-1.5 I0.2
N3375 G1 X107.853 F400
N3380 G17 G3 X108.053 Y145.018 J0.2
N3385 X106.553 I-0.75 F600
N3390 X108.053 I0.75
N3395 X107.853 Y145.218 I-0.2
N3400 G1 X107.653
N3405 G18 G3 X107.453 Z-1.3 K0.2
N3410 G0 Z5
N3415 Y144.818
N3420 G1 Z1 F600
N3425 Z-2.1
N3430 G2 X107.653 Z-2.3 I0.2
N3435 G1 X107.853 F400
N3440 G17 G3 X108.053 Y145.018 J0.2
N3445 X106.553 I-0.75 F600
N3450 X108.053 I0.75
N3455 X107.853 Y145.218 I-0.2
N3460 G1 X107.653
N3465 G18 G3 X107.453 Z-2.1 K0.2
N3470 G0 Z5
N3475 Y144.818
N3480 G1 Z0.2 F600
N3485 Z-2.9
N3490 G2 X107.653 Z-3.1 I0.2
N3495 G1 X107.853 F400
N3500 G17 G3 X108.053 Y145.018 J0.2
N3505 X106.553 I-0.75 F600
N3510 X108.053 I0.75
N3515 X107.853 Y145.218 I-0.2
N3520 G1 X107.653
N3525 G18 G3 X107.453 Z-2.9 K0.2
N3530 G0 Z15
N3535 X49.701 Y89.851
N3540 Z5
N3545 G1 Z2.5 F600
N3550 Z-1.3
N3555 X49.707 Y89.853 Z-1.352
N3560 X49.727 Y89.859 Z-1.4
N3565 X49.757 Y89.868 Z-1.441
N3570 X49.797 Y89.88 Z-1.473
N3575 X49.843 Y89.894 Z-1.493
N3580 X49.893 Y89.908 Z-1.5
N3585 X50.084 Y89.965 F400
N3590 G17 G3 X50.219 Y90.214 I-0.057 J0.192
N3595 X48.781 Y89.786 I-0.719 J-0.214 F600
N3600 X50.219 Y90.214 I0.719 J0.214
N3605 X49.97 Y90.349 I-0.192 J-0.057
N3610 G1 X49.778 Y90.292
N3615 X49.729 Y90.277 Z-1.493
N3620 X49.682 Y90.263 Z-1.473
N3625 X49.643 Y90.251 Z-1.441
N3630 X49.612 Y90.242 Z-1.4
N3635 X49.593 Y90.236 Z-1.352
N3640 X49.587 Y90.235 Z-1.3
N3645 G0 Z5
N3650 X49.701 Y89.851
N3655 G1 Z1 F600
N3660 Z-2.8
N3665 X49.707 Y89.853 Z-2.852
N3670 X49.727 Y89.859 Z-2.9
N3675 X49.757 Y89.868 Z-2.941
N3680 X49.797 Y89.88 Z-2.973
N3685 X49.843 Y89.894 Z-2.993
N3690 X49.893 Y89.908 Z-3
N3695 X50.084 Y89.965 F400
N3700 G3 X50.219 Y90.214 I-0.057 J0.192
N3705 X48.781 Y89.786 I-0.719 J-0.214 F600
N3710 X50.219 Y90.214 I0.719 J0.214
N3715 X49.97 Y90.349 I-0.192 J-0.057
N3720 G1 X49.778 Y90.292
N3725 X49.729 Y90.277 Z-2.993
N3730 X49.682 Y90.263 Z-2.973
N3735 X49.643 Y90.251 Z-2.941
N3740 X49.612 Y90.242 Z-2.9
N3745 X49.593 Y90.236 Z-2.852
N3750 X49.587 Y90.235 Z-2.8
N3755 G0 Z5
N3760 X49.701 Y89.851
N3765 G1 Z-0.5 F600
N3770 Z-4.3
N3775 X49.707 Y89.853 Z-4.352
N3780 X49.727 Y89.859 Z-4.4
N3785 X49.757 Y89.868 Z-4.441
N3790 X49.797 Y89.88 Z-4.473
N3795 X49.843 Y89.894 Z-4.493
N3800 X49.893 Y89.908 Z-4.5
N3805 X50.084 Y89.965 F400
N3810 G3 X50.219 Y90.214 I-0.057 J0.192
N3815 X48.781 Y89.786 I-0.719 J-0.214 F600
N3820 X50.219 Y90.214 I0.719 J0.214
N3825 X49.97 Y90.349 I-0.192 J-0.057
N3830 G1 X49.778 Y90.292
N3835 X49.729 Y90.277 Z-4.493
N3840 X49.682 Y90.263 Z-4.473
N3845 X49.643 Y90.251 Z-4.441
N3850 X49.612 Y90.242 Z-4.4
N3855 X49.593 Y90.236 Z-4.352
N3860 X49.587 Y90.235 Z-4.3
N3865 G0 Z5
N3870 X49.701 Y89.851
N3875 G1 Z-2 F600
N3880 Z-4.9
N3885 X49.707 Y89.853 Z-4.952
N3890 X49.727 Y89.859 Z-5
N3895 X49.757 Y89.868 Z-5.041
N3900 X49.797 Y89.88 Z-5.073
N3905 X49.843 Y89.894 Z-5.093
N3910 X49.893 Y89.908 Z-5.1
N3915 X50.084 Y89.965 F400
N3920 G3 X50.219 Y90.214 I-0.057 J0.192
N3925 X48.781 Y89.786 I-0.719 J-0.214 F600
N3930 X50.219 Y90.214 I0.719 J0.214
N3935 X49.97 Y90.349 I-0.192 J-0.057
N3940 G1 X49.778 Y90.292
N3945 X49.729 Y90.277 Z-5.093
N3950 X49.682 Y90.263 Z-5.073
N3955 X49.643 Y90.251 Z-5.041
N3960 X49.612 Y90.242 Z-5
N3965 X49.593 Y90.236 Z-4.952
N3970 X49.587 Y90.235 Z-4.9
N3975 G0 Z5
N3980 X22.846 Y67.043
N3985 G1 Z2.5 F600
N3990 Z-1.3
N3995 X22.839 Y67.044 Z-1.352
N4000 X22.82 Y67.05 Z-1.4
N4005 X22.789 Y67.058 Z-1.441
N4010 X22.749 Y67.068 Z-1.473
N4015 X22.703 Y67.081 Z-1.493
N4020 X22.653 Y67.094 Z-1.5
N4025 X22.46 Y67.146 F400
N4030 G3 X22.215 Y67.005 I-0.052 J-0.193
N4035 G1 X22.155 Y66.782 F600
N4040 X30.848 Y64.453
N4045 X30.978 Y64.936
N4050 X22.284 Y67.265
N4055 X22.215 Y67.005
N4060 G3 X22.356 Y66.76 I0.193 J-0.052
N4065 G1 X22.549 Y66.708
N4070 X22.599 Y66.695 Z-1.493
N4075 X22.646 Y66.682 Z-1.473
N4080 X22.686 Y66.671 Z-1.441
N4085 X22.717 Y66.663 Z-1.4
N4090 X22.736 Y66.658 Z-1.352
N4095 X22.742 Y66.656 Z-1.3
N4100 G0 Z5
N4105 X22.846 Y67.043
N4110 G1 Z1 F600
N4115 Z-2.8
N4120 X22.839 Y67.044 Z-2.852
N4125 X22.82 Y67.05 Z-2.9
N4130 X22.789 Y67.058 Z-2.941
N4135 X22.749 Y67.068 Z-2.973
N4140 X22.703 Y67.081 Z-2.993
N4145 X22.653 Y67.094 Z-3
N4150 X22.46 Y67.146 F400
N4155 G3 X22.215 Y67.005 I-0.052 J-0.193
N4160 G1 X22.155 Y66.782 F600
N4165 X30.848 Y64.453
N4170 X30.978 Y64.936
N4175 X22.284 Y67.265
N4180 X22.215 Y67.005
N4185 G3 X22.356 Y66.76 I0.193 J-0.052
N4190 G1 X22.549 Y66.708
N4195 X22.599 Y66.695 Z-2.993
N4200 X22.646 Y66.682 Z-2.973
N4205 X22.686 Y66.671 Z-2.941
N4210 X22.717 Y66.663 Z-2.9
N4215 X22.736 Y66.658 Z-2.852
N4220 X22.742 Y66.656 Z-2.8
N4225 G0 Z5
N4230 X22.846 Y67.043
N4235 G1 Z-0.5 F600
N4240 Z-4.3
N4245 X22.839 Y67.044 Z-4.352
N4250 X22.82 Y67.05 Z-4.4
N4255 X22.789 Y67.058 Z-4.441
N4260 X22.749 Y67.068 Z-4.473
N4265 X22.703 Y67.081 Z-4.493
N4270 X22.653 Y67.094 Z-4.5
N4275 X22.46 Y67.146 F400
N4280 G3 X22.215 Y67.005 I-0.052 J-0.193
N4285 G1 X22.155 Y66.782 F600
N4290 X30.848 Y64.453
N4295 X30.978 Y64.936
N4300 X22.284 Y67.265
N4305 X22.215 Y67.005
N4310 G3 X22.356 Y66.76 I0.193 J-0.052
N4315 G1 X22.549 Y66.708
N4320 X22.599 Y66.695 Z-4.493
N4325 X22.646 Y66.682 Z-4.473
N4330 X22.686 Y66.671 Z-4.441
N4335 X22.717 Y66.663 Z-4.4
N4340 X22.736 Y66.658 Z-4.352
N4345 X22.742 Y66.656 Z-4.3
N4350 G0 Z5
N4355 X22.846 Y67.043
N4360 G1 Z-2 F600
N4365 Z-4.9
N4370 X22.839 Y67.044 Z-4.952
N4375 X22.82 Y67.05 Z-5
N4380 X22.789 Y67.058 Z-5.041
N4385 X22.749 Y67.068 Z-5.073
N4390 X22.703 Y67.081 Z-5.093
N4395 X22.653 Y67.094 Z-5.1
N4400 X22.46 Y67.146 F400
N4405 G3 X22.215 Y67.005 I-0.052 J-0.193
N4410 G1 X22.155 Y66.782 F600
N4415 X30.848 Y64.453
N4420 X30.978 Y64.936
N4425 X22.284 Y67.265
N4430 X22.215 Y67.005
N4435 G3 X22.356 Y66.76 I0.193 J-0.052
N4440 G1 X22.549 Y66.708
N4445 X22.599 Y66.695 Z-5.093
N4450 X22.646 Y66.682 Z-5.073
N4455 X22.686 Y66.671 Z-5.041
N4460 X22.717 Y66.663 Z-5
N4465 X22.736 Y66.658 Z-4.952
N4470 X22.742 Y66.656 Z-4.9
N4475 G0 Z5
N4480 X9.3 Y52.6
N4485 G1 Z2.5 F600
N4490 Z-1.3
N4495 G19 G2 Y52.4 Z-1.5 J-0.2
N4500 G1 Y52.2 F400
N4505 G17 G3 X9.5 Y52 I0.2
N4510 G1 X11.5 F600
N4515 G2 X15.5 Y48 J-4
N4520 G1 Y38.959
N4525 G3 X17.502 Y37 I2 J0.041
N4530 G1 X17.503
N4535 X38.5
N4540 G3 X40.5 Y39 J2
N4545 G1 Y58
N4550 G3 X38.5 Y60 I-2
N4555 G1 X7.5
N4560 G3 X5.5 Y58.041 J-2
N4565 G1 Y53.959
N4570 G3 X7.502 Y52 I2 J0.041
N4575 G1 X7.503
N4580 X9.5
N4585 G3 X9.7 Y52.2 J0.2
N4590 G1 Y52.4
N4595 G19 G3 Y52.6 Z-1.3 K0.2
N4600 G0 Z5
N4605 X9.3
N4610 G1 Z1 F600
N4615 Z-2.8
N4620 G2 Y52.4 Z-3 J-0.2
N4625 G1 Y52.2 F400
N4630 G17 G3 X9.5 Y52 I0.2
N4635 G1 X11.5 F600
N4640 G2 X15.5 Y48 J-4
N4645 G1 Y38.959
N4650 G3 X17.502 Y37 I2 J0.041
N4655 G1 X17.503
N4660 X38.5
N4665 G3 X40.5 Y39 J2
N4670 G1 Y58
N4675 G3 X38.5 Y60 I-2
N4680 G1 X7.5
N4685 G3 X5.5 Y58.041 J-2
N4690 G1 Y53.959
N4695 G3 X7.502 Y52 I2 J0.041
N4700 G1 X7.503
N4705 X9.5
N4710 G3 X9.7 Y52.2 J0.2
N4715 G1 Y52.4
N4720 G19 G3 Y52.6 Z-2.8 K0.2
N4725 G0 Z5
N4730 X9.3
N4735 G1 Z-0.5 F600
N4740 Z-4.3
N4745 G2 Y52.4 Z-4.5 J-0.2
N4750 G1 Y52.2 F400
N4755 G17 G3 X9.5 Y52 I0.2
N4760 G1 X11.5 F600
N4765 G2 X15.5 Y48 J-4
N4770 G1 Y38.959
N4775 G3 X17.502 Y37 I2 J0.041
N4780 G1 X17.503
N4785 X38.5
N4790 G3 X40.5 Y39 J2
N4795 G1 Y58
N4800 G3 X38.5 Y60 I-2
N4805 G1 X7.5
N4810 G3 X5.5 Y58.041 J-2
N4815 G1 Y53.959
N4820 G3 X7.502 Y52 I2 J0.041
N4825 G1 X7.503
N4830 X9.5
N4835 G3 X9.7 Y52.2 J0.2
N4840 G1 Y52.4
N4845 G19 G3 Y52.6 Z-4.3 K0.2
N4850 G0 Z5
N4855 X9.3
N4860 G1 Z-2 F600
N4865 Z-4.9
N4870 G2 Y52.4 Z-5.1 J-0.2
N4875 G1 Y52.2 F400
N4880 G17 G3 X9.5 Y52 I0.2
N4885 G1 X11.5 F600
N4890 G2 X15.5 Y48 J-4
N4895 G1 Y38.959
N4900 G3 X17.502 Y37 I2 J0.041
N4905 G1 X17.503
N4910 X38.5
N4915 G3 X40.5 Y39 J2
N4920 G1 Y58
N4925 G3 X38.5 Y60 I-2
N4930 G1 X7.5
N4935 G3 X5.5 Y58.041 J-2
N4940 G1 Y53.959
N4945 G3 X7.502 Y52 I2 J0.041
N4950 G1 X7.503
N4955 X9.5
N4960 G3 X9.7 Y52.2 J0.2
N4965 G1 Y52.4
N4970 G19 G3 Y52.6 Z-4.9 K0.2
N4975 G0 Z5
N4980 X9.655 Y42.804
N4985 G1 Z2.5 F600
N4990 Z-1.3
N4995 X9.662 Z-1.352
N5000 X9.682 Z-1.4
N5005 X9.713 Y42.805 Z-1.441
N5010 X9.755 Y42.806 Z-1.473
N5015 X9.803 Y42.807 Z-1.493
N5020 X9.855 Y42.809 Z-1.5
N5025 X10.055 Y42.814 F400
N5030 G17 G3 X10.25 Y43.018 I-0.005 J0.2
N5035 X8.75 Y42.982 I-0.75 J-0.018 F600
N5040 X10.25 Y43.018 I0.75 J0.018
N5045 X10.045 Y43.213 I-0.2 J-0.005
N5050 G1 X9.845 Y43.209
N5055 X9.793 Y43.207 Z-1.493
N5060 X9.745 Y43.206 Z-1.473
N5065 X9.704 Y43.205 Z-1.441
N5070 X9.672 Y43.204 Z-1.4
N5075 X9.652 Z-1.352
N5080 X9.645 Z-1.3
N5085 G0 Z5
N5090 X9.655 Y42.804
N5095 G1 Z1 F600
N5100 Z-2.8
N5105 X9.662 Z-2.852
N5110 X9.682 Z-2.9
N5115 X9.713 Y42.805 Z-2.941
N5120 X9.755 Y42.806 Z-2.973
N5125 X9.803 Y42.807 Z-2.993
N5130 X9.855 Y42.809 Z-3
N5135 X10.055 Y42.814 F400
N5140 G3 X10.25 Y43.018 I-0.005 J0.2
N5145 X8.75 Y42.982 I-0.75 J-0.018 F600
N5150 X10.25 Y43.018 I0.75 J0.018
N5155 X10.045 Y43.213 I-0.2 J-0.005
N5160 G1 X9.845 Y43.209
N5165 X9.793 Y43.207 Z-2.993
N5170 X9.745 Y43.206 Z-2.973
N5175 X9.704 Y43.205 Z-2.941
N5180 X9.672 Y43.204 Z-2.9
N5185 X9.652 Z-2.852
N5190 X9.645 Z-2.8
N5195 G0 Z5
N5200 X9.655 Y42.804
N5205 G1 Z-0.5 F600
N5210 Z-4.3
N5215 X9.662 Z-4.352
N5220 X9.682 Z-4.4
N5225 X9.713 Y42.805 Z-4.441
N5230 X9.755 Y42.806 Z-4.473
N5235 X9.803 Y42.807 Z-4.493
N5240 X9.855 Y42.809 Z-4.5
N5245 X10.055 Y42.814 F400
N5250 G3 X10.25 Y43.018 I-0.005 J0.2
N5255 X8.75 Y42.982 I-0.75 J-0.018 F600
N5260 X10.25 Y43.018 I0.75 J0.018
N5265 X10.045 Y43.213 I-0.2 J-0.005
N5270 G1 X9.845 Y43.209
N5275 X9.793 Y43.207 Z-4.493
N5280 X9.745 Y43.206 Z-4.473
N5285 X9.704 Y43.205 Z-4.441
N5290 X9.672 Y43.204 Z-4.4
N5295 X9.652 Z-4.352
N5300 X9.645 Z-4.3
N5305 G0 Z5
N5310 X9.655 Y42.804
N5315 G1 Z-2 F600
N5320 Z-4.9
N5325 X9.662 Z-4.952
N5330 X9.682 Z-5
N5335 X9.713 Y42.805 Z-5.041
N5340 X9.755 Y42.806 Z-5.073
N5345 X9.803 Y42.807 Z-5.093
N5350 X9.855 Y42.809 Z-5.1
N5355 X10.055 Y42.814 F400
N5360 G3 X10.25 Y43.018 I-0.005 J0.2
N5365 X8.75 Y42.982 I-0.75 J-0.018 F600
N5370 X10.25 Y43.018 I0.75 J0.018
N5375 X10.045 Y43.213 I-0.2 J-0.005
N5380 G1 X9.845 Y43.209
N5385 X9.793 Y43.207 Z-5.093
N5390 X9.745 Y43.206 Z-5.073
N5395 X9.704 Y43.205 Z-5.041
N5400 X9.672 Y43.204 Z-5
N5405 X9.652 Z-4.952
N5410 X9.645 Z-4.9
N5415 G0 Z5
N5420 X9.65 Y65.8
N5425 G1 Z2.5 F600
N5430 Z-1.3
N5435 G18 G2 X9.85 Z-1.5 I0.2
N5440 G1 X10.05 F400
N5445 G17 G3 X10.25 Y66 J0.2
N5450 X8.75 I-0.75 F600
N5455 X10.25 I0.75
N5460 X10.05 Y66.2 I-0.2
N5465 G1 X9.85
N5470 G18 G3 X9.65 Z-1.3 K0.2
N5475 G0 Z5
N5480 Y65.8
N5485 G1 Z1 F600
N5490 Z-2.8
N5495 G2 X9.85 Z-3 I0.2
N5500 G1 X10.05 F400
N5505 G17 G3 X10.25 Y66 J0.2
N5510 X8.75 I-0.75 F600
N5515 X10.25 I0.75
N5520 X10.05 Y66.2 I-0.2
N5525 G1 X9.85
N5530 G18 G3 X9.65 Z-2.8 K0.2
N5535 G0 Z5
N5540 Y65.8
N5545 G1 Z-0.5 F600
N5550 Z-4.3
N5555 G2 X9.85 Z-4.5 I0.2
N5560 G1 X10.05 F400
N5565 G17 G3 X10.25 Y66 J0.2
N5570 X8.75 I-0.75 F600
N5575 X10.25 I0.75
N5580 X10.05 Y66.2 I-0.2
N5585 G1 X9.85
N5590 G18 G3 X9.65 Z-4.3 K0.2
N5595 G0 Z5
N5600 Y65.8
N5605 G1 Z-2 F600
N5610 Z-4.9
N5615 G2 X9.85 Z-5.1 I0.2
N5620 G1 X10.05 F400
N5625 G17 G3 X10.25 Y66 J0.2
N5630 X8.75 I-0.75 F600
N5635 X10.25 I0.75
N5640 X10.05 Y66.2 I-0.2
N5645 G1 X9.85
N5650 G18 G3 X9.65 Z-4.9 K0.2
N5655 G0 Z5
N5660 X46.65 Y57.25
N5665 G1 Z2.5 F600
N5670 Z-1.3
N5675 G2 X46.85 Z-1.5 I0.2
N5680 G1 X47.05 F400
N5685 G17 G3 X47.25 Y57.45 J0.2
N5690 X45.75 I-0.75 F600
N5695 X47.25 I0.75
N5700 X47.05 Y57.65 I-0.2
N5705 G1 X46.85
N5710 G18 G3 X46.65 Z-1.3 K0.2
N5715 G0 Z5
N5720 Y57.25
N5725 G1 Z1 F600
N5730 Z-2.8
N5735 G2 X46.85 Z-3 I0.2
N5740 G1 X47.05 F400
N5745 G17 G3 X47.25 Y57.45 J0.2
N5750 X45.75 I-0.75 F600
N5755 X47.25 I0.75
N5760 X47.05 Y57.65 I-0.2
N5765 G1 X46.85
N5770 G18 G3 X46.65 Z-2.8 K0.2
N5775 G0 Z5
N5780 Y57.25
N5785 G1 Z-0.5 F600
N5790 Z-4.3
N5795 G2 X46.85 Z-4.5 I0.2
N5800 G1 X47.05 F400
N5805 G17 G3 X47.25 Y57.45 J0.2
N5810 X45.75 I-0.75 F600
N5815 X47.25 I0.75
N5820 X47.05 Y57.65 I-0.2
N5825 G1 X46.85
N5830 G18 G3 X46.65 Z-4.3 K0.2
N5835 G0 Z5
N5840 Y57.25
N5845 G1 Z-2 F600
N5850 Z-4.9
N5855 G2 X46.85 Z-5.1 I0.2
N5860 G1 X47.05 F400
N5865 G17 G3 X47.25 Y57.45 J0.2
N5870 X45.75 I-0.75 F600
N5875 X47.25 I0.75
N5880 X47.05 Y57.65 I-0.2
N5885 G1 X46.85
N5890 G18 G3 X46.65 Z-4.9 K0.2
N5895 G0 Z5
N5900 X35.65 Y26
N5905 G1 Z2.5 F600
N5910 Z-1.3
N5915 G2 X35.85 Z-1.5 I0.2
N5920 G1 X36.05 F400
N5925 G17 G3 X36.25 Y26.2 J0.2
N5930 X34.75 I-0.75 F600
N5935 X36.25 I0.75
N5940 X36.05 Y26.4 I-0.2
N5945 G1 X35.85
N5950 G18 G3 X35.65 Z-1.3 K0.2
N5955 G0 Z5
N5960 Y26
N5965 G1 Z1 F600
N5970 Z-2.8
N5975 G2 X35.85 Z-3 I0.2
N5980 G1 X36.05 F400
N5985 G17 G3 X36.25 Y26.2 J0.2
N5990 X34.75 I-0.75 F600
N5995 X36.25 I0.75
N6000 X36.05 Y26.4 I-0.2
N6005 G1 X35.85
N6010 G18 G3 X35.65 Z-2.8 K0.2
N6015 G0 Z5
N6020 Y26
N6025 G1 Z-0.5 F600
N6030 Z-4.3
N6035 G2 X35.85 Z-4.5 I0.2
N6040 G1 X36.05 F400
N6045 G17 G3 X36.25 Y26.2 J0.2
N6050 X34.75 I-0.75 F600
N6055 X36.25 I0.75
N6060 X36.05 Y26.4 I-0.2
N6065 G1 X35.85
N6070 G18 G3 X35.65 Z-4.3 K0.2
N6075 G0 Z5
N6080 Y26
N6085 G1 Z-2 F600
N6090 Z-4.9
N6095 G2 X35.85 Z-5.1 I0.2
N6100 G1 X36.05 F400
N6105 G17 G3 X36.25 Y26.2 J0.2
N6110 X34.75 I-0.75 F600
N6115 X36.25 I0.75
N6120 X36.05 Y26.4 I-0.2
N6125 G1 X35.85
N6130 G18 G3 X35.65 Z-4.9 K0.2
N6135 G0 Z5
N6140 X26.655 Y26.004
N6145 G1 Z2.5 F600
N6150 Z-1.3
N6155 X26.662 Z-1.352
N6160 X26.682 Z-1.4
N6165 X26.713 Y26.005 Z-1.441
N6170 X26.755 Y26.006 Z-1.473
N6175 X26.803 Y26.007 Z-1.493
N6180 X26.855 Y26.009 Z-1.5
N6185 X27.055 Y26.014 F400
N6190 G17 G3 X27.25 Y26.218 I-0.005 J0.2
N6195 X25.75 Y26.182 I-0.75 J-0.018 F600
N6200 X27.25 Y26.218 I0.75 J0.018
N6205 X27.045 Y26.413 I-0.2 J-0.005
N6210 G1 X26.845 Y26.409
N6215 X26.793 Y26.407 Z-1.493
N6220 X26.745 Y26.406 Z-1.473
N6225 X26.704 Y26.405 Z-1.441
N6230 X26.672 Y26.404 Z-1.4
N6235 X26.652 Z-1.352
N6240 X26.645 Z-1.3
N6245 G0 Z5
N6250 X26.655 Y26.004
N6255 G1 Z1 F600
N6260 Z-2.8
N6265 X26.662 Z-2.852
N6270 X26.682 Z-2.9
N6275 X26.713 Y26.005 Z-2.941
N6280 X26.755 Y26.006 Z-2.973
N6285 X26.803 Y26.007 Z-2.993
N6290 X26.855 Y26.009 Z-3
N6295 X27.055 Y26.014 F400
N6300 G3 X27.25 Y26.218 I-0.005 J0.2
N6305 X25.75 Y26.182 I-0.75 J-0.018 F600
N6310 X27.25 Y26.218 I0.75 J0.018
N6315 X27.045 Y26.413 I-0.2 J-0.005
N6320 G1 X26.845 Y26.409
N6325 X26.793 Y26.407 Z-2.993
N6330 X26.745 Y26.406 Z-2.973
N6335 X26.704 Y26.405 Z-2.941
N6340 X26.672 Y26.404 Z-2.9
N6345 X26.652 Z-2.852
N6350 X26.645 Z-2.8
N6355 G0 Z5
N6360 X26.655 Y26.004
N6365 G1 Z-0.5 F600
N6370 Z-4.3
N6375 X26.662 Z-4.352
N6380 X26.682 Z-4.4
N6385 X26.713 Y26.005 Z-4.441
N6390 X26.755 Y26.006 Z-4.473
N6395 X26.803 Y26.007 Z-4.493
N6400 X26.855 Y26.009 Z-4.5
N6405 X27.055 Y26.014 F400
N6410 G3 X27.25 Y26.218 I-0.005 J0.2
N6415 X25.75 Y26.182 I-0.75 J-0.018 F600
N6420 X27.25 Y26.218 I0.75 J0.018
N6425 X27.045 Y26.413 I-0.2 J-0.005
N6430 G1 X26.845 Y26.409
N6435 X26.793 Y26.407 Z-4.493
N6440 X26.745 Y26.406 Z-4.473
N6445 X26.704 Y26.405 Z-4.441
N6450 X26.672 Y26.404 Z-4.4
N6455 X26.652 Z-4.352
N6460 X26.645 Z-4.3
N6465 G0 Z5
N6470 X26.655 Y26.004
N6475 G1 Z-2 F600
N6480 Z-4.9
N6485 X26.662 Z-4.952
N6490 X26.682 Z-5
N6495 X26.713 Y26.005 Z-5.041
N6500 X26.755 Y26.006 Z-5.073
N6505 X26.803 Y26.007 Z-5.093
N6510 X26.855 Y26.009 Z-5.1
N6515 X27.055 Y26.014 F400
N6520 G3 X27.25 Y26.218 I-0.005 J0.2
N6525 X25.75 Y26.182 I-0.75 J-0.018 F600
N6530 X27.25 Y26.218 I0.75 J0.018
N6535 X27.045 Y26.413 I-0.2 J-0.005
N6540 G1 X26.845 Y26.409
N6545 X26.793 Y26.407 Z-5.093
N6550 X26.745 Y26.406 Z-5.073
N6555 X26.704 Y26.405 Z-5.041
N6560 X26.672 Y26.404 Z-5
N6565 X26.652 Z-4.952
N6570 X26.645 Z-4.9
N6575 G0 Z5
N6580 X102.356 Y88.206
N6585 G1 Z2.5 F600
N6590 Z-1.3
N6595 X102.361 Y88.21 Z-1.352
N6600 X102.377 Y88.222 Z-1.4
N6605 X102.402 Y88.241 Z-1.441
N6610 X102.435 Y88.267 Z-1.473
N6615 X102.473 Y88.296 Z-1.493
N6620 X102.514 Y88.328 Z-1.5
N6625 X102.672 Y88.45 F400
N6630 G3 X102.708 Y88.73 I-0.122 J0.158
N6635 G2 X102.5 Y89.341 I0.792 J0.611 F600
N6640 G1 Y98.51
N6645 G3 X85.5 I-8.5
N6650 G1 Y89.341
N6655 G2 X85.291 Y88.73 I-1
N6660 G3 X102.708 Y75.29 I8.709 J-6.72
N6665 Y88.73 I-8.709 J6.72
N6670 X102.428 Y88.767 I-0.158 J-0.122
N6675 G1 X102.269 Y88.644
N6680 X102.228 Y88.613 Z-1.493
N6685 X102.19 Y88.583 Z-1.473
N6690 X102.158 Y88.558 Z-1.441
N6695 X102.132 Y88.539 Z-1.4
N6700 X102.117 Y88.526 Z-1.352
N6705 X102.111 Y88.522 Z-1.3
N6710 G0 Z5
N6715 X101.9 Y89.141
N6720 G1 Z1 F600
N6725 Z-2.8
N6730 G18 G2 X102.1 Z-3 I0.2
N6735 G1 X102.3 F400
N6740 G17 G3 X102.5 Y89.341 J0.2
N6745 G1 Y98.51 F600
N6750 G3 X85.5 I-8.5
N6755 G1 Y89.341
N6760 G2 X85.291 Y88.73 I-1
N6765 G3 X102.708 Y75.29 I8.709 J-6.72
N6770 Y88.73 I-8.709 J6.72
N6775 G2 X102.5 Y89.341 I0.792 J0.611
N6780 G3 X102.3 Y89.541 I-0.2
N6785 G1 X102.1
N6790 G18 G3 X101.9 Z-2.8 K0.2
N6795 G0 Z5
N6800 Y89.141
N6805 G1 Z-0.5 F600
N6810 Z-4.3
N6815 G2 X102.1 Z-4.5 I0.2
N6820 G1 X102.3 F400
N6825 G17 G3 X102.5 Y89.341 J0.2
N6830 G1 Y98.51 F600
N6835 G3 X85.5 I-8.5
N6840 G1 Y89.341
N6845 G2 X85.291 Y88.73 I-1
N6850 G3 X102.708 Y75.29 I8.709 J-6.72
N6855 Y88.73 I-8.709 J6.72
N6860 G2 X102.5 Y89.341 I0.792 J0.611
N6865 G3 X102.3 Y89.541 I-0.2
N6870 G1 X102.1
N6875 G18 G3 X101.9 Z-4.3 K0.2
N6880 G0 Z5
N6885 Y89.141
N6890 G1 Z-2 F600
N6895 Z-4.9
N6900 G2 X102.1 Z-5.1 I0.2
N6905 G1 X102.3 F400
N6910 G17 G3 X102.5 Y89.341 J0.2
N6915 G1 Y98.51 F600
N6920 G3 X85.5 I-8.5
N6925 G1 Y89.341
N6930 G2 X85.291 Y88.73 I-1
N6935 G3 X102.708 Y75.29 I8.709 J-6.72
N6940 Y88.73 I-8.709 J6.72
N6945 G2 X102.5 Y89.341 I0.792 J0.611
N6950 G3 X102.3 Y89.541 I-0.2
N6955 G1 X102.1
N6960 G18 G3 X101.9 Z-4.9 K0.2
N6965 G0 Z5
N6970 X47.453 Y144.808
N6975 G1 Z2.5 F600
N6980 Z-1.3
N6985 G2 X47.653 Z-1.5 I0.2
N6990 G1 X47.854 F400
N6995 G17 G3 X48.054 Y145.008 J0.2
N7000 X46.554 I-0.75 F600
N7005 X48.054 I0.75
N7010 X47.854 Y145.208 I-0.2
N7015 G1 X47.653
N7020 G18 G3 X47.453 Z-1.3 K0.2
N7025 G0 Z5
N7030 Y144.808
N7035 G1 Z1 F600
N7040 Z-2.8
N7045 G2 X47.653 Z-3 I0.2
N7050 G1 X47.854 F400
N7055 G17 G3 X48.054 Y145.008 J0.2
N7060 X46.554 I-0.75 F600
N7065 X48.054 I0.75
N7070 X47.854 Y145.208 I-0.2
N7075 G1 X47.653
N7080 G18 G3 X47.453 Z-2.8 K0.2
N7085 G0 Z5
N7090 Y144.808
N7095 G1 Z-0.5 F600
N7100 Z-4.3
N7105 G2 X47.653 Z-4.5 I0.2
N7110 G1 X47.854 F400
N7115 G17 G3 X48.054 Y145.008 J0.2
N7120 X46.554 I-0.75 F600
N7125 X48.054 I0.75
N7130 X47.854 Y145.208 I-0.2
N7135 G1 X47.653
N7140 G18 G3 X47.453 Z-4.3 K0.2
N7145 G0 Z5
N7150 Y144.808
N7155 G1 Z-2 F600
N7160 Z-4.9
N7165 G2 X47.653 Z-5.1 I0.2
N7170 G1 X47.854 F400
N7175 G17 G3 X48.054 Y145.008 J0.2
N7180 X46.554 I-0.75 F600
N7185 X48.054 I0.75
N7190 X47.854 Y145.208 I-0.2
N7195 G1 X47.653
N7200 G18 G3 X47.453 Z-4.9 K0.2
N7205 G0 Z5
N7210 X54.65 Y175.8
N7215 G1 Z2.5 F600
N7220 Z-1.3
N7225 G2 X54.85 Z-1.5 I0.2
N7230 G1 X55.05 F400
N7235 G17 G3 X55.25 Y176 J0.2
N7240 X53.75 I-0.75 F600
N7245 X55.25 I0.75
N7250 X55.05 Y176.2 I-0.2
N7255 G1 X54.85
N7260 G18 G3 X54.65 Z-1.3 K0.2
N7265 G0 Z5
N7270 Y175.8
N7275 G1 Z1 F600
N7280 Z-2.8
N7285 G2 X54.85 Z-3 I0.2
N7290 G1 X55.05 F400
N7295 G17 G3 X55.25 Y176 J0.2
N7300 X53.75 I-0.75 F600
N7305 X55.25 I0.75
N7310 X55.05 Y176.2 I-0.2
N7315 G1 X54.85
N7320 G18 G3 X54.65 Z-2.8 K0.2
N7325 G0 Z5
N7330 Y175.8
N7335 G1 Z-0.5 F600
N7340 Z-4.3
N7345 G2 X54.85 Z-4.5 I0.2
N7350 G1 X55.05 F400
N7355 G17 G3 X55.25 Y176 J0.2
N7360 X53.75 I-0.75 F600
N7365 X55.25 I0.75
N7370 X55.05 Y176.2 I-0.2
N7375 G1 X54.85
N7380 G18 G3 X54.65 Z-4.3 K0.2
N7385 G0 Z5
N7390 Y175.8
N7395 G1 Z-2 F600
N7400 Z-4.9
N7405 G2 X54.85 Z-5.1 I0.2
N7410 G1 X55.05 F400
N7415 G17 G3 X55.25 Y176 J0.2
N7420 X53.75 I-0.75 F600
N7425 X55.25 I0.75
N7430 X55.05 Y176.2 I-0.2
N7435 G1 X54.85
N7440 G18 G3 X54.65 Z-4.9 K0.2
N7445 G0 Z15
N7450 G17

(2D ??31)
N7455 G0 X79.961 Y136.09
N7460 Z15
N7465 Z5
N7470 G1 Z2.5 F600
N7475 Z-1.3
N7480 X79.967 Y136.088 Z-1.352
N7485 X79.987 Y136.083 Z-1.4
N7490 X80.017 Y136.075 Z-1.441
N7495 X80.057 Y136.064 Z-1.473
N7500 X80.104 Y136.051 Z-1.493
N7505 X80.154 Y136.038 Z-1.5
N7510 X80.347 Y135.986 F400
N7515 G3 X80.592 Y136.128 I0.052 J0.193
N7520 G2 X109.374 Y152.746 I22.7 J-6.082 F600
N7525 X125.991 Y123.963 I-6.082 J-22.699
N7530 G1 X116 Y86.676
N7535 Y1.01
N7540 G2 X115 Y0.01 I-1
N7545 G1 X61
N7550 G2 X60 Y1.01 J1
N7555 G1 Y59.144
N7560 G2 X60.034 Y59.403 I1
N7565 G1 X80.592 Y136.128
N7570 G3 X80.451 Y136.373 I-0.193 J0.052
N7575 G1 X80.258 Y136.424
N7580 X80.208 Y136.438 Z-1.493
N7585 X80.161 Y136.45 Z-1.473
N7590 X80.121 Y136.461 Z-1.441
N7595 X80.09 Y136.469 Z-1.4
N7600 X80.071 Y136.474 Z-1.352
N7605 X80.064 Y136.476 Z-1.3
N7610 G0 Z5
N7615 X79.961 Y136.09
N7620 G1 Z1 F600
N7625 Z-2.8
N7630 X79.967 Y136.088 Z-2.852
N7635 X79.987 Y136.083 Z-2.9
N7640 X80.017 Y136.075 Z-2.941
N7645 X80.057 Y136.064 Z-2.973
N7650 X80.104 Y136.051 Z-2.993
N7655 X80.154 Y136.038 Z-3
N7660 X80.347 Y135.986 F400
N7665 G3 X80.592 Y136.128 I0.052 J0.193
N7670 G2 X109.374 Y152.746 I22.7 J-6.082 F600
N7675 X125.991 Y123.963 I-6.082 J-22.699
N7680 G1 X116 Y86.676
N7685 Y1.01
N7690 G2 X115 Y0.01 I-1
N7695 G1 X61
N7700 G2 X60 Y1.01 J1
N7705 G1 Y59.144
N7710 G2 X60.034 Y59.403 I1
N7715 G1 X80.592 Y136.128
N7720 G3 X80.451 Y136.373 I-0.193 J0.052
N7725 G1 X80.258 Y136.424
N7730 X80.208 Y136.438 Z-2.993
N7735 X80.161 Y136.45 Z-2.973
N7740 X80.121 Y136.461 Z-2.941
N7745 X80.09 Y136.469 Z-2.9
N7750 X80.071 Y136.474 Z-2.852
N7755 X80.064 Y136.476 Z-2.8
N7760 G0 Z5
N7765 X79.961 Y136.09
N7770 G1 Z-0.5 F600
N7775 Z-4.3
N7780 X79.967 Y136.088 Z-4.352
N7785 X79.987 Y136.083 Z-4.4
N7790 X80.017 Y136.075 Z-4.441
N7795 X80.057 Y136.064 Z-4.473
N7800 X80.104 Y136.051 Z-4.493
N7805 X80.154 Y136.038 Z-4.5
N7810 X80.347 Y135.986 F400
N7815 G3 X80.592 Y136.128 I0.052 J0.193
N7820 G2 X109.374 Y152.746 I22.7 J-6.082 F600
N7825 X125.991 Y123.963 I-6.082 J-22.699
N7830 G1 X116 Y86.676
N7835 Y1.01
N7840 G2 X115 Y0.01 I-1
N7845 G1 X61
N7850 G2 X60 Y1.01 J1
N7855 G1 Y59.144
N7860 G2 X60.034 Y59.403 I1
N7865 G1 X80.592 Y136.128
N7870 G3 X80.451 Y136.373 I-0.193 J0.052
N7875 G1 X80.258 Y136.424
N7880 X80.208 Y136.438 Z-4.493
N7885 X80.161 Y136.45 Z-4.473
N7890 X80.121 Y136.461 Z-4.441
N7895 X80.09 Y136.469 Z-4.4
N7900 X80.071 Y136.474 Z-4.352
N7905 X80.064 Y136.476 Z-4.3
N7910 G0 Z5
N7915 X79.961 Y136.09
N7920 G1 Z-2 F600
N7925 Z-4.9
N7930 X79.967 Y136.088 Z-4.952
N7935 X79.987 Y136.083 Z-5
N7940 X80.017 Y136.075 Z-5.041
N7945 X80.057 Y136.064 Z-5.073
N7950 X80.104 Y136.051 Z-5.093
N7955 X80.154 Y136.038 Z-5.1
N7960 X80.347 Y135.986 F400
N7965 G3 X80.592 Y136.128 I0.052 J0.193
N7970 G2 X109.374 Y152.746 I22.7 J-6.082 F600
N7975 X125.991 Y123.963 I-6.082 J-22.699
N7980 G1 X116 Y86.676
N7985 Y1.01
N7990 G2 X115 Y0.01 I-1
N7995 G1 X61
N8000 G2 X60 Y1.01 J1
N8005 G1 Y59.144
N8010 G2 X60.034 Y59.403 I1
N8015 G1 X80.592 Y136.128
N8020 G3 X80.451 Y136.373 I-0.193 J0.052
N8025 G1 X80.258 Y136.424
N8030 X80.208 Y136.438 Z-5.093
N8035 X80.161 Y136.45 Z-5.073
N8040 X80.121 Y136.461 Z-5.041
N8045 X80.09 Y136.469 Z-5
N8050 X80.071 Y136.474 Z-4.952
N8055 X80.064 Y136.476 Z-4.9
N8060 G0 Z5
N8065 X64.773 Y140.964
N8070 G1 Z2.5 F600
N8075 Z-1.3
N8080 X64.767 Y140.961 Z-1.352
N8085 X64.749 Y140.952 Z-1.4
N8090 X64.72 Y140.938 Z-1.441
N8095 X64.683 Y140.919 Z-1.473
N8100 X64.64 Y140.898 Z-1.493
N8105 X64.594 Y140.875 Z-1.5
N8110 X64.415 Y140.786 F400
N8115 G3 X64.325 Y140.517 I0.089 J-0.179
N8120 G2 X65.991 Y123.953 I-21.033 J-10.481 F600
N8125 G1 X56 Y86.666
N8130 Y1
N8135 G2 X55 Y0 I-1
N8140 G1 X40.5
N8145 G2 X39.5 Y1 J1
N8150 G1 Y21
N8155 X20.5
N8160 Y1
N8165 G2 X19.5 Y0 I-1
N8170 G1 X1
N8175 G2 X0 Y1 J1
N8180 G1 Y59.134
N8185 G2 X0.034 Y59.393 I1
N8190 G1 X20.593 Y136.118
N8195 G2 X64.325 Y140.517 I22.699 J-6.082
N8200 G3 X64.593 Y140.428 I0.179 J0.089
N8205 G1 X64.772 Y140.517
N8210 X64.819 Y140.54 Z-1.493
N8215 X64.862 Y140.561 Z-1.473
N8220 X64.899 Y140.58 Z-1.441
N8225 X64.927 Y140.594 Z-1.4
N8230 X64.945 Y140.603 Z-1.352
N8235 X64.951 Y140.606 Z-1.3
N8240 G0 Z5
N8245 X64.773 Y140.964
N8250 G1 Z1 F600
N8255 Z-2.8
N8260 X64.767 Y140.961 Z-2.852
N8265 X64.749 Y140.952 Z-2.9
N8270 X64.72 Y140.938 Z-2.941
N8275 X64.683 Y140.919 Z-2.973
N8280 X64.64 Y140.898 Z-2.993
N8285 X64.594 Y140.875 Z-3
N8290 X64.415 Y140.786 F400
N8295 G3 X64.325 Y140.517 I0.089 J-0.179
N8300 G2 X65.991 Y123.953 I-21.033 J-10.481 F600
N8305 G1 X56 Y86.666
N8310 Y1
N8315 G2 X55 Y0 I-1
N8320 G1 X40.5
N8325 G2 X39.5 Y1 J1
N8330 G1 Y21
N8335 X20.5
N8340 Y1
N8345 G2 X19.5 Y0 I-1
N8350 G1 X1
N8355 G2 X0 Y1 J1
N8360 G1 Y59.134
N8365 G2 X0.034 Y59.393 I1
N8370 G1 X20.593 Y136.118
N8375 G2 X64.325 Y140.517 I22.699 J-6.082
N8380 G3 X64.593 Y140.428 I0.179 J0.089
N8385 G1 X64.772 Y140.517
N8390 X64.819 Y140.54 Z-2.993
N8395 X64.862 Y140.561 Z-2.973
N8400 X64.899 Y140.58 Z-2.941
N8405 X64.927 Y140.594 Z-2.9
N8410 X64.945 Y140.603 Z-2.852
N8415 X64.951 Y140.606 Z-2.8
N8420 G0 Z5
N8425 X64.773 Y140.964
N8430 G1 Z-0.5 F600
N8435 Z-4.3
N8440 X64.767 Y140.961 Z-4.352
N8445 X64.749 Y140.952 Z-4.4
N8450 X64.72 Y140.938 Z-4.441
N8455 X64.683 Y140.919 Z-4.473
N8460 X64.64 Y140.898 Z-4.493
N8465 X64.594 Y140.875 Z-4.5
N8470 X64.415 Y140.786 F400
N8475 G3 X64.325 Y140.517 I0.089 J-0.179
N8480 G2 X65.991 Y123.953 I-21.033 J-10.481 F600
N8485 G1 X56 Y86.666
N8490 Y1
N8495 G2 X55 Y0 I-1
N8500 G1 X40.5
N8505 G2 X39.5 Y1 J1
N8510 G1 Y21
N8515 X20.5
N8520 Y1
N8525 G2 X19.5 Y0 I-1
N8530 G1 X1
N8535 G2 X0 Y1 J1
N8540 G1 Y59.134
N8545 G2 X0.034 Y59.393 I1
N8550 G1 X20.593 Y136.118
N8555 G2 X64.325 Y140.517 I22.699 J-6.082
N8560 G3 X64.593 Y140.428 I0.179 J0.089
N8565 G1 X64.772 Y140.517
N8570 X64.819 Y140.54 Z-4.493
N8575 X64.862 Y140.561 Z-4.473
N8580 X64.899 Y140.58 Z-4.441
N8585 X64.927 Y140.594 Z-4.4
N8590 X64.945 Y140.603 Z-4.352
N8595 X64.951 Y140.606 Z-4.3
N8600 G0 Z5
N8605 X64.773 Y140.964
N8610 G1 Z-2 F600
N8615 Z-4.9
N8620 X64.767 Y140.961 Z-4.952
N8625 X64.749 Y140.952 Z-5
N8630 X64.72 Y140.938 Z-5.041
N8635 X64.683 Y140.919 Z-5.073
N8640 X64.64 Y140.898 Z-5.093
N8645 X64.594 Y140.875 Z-5.1
N8650 X64.415 Y140.786 F400
N8655 G3 X64.325 Y140.517 I0.089 J-0.179
N8660 G2 X65.991 Y123.953 I-21.033 J-10.481 F600
N8665 G1 X56 Y86.666
N8670 Y1
N8675 G2 X55 Y0 I-1
N8680 G1 X40.5
N8685 G2 X39.5 Y1 J1
N8690 G1 Y21
N8695 X20.5
N8700 Y1
N8705 G2 X19.5 Y0 I-1
N8710 G1 X1
N8715 G2 X0 Y1 J1
N8720 G1 Y59.134
N8725 G2 X0.034 Y59.393 I1
N8730 G1 X20.593 Y136.118
N8735 G2 X64.325 Y140.517 I22.699 J-6.082
N8740 G3 X64.593 Y140.428 I0.179 J0.089
N8745 G1 X64.772 Y140.517
N8750 X64.819 Y140.54 Z-5.093
N8755 X64.862 Y140.561 Z-5.073
N8760 X64.899 Y140.58 Z-5.041
N8765 X64.927 Y140.594 Z-5
N8770 X64.945 Y140.603 Z-4.952
N8775 X64.951 Y140.606 Z-4.9
N8780 G0 Z5
N8785 X73.489 Y154.4
N8790 G1 Z2.5 F600
N8795 Z-1.3
N8800 G19 G3 Y154.6 Z-1.5 J0.2
N8805 G1 Y154.8 F400
N8810 G17 G3 X73.289 Y155 I-0.2
N8815 G1 X62.504 F600
N8820 G2 X58.5 Y158.935 I-0.004 J4
N8825 G1 Y158.951
N8830 Y168
N8835 G3 X56.5 Y170 I-2
N8840 G1 X52.504
N8845 G2 X48.5 Y173.935 I-0.004 J4
N8850 G1 Y173.951
N8855 Y178.049
N8860 Y178.065
N8865 G2 X52.5 Y182 I3.999 J-0.065
N8870 G1 X83.5
N8875 G2 X87.5 Y178 J-4
N8880 G1 Y159
N8885 G2 X83.5 Y155 I-4
N8890 G1 X73.289
N8895 G3 X73.089 Y154.8 J-0.2
N8900 G1 Y154.6
N8905 G19 G2 Y154.4 Z-1.3 K0.2
N8910 G0 Z5
N8915 X73.489
N8920 G1 Z1 F600
N8925 Z-2.8
N8930 G3 Y154.6 Z-3 J0.2
N8935 G1 Y154.8 F400
N8940 G17 G3 X73.289 Y155 I-0.2
N8945 G1 X62.504 F600
N8950 G2 X58.5 Y158.935 I-0.004 J4
N8955 G1 Y158.951
N8960 Y168
N8965 G3 X56.5 Y170 I-2
N8970 G1 X52.504
N8975 G2 X48.5 Y173.935 I-0.004 J4
N8980 G1 Y173.951
N8985 Y178.049
N8990 Y178.065
N8995 G2 X52.5 Y182 I3.999 J-0.065
N9000 G1 X83.5
N9005 G2 X87.5 Y178 J-4
N9010 G1 Y159
N9015 G2 X83.5 Y155 I-4
N9020 G1 X73.289
N9025 G3 X73.089 Y154.8 J-0.2
N9030 G1 Y154.6
N9035 G19 G2 Y154.4 Z-2.8 K0.2
N9040 G0 Z5
N9045 X73.489
N9050 G1 Z-0.5 F600
N9055 Z-4.3
N9060 G3 Y154.6 Z-4.5 J0.2
N9065 G1 Y154.8 F400
N9070 G17 G3 X73.289 Y155 I-0.2
N9075 G1 X62.504 F600
N9080 G2 X58.5 Y158.935 I-0.004 J4
N9085 G1 Y158.951
N9090 Y168
N9095 G3 X56.5 Y170 I-2
N9100 G1 X52.504
N9105 G2 X48.5 Y173.935 I-0.004 J4
N9110 G1 Y173.951
N9115 Y178.049
N9120 Y178.065
N9125 G2 X52.5 Y182 I3.999 J-0.065
N9130 G1 X83.5
N9135 G2 X87.5 Y178 J-4
N9140 G1 Y159
N9145 G2 X83.5 Y155 I-4
N9150 G1 X73.289
N9155 G3 X73.089 Y154.8 J-0.2
N9160 G1 Y154.6
N9165 G19 G2 Y154.4 Z-4.3 K0.2
N9170 G0 Z5
N9175 X73.489
N9180 G1 Z-2 F600
N9185 Z-4.9
N9190 G3 Y154.6 Z-5.1 J0.2
N9195 G1 Y154.8 F400
N9200 G17 G3 X73.289 Y155 I-0.2
N9205 G1 X62.504 F600
N9210 G2 X58.5 Y158.935 I-0.004 J4
N9215 G1 Y158.951
N9220 Y168
N9225 G3 X56.5 Y170 I-2
N9230 G1 X52.504
N9235 G2 X48.5 Y173.935 I-0.004 J4
N9240 G1 Y173.951
N9245 Y178.049
N9250 Y178.065
N9255 G2 X52.5 Y182 I3.999 J-0.065
N9260 G1 X83.5
N9265 G2 X87.5 Y178 J-4
N9270 G1 Y159
N9275 G2 X83.5 Y155 I-4
N9280 G1 X73.289
N9285 G3 X73.089 Y154.8 J-0.2
N9290 G1 Y154.6
N9295 G19 G2 Y154.4 Z-4.9 K0.2
N9300 G0 Z15
N9305 G17
N9310 M9
N9315 G28
N9320 M30
%
