%
(1001)
(T1 D=2 CR=0 - ZMIN=-5.1 - flat end mill)
N10 G90 G94
N15 G17
N20 G21
N25 M9
N30 G28

(2D ????20)
N35 T1 M6
(0)
N40 S23873 M3
N45 G54
N50 M8
N55 G0 X9.52 Y44.533
N60 G43 Z15
N65 Z5
N70 G1 Z2.7 F400
N75 X9.501 Y44.551 Z2.602 F600
N80 X9.446 Y44.595 Z2.529
N85 X9.366 Y44.65 Z2.5
N90 G3 X8.374 Y43.03 Z2.396 I-0.496 J-0.81
N95 X9.366 Y44.65 Z2.292 I0.496 J0.81
N100 X8.374 Y43.03 Z2.187 I-0.496 J-0.81
N105 X9.366 Y44.65 Z2.083 I0.496 J0.81
N110 X8.374 Y43.03 Z1.979 I-0.496 J-0.81
N115 X9.366 Y44.65 Z1.875 I0.496 J0.81
N120 X8.374 Y43.03 Z1.77 I-0.496 J-0.81
N125 X9.366 Y44.65 Z1.666 I0.496 J0.81
N130 X8.374 Y43.03 Z1.562 I-0.496 J-0.81
N135 X9.366 Y44.65 Z1.458 I0.496 J0.81
N140 X8.374 Y43.03 Z1.354 I-0.496 J-0.81
N145 X9.366 Y44.65 Z1.249 I0.496 J0.81
N150 X8.374 Y43.03 Z1.145 I-0.496 J-0.81
N155 X9.366 Y44.65 Z1.041 I0.496 J0.81
N160 X8.374 Y43.03 Z0.937 I-0.496 J-0.81
N165 X9.366 Y44.65 Z0.832 I0.496 J0.81
N170 X8.374 Y43.03 Z0.728 I-0.496 J-0.81
N175 X9.366 Y44.65 Z0.624 I0.496 J0.81
N180 X8.374 Y43.03 Z0.52 I-0.496 J-0.81
N185 X9.366 Y44.65 Z0.416 I0.496 J0.81
N190 X8.374 Y43.03 Z0.311 I-0.496 J-0.81
N195 X9.366 Y44.65 Z0.207 I0.496 J0.81
N200 X8.374 Y43.03 Z0.103 I-0.496 J-0.81
N205 X9.366 Y44.65 Z-0.001 I0.496 J0.81
N210 X8.374 Y43.03 Z-0.106 I-0.496 J-0.81
N215 X9.366 Y44.65 Z-0.21 I0.496 J0.81
N220 X8.374 Y43.03 Z-0.314 I-0.496 J-0.81
N225 X9.366 Y44.65 Z-0.418 I0.496 J0.81
N230 X8.374 Y43.03 Z-0.522 I-0.496 J-0.81
N235 X9.366 Y44.65 Z-0.627 I0.496 J0.81
N240 X8.374 Y43.03 Z-0.731 I-0.496 J-0.81
N245 X9.366 Y44.65 Z-0.835 I0.496 J0.81
N250 X8.374 Y43.03 Z-0.939 I-0.496 J-0.81
N255 X9.366 Y44.65 Z-1.044 I0.496 J0.81
N260 X8.374 Y43.03 Z-1.148 I-0.496 J-0.81
N265 X9.366 Y44.65 Z-1.252 I0.496 J0.81
N270 X8.374 Y43.03 Z-1.356 I-0.496 J-0.81
N275 X9.366 Y44.65 Z-1.46 I0.496 J0.81
N280 X8.3 Y44.6 Z-1.5 I-0.496 J-0.81
N285 X10.7 Y41.4 I1.2 J-1.6
N290 X8.3 Y44.6 I-1.2 J1.6
N295 X10.7 Y41.4 Z-1.719 I1.2 J-1.6
N300 X8.3 Y44.6 Z-1.939 I-1.2 J1.6
N305 X10.7 Y41.4 Z-2.158 I1.2 J-1.6
N310 X8.3 Y44.6 Z-2.378 I-1.2 J1.6
N315 X10.7 Y41.4 Z-2.597 I1.2 J-1.6
N320 X8.3 Y44.6 Z-2.816 I-1.2 J1.6
N325 X9.758 Y41.017 Z-3 I1.2 J-1.6
N330 X9.242 Y44.983 I-0.258 J1.983
N335 X9.758 Y41.017 I0.258 J-1.983
N340 X9.242 Y44.983 Z-3.219 I-0.258 J1.983
N345 X9.758 Y41.017 Z-3.439 I0.258 J-1.983
N350 X11.189 Y41.929 Z-3.5 I-0.258 J1.983
N355 X7.811 Y44.071 I-1.689 J1.071
N360 X11.189 Y41.929 I1.689 J-1.071
N365 G1 X11.21 Y41.974 Z-3.487
N370 X11.219 Y42.023 Z-3.473
N375 Y42.059 Z-3.437
N380 X11.211 Y42.095 Z-3.4
N385 X11.201 Y42.12 Z-3.3
N390 G0 Z15
N395 X9.52 Y67.533
N400 Z5
N405 G1 Z2.7 F400
N410 X9.501 Y67.551 Z2.602 F600
N415 X9.446 Y67.595 Z2.529
N420 X9.366 Y67.65 Z2.5
N425 G3 X8.374 Y66.03 Z2.396 I-0.496 J-0.81
N430 X9.366 Y67.65 Z2.292 I0.496 J0.81
N435 X8.374 Y66.03 Z2.187 I-0.496 J-0.81
N440 X9.366 Y67.65 Z2.083 I0.496 J0.81
N445 X8.374 Y66.03 Z1.979 I-0.496 J-0.81
N450 X9.366 Y67.65 Z1.875 I0.496 J0.81
N455 X8.374 Y66.03 Z1.77 I-0.496 J-0.81
N460 X9.366 Y67.65 Z1.666 I0.496 J0.81
N465 X8.374 Y66.03 Z1.562 I-0.496 J-0.81
N470 X9.366 Y67.65 Z1.458 I0.496 J0.81
N475 X8.374 Y66.03 Z1.354 I-0.496 J-0.81
N480 X9.366 Y67.65 Z1.249 I0.496 J0.81
N485 X8.374 Y66.03 Z1.145 I-0.496 J-0.81
N490 X9.366 Y67.65 Z1.041 I0.496 J0.81
N495 X8.374 Y66.03 Z0.937 I-0.496 J-0.81
N500 X9.366 Y67.65 Z0.832 I0.496 J0.81
N505 X8.374 Y66.03 Z0.728 I-0.496 J-0.81
N510 X9.366 Y67.65 Z0.624 I0.496 J0.81
N515 X8.374 Y66.03 Z0.52 I-0.496 J-0.81
N520 X9.366 Y67.65 Z0.416 I0.496 J0.81
N525 X8.374 Y66.03 Z0.311 I-0.496 J-0.81
N530 X9.366 Y67.65 Z0.207 I0.496 J0.81
N535 X8.374 Y66.03 Z0.103 I-0.496 J-0.81
N540 X9.366 Y67.65 Z-0.001 I0.496 J0.81
N545 X8.374 Y66.03 Z-0.106 I-0.496 J-0.81
N550 X9.366 Y67.65 Z-0.21 I0.496 J0.81
N555 X8.374 Y66.03 Z-0.314 I-0.496 J-0.81
N560 X9.366 Y67.65 Z-0.418 I0.496 J0.81
N565 X8.374 Y66.03 Z-0.522 I-0.496 J-0.81
N570 X9.366 Y67.65 Z-0.627 I0.496 J0.81
N575 X8.374 Y66.03 Z-0.731 I-0.496 J-0.81
N580 X9.366 Y67.65 Z-0.835 I0.496 J0.81
N585 X8.374 Y66.03 Z-0.939 I-0.496 J-0.81
N590 X9.366 Y67.65 Z-1.044 I0.496 J0.81
N595 X8.374 Y66.03 Z-1.148 I-0.496 J-0.81
N600 X9.366 Y67.65 Z-1.252 I0.496 J0.81
N605 X8.374 Y66.03 Z-1.356 I-0.496 J-0.81
N610 X9.366 Y67.65 Z-1.46 I0.496 J0.81
N615 X8.3 Y67.6 Z-1.5 I-0.496 J-0.81
N620 X10.7 Y64.4 I1.2 J-1.6
N625 X8.3 Y67.6 I-1.2 J1.6
N630 X10.7 Y64.4 Z-1.719 I1.2 J-1.6
N635 X8.3 Y67.6 Z-1.939 I-1.2 J1.6
N640 X10.7 Y64.4 Z-2.158 I1.2 J-1.6
N645 X8.3 Y67.6 Z-2.378 I-1.2 J1.6
N650 X10.7 Y64.4 Z-2.597 I1.2 J-1.6
N655 X8.3 Y67.6 Z-2.816 I-1.2 J1.6
N660 X9.758 Y64.017 Z-3 I1.2 J-1.6
N665 X9.242 Y67.983 I-0.258 J1.983
N670 X9.758 Y64.017 I0.258 J-1.983
N675 X9.242 Y67.983 Z-3.219 I-0.258 J1.983
N680 X9.758 Y64.017 Z-3.439 I0.258 J-1.983
N685 X11.189 Y64.929 Z-3.5 I-0.258 J1.983
N690 X7.811 Y67.071 I-1.689 J1.071
N695 X11.189 Y64.929 I1.689 J-1.071
N700 G1 X11.21 Y64.974 Z-3.487
N705 X11.219 Y65.023 Z-3.473
N710 Y65.059 Z-3.437
N715 X11.211 Y65.095 Z-3.4
N720 X11.201 Y65.12 Z-3.3
N725 G0 Z15
N730 X46.52 Y58.983
N735 Z5
N740 G1 Z2.7 F400
N745 X46.501 Y59.001 Z2.602 F600
N750 X46.446 Y59.045 Z2.529
N755 X46.366 Y59.1 Z2.5
N760 G3 X45.374 Y57.48 Z2.396 I-0.496 J-0.81
N765 X46.366 Y59.1 Z2.292 I0.496 J0.81
N770 X45.374 Y57.48 Z2.187 I-0.496 J-0.81
N775 X46.366 Y59.1 Z2.083 I0.496 J0.81
N780 X45.374 Y57.48 Z1.979 I-0.496 J-0.81
N785 X46.366 Y59.1 Z1.875 I0.496 J0.81
N790 X45.374 Y57.48 Z1.77 I-0.496 J-0.81
N795 X46.366 Y59.1 Z1.666 I0.496 J0.81
N800 X45.374 Y57.48 Z1.562 I-0.496 J-0.81
N805 X46.366 Y59.1 Z1.458 I0.496 J0.81
N810 X45.374 Y57.48 Z1.354 I-0.496 J-0.81
N815 X46.366 Y59.1 Z1.249 I0.496 J0.81
N820 X45.374 Y57.48 Z1.145 I-0.496 J-0.81
N825 X46.366 Y59.1 Z1.041 I0.496 J0.81
N830 X45.374 Y57.48 Z0.937 I-0.496 J-0.81
N835 X46.366 Y59.1 Z0.832 I0.496 J0.81
N840 X45.374 Y57.48 Z0.728 I-0.496 J-0.81
N845 X46.366 Y59.1 Z0.624 I0.496 J0.81
N850 X45.374 Y57.48 Z0.52 I-0.496 J-0.81
N855 X46.366 Y59.1 Z0.416 I0.496 J0.81
N860 X45.374 Y57.48 Z0.311 I-0.496 J-0.81
N865 X46.366 Y59.1 Z0.207 I0.496 J0.81
N870 X45.374 Y57.48 Z0.103 I-0.496 J-0.81
N875 X46.366 Y59.1 Z-0.001 I0.496 J0.81
N880 X45.374 Y57.48 Z-0.106 I-0.496 J-0.81
N885 X46.366 Y59.1 Z-0.21 I0.496 J0.81
N890 X45.374 Y57.48 Z-0.314 I-0.496 J-0.81
N895 X46.366 Y59.1 Z-0.418 I0.496 J0.81
N900 X45.374 Y57.48 Z-0.522 I-0.496 J-0.81
N905 X46.366 Y59.1 Z-0.627 I0.496 J0.81
N910 X45.374 Y57.48 Z-0.731 I-0.496 J-0.81
N915 X46.366 Y59.1 Z-0.835 I0.496 J0.81
N920 X45.374 Y57.48 Z-0.939 I-0.496 J-0.81
N925 X46.366 Y59.1 Z-1.044 I0.496 J0.81
N930 X45.374 Y57.48 Z-1.148 I-0.496 J-0.81
N935 X46.366 Y59.1 Z-1.252 I0.496 J0.81
N940 X45.374 Y57.48 Z-1.356 I-0.496 J-0.81
N945 X46.366 Y59.1 Z-1.46 I0.496 J0.81
N950 X45.3 Y59.05 Z-1.5 I-0.496 J-0.81
N955 X47.7 Y55.85 I1.2 J-1.6
N960 X45.3 Y59.05 I-1.2 J1.6
N965 X47.7 Y55.85 Z-1.719 I1.2 J-1.6
N970 X45.3 Y59.05 Z-1.939 I-1.2 J1.6
N975 X47.7 Y55.85 Z-2.158 I1.2 J-1.6
N980 X45.3 Y59.05 Z-2.378 I-1.2 J1.6
N985 X47.7 Y55.85 Z-2.597 I1.2 J-1.6
N990 X45.3 Y59.05 Z-2.816 I-1.2 J1.6
N995 X46.758 Y55.467 Z-3 I1.2 J-1.6
N1000 X46.242 Y59.433 I-0.258 J1.983
N1005 X46.758 Y55.467 I0.258 J-1.983
N1010 X46.242 Y59.433 Z-3.219 I-0.258 J1.983
N1015 X46.758 Y55.467 Z-3.439 I0.258 J-1.983
N1020 X48.189 Y56.379 Z-3.5 I-0.258 J1.983
N1025 X44.811 Y58.521 I-1.689 J1.071
N1030 X48.189 Y56.379 I1.689 J-1.071
N1035 G1 X48.21 Y56.424 Z-3.487
N1040 X48.219 Y56.473 Z-3.473
N1045 Y56.509 Z-3.437
N1050 X48.211 Y56.545 Z-3.4
N1055 X48.201 Y56.57 Z-3.3
N1060 G0 Z15
N1065 X49.52 Y91.533
N1070 Z5
N1075 G1 Z2.7 F400
N1080 X49.501 Y91.551 Z2.602 F600
N1085 X49.446 Y91.595 Z2.529
N1090 X49.366 Y91.65 Z2.5
N1095 G3 X48.374 Y90.03 Z2.396 I-0.496 J-0.81
N1100 X49.366 Y91.65 Z2.292 I0.496 J0.81
N1105 X48.374 Y90.03 Z2.187 I-0.496 J-0.81
N1110 X49.366 Y91.65 Z2.083 I0.496 J0.81
N1115 X48.374 Y90.03 Z1.979 I-0.496 J-0.81
N1120 X49.366 Y91.65 Z1.875 I0.496 J0.81
N1125 X48.374 Y90.03 Z1.77 I-0.496 J-0.81
N1130 X49.366 Y91.65 Z1.666 I0.496 J0.81
N1135 X48.374 Y90.03 Z1.562 I-0.496 J-0.81
N1140 X49.366 Y91.65 Z1.458 I0.496 J0.81
N1145 X48.374 Y90.03 Z1.354 I-0.496 J-0.81
N1150 X49.366 Y91.65 Z1.249 I0.496 J0.81
N1155 X48.374 Y90.03 Z1.145 I-0.496 J-0.81
N1160 X49.366 Y91.65 Z1.041 I0.496 J0.81
N1165 X48.374 Y90.03 Z0.937 I-0.496 J-0.81
N1170 X49.366 Y91.65 Z0.832 I0.496 J0.81
N1175 X48.374 Y90.03 Z0.728 I-0.496 J-0.81
N1180 X49.366 Y91.65 Z0.624 I0.496 J0.81
N1185 X48.374 Y90.03 Z0.52 I-0.496 J-0.81
N1190 X49.366 Y91.65 Z0.416 I0.496 J0.81
N1195 X48.374 Y90.03 Z0.311 I-0.496 J-0.81
N1200 X49.366 Y91.65 Z0.207 I0.496 J0.81
N1205 X48.374 Y90.03 Z0.103 I-0.496 J-0.81
N1210 X49.366 Y91.65 Z-0.001 I0.496 J0.81
N1215 X48.374 Y90.03 Z-0.106 I-0.496 J-0.81
N1220 X49.366 Y91.65 Z-0.21 I0.496 J0.81
N1225 X48.374 Y90.03 Z-0.314 I-0.496 J-0.81
N1230 X49.366 Y91.65 Z-0.418 I0.496 J0.81
N1235 X48.374 Y90.03 Z-0.522 I-0.496 J-0.81
N1240 X49.366 Y91.65 Z-0.627 I0.496 J0.81
N1245 X48.374 Y90.03 Z-0.731 I-0.496 J-0.81
N1250 X49.366 Y91.65 Z-0.835 I0.496 J0.81
N1255 X48.374 Y90.03 Z-0.939 I-0.496 J-0.81
N1260 X49.366 Y91.65 Z-1.044 I0.496 J0.81
N1265 X48.374 Y90.03 Z-1.148 I-0.496 J-0.81
N1270 X49.366 Y91.65 Z-1.252 I0.496 J0.81
N1275 X48.374 Y90.03 Z-1.356 I-0.496 J-0.81
N1280 X49.366 Y91.65 Z-1.46 I0.496 J0.81
N1285 X48.3 Y91.6 Z-1.5 I-0.496 J-0.81
N1290 X50.7 Y88.4 I1.2 J-1.6
N1295 X48.3 Y91.6 I-1.2 J1.6
N1300 X50.7 Y88.4 Z-1.719 I1.2 J-1.6
N1305 X48.3 Y91.6 Z-1.939 I-1.2 J1.6
N1310 X50.7 Y88.4 Z-2.158 I1.2 J-1.6
N1315 X48.3 Y91.6 Z-2.378 I-1.2 J1.6
N1320 X50.7 Y88.4 Z-2.597 I1.2 J-1.6
N1325 X48.3 Y91.6 Z-2.816 I-1.2 J1.6
N1330 X49.758 Y88.017 Z-3 I1.2 J-1.6
N1335 X49.242 Y91.983 I-0.258 J1.983
N1340 X49.758 Y88.017 I0.258 J-1.983
N1345 X49.242 Y91.983 Z-3.219 I-0.258 J1.983
N1350 X49.758 Y88.017 Z-3.439 I0.258 J-1.983
N1355 X51.189 Y88.929 Z-3.5 I-0.258 J1.983
N1360 X47.811 Y91.071 I-1.689 J1.071
N1365 X51.189 Y88.929 I1.689 J-1.071
N1370 G1 X51.21 Y88.974 Z-3.487
N1375 X51.219 Y89.023 Z-3.473
N1380 Y89.059 Z-3.437
N1385 X51.211 Y89.095 Z-3.4
N1390 X51.201 Y89.12 Z-3.3
N1395 G0 Z15
N1400 X47.323 Y146.541
N1405 Z5
N1410 G1 Z2.7 F400
N1415 X47.304 Y146.559 Z2.602 F600
N1420 X47.25 Y146.603 Z2.529
N1425 X47.17 Y146.658 Z2.5
N1430 G3 X46.177 Y145.038 Z2.396 I-0.496 J-0.81
N1435 X47.17 Y146.658 Z2.292 I0.496 J0.81
N1440 X46.177 Y145.038 Z2.187 I-0.496 J-0.81
N1445 X47.17 Y146.658 Z2.083 I0.496 J0.81
N1450 X46.177 Y145.038 Z1.979 I-0.496 J-0.81
N1455 X47.17 Y146.658 Z1.875 I0.496 J0.81
N1460 X46.177 Y145.038 Z1.77 I-0.496 J-0.81
N1465 X47.17 Y146.658 Z1.666 I0.496 J0.81
N1470 X46.177 Y145.038 Z1.562 I-0.496 J-0.81
N1475 X47.17 Y146.658 Z1.458 I0.496 J0.81
N1480 X46.177 Y145.038 Z1.354 I-0.496 J-0.81
N1485 X47.17 Y146.658 Z1.249 I0.496 J0.81
N1490 X46.177 Y145.038 Z1.145 I-0.496 J-0.81
N1495 X47.17 Y146.658 Z1.041 I0.496 J0.81
N1500 X46.177 Y145.038 Z0.937 I-0.496 J-0.81
N1505 X47.17 Y146.658 Z0.832 I0.496 J0.81
N1510 X46.177 Y145.038 Z0.728 I-0.496 J-0.81
N1515 X47.17 Y146.658 Z0.624 I0.496 J0.81
N1520 X46.177 Y145.038 Z0.52 I-0.496 J-0.81
N1525 X47.17 Y146.658 Z0.416 I0.496 J0.81
N1530 X46.177 Y145.038 Z0.311 I-0.496 J-0.81
N1535 X47.17 Y146.658 Z0.207 I0.496 J0.81
N1540 X46.177 Y145.038 Z0.103 I-0.496 J-0.81
N1545 X47.17 Y146.658 Z-0.001 I0.496 J0.81
N1550 X46.177 Y145.038 Z-0.106 I-0.496 J-0.81
N1555 X47.17 Y146.658 Z-0.21 I0.496 J0.81
N1560 X46.177 Y145.038 Z-0.314 I-0.496 J-0.81
N1565 X47.17 Y146.658 Z-0.418 I0.496 J0.81
N1570 X46.177 Y145.038 Z-0.522 I-0.496 J-0.81
N1575 X47.17 Y146.658 Z-0.627 I0.496 J0.81
N1580 X46.177 Y145.038 Z-0.731 I-0.496 J-0.81
N1585 X47.17 Y146.658 Z-0.835 I0.496 J0.81
N1590 X46.177 Y145.038 Z-0.939 I-0.496 J-0.81
N1595 X47.17 Y146.658 Z-1.044 I0.496 J0.81
N1600 X46.177 Y145.038 Z-1.148 I-0.496 J-0.81
N1605 X47.17 Y146.658 Z-1.252 I0.496 J0.81
N1610 X46.177 Y145.038 Z-1.356 I-0.496 J-0.81
N1615 X47.17 Y146.658 Z-1.46 I0.496 J0.81
N1620 X46.104 Y146.608 Z-1.5 I-0.496 J-0.81
N1625 X48.504 Y143.408 I1.2 J-1.6
N1630 X46.104 Y146.608 I-1.2 J1.6
N1635 X48.504 Y143.408 Z-1.719 I1.2 J-1.6
N1640 X46.104 Y146.608 Z-1.939 I-1.2 J1.6
N1645 X48.503 Y143.408 Z-2.158 I1.2 J-1.6
N1650 X46.104 Y146.608 Z-2.378 I-1.2 J1.6
N1655 X48.503 Y143.408 Z-2.597 I1.2 J-1.6
N1660 X46.104 Y146.608 Z-2.816 I-1.2 J1.6
N1665 X47.562 Y143.025 Z-3 I1.2 J-1.6
N1670 X47.045 Y146.991 I-0.258 J1.983
N1675 X47.562 Y143.025 I0.258 J-1.983
N1680 X47.045 Y146.991 Z-3.219 I-0.258 J1.983
N1685 X47.562 Y143.025 Z-3.439 I0.258 J-1.983
N1690 X48.992 Y143.937 Z-3.5 I-0.258 J1.983
N1695 X45.615 Y146.079 I-1.689 J1.071
N1700 X48.992 Y143.937 I1.689 J-1.071
N1705 G1 X49.014 Y143.982 Z-3.487
N1710 X49.023 Y144.031 Z-3.473
N1715 X49.022 Y144.067 Z-3.437
N1720 X49.014 Y144.103 Z-3.4
N1725 X49.005 Y144.128 Z-3.3
N1730 G0 Z15
N1735 X54.52 Y177.533
N1740 Z5
N1745 G1 Z2.7 F400
N1750 X54.501 Y177.551 Z2.602 F600
N1755 X54.446 Y177.595 Z2.529
N1760 X54.366 Y177.65 Z2.5
N1765 G3 X53.374 Y176.03 Z2.396 I-0.496 J-0.81
N1770 X54.366 Y177.65 Z2.292 I0.496 J0.81
N1775 X53.374 Y176.03 Z2.187 I-0.496 J-0.81
N1780 X54.366 Y177.65 Z2.083 I0.496 J0.81
N1785 X53.374 Y176.03 Z1.979 I-0.496 J-0.81
N1790 X54.366 Y177.65 Z1.875 I0.496 J0.81
N1795 X53.374 Y176.03 Z1.77 I-0.496 J-0.81
N1800 X54.366 Y177.65 Z1.666 I0.496 J0.81
N1805 X53.374 Y176.03 Z1.562 I-0.496 J-0.81
N1810 X54.366 Y177.65 Z1.458 I0.496 J0.81
N1815 X53.374 Y176.03 Z1.354 I-0.496 J-0.81
N1820 X54.366 Y177.65 Z1.249 I0.496 J0.81
N1825 X53.374 Y176.03 Z1.145 I-0.496 J-0.81
N1830 X54.366 Y177.65 Z1.041 I0.496 J0.81
N1835 X53.374 Y176.03 Z0.937 I-0.496 J-0.81
N1840 X54.366 Y177.65 Z0.832 I0.496 J0.81
N1845 X53.374 Y176.03 Z0.728 I-0.496 J-0.81
N1850 X54.366 Y177.65 Z0.624 I0.496 J0.81
N1855 X53.374 Y176.03 Z0.52 I-0.496 J-0.81
N1860 X54.366 Y177.65 Z0.416 I0.496 J0.81
N1865 X53.374 Y176.03 Z0.311 I-0.496 J-0.81
N1870 X54.366 Y177.65 Z0.207 I0.496 J0.81
N1875 X53.374 Y176.03 Z0.103 I-0.496 J-0.81
N1880 X54.366 Y177.65 Z-0.001 I0.496 J0.81
N1885 X53.374 Y176.03 Z-0.106 I-0.496 J-0.81
N1890 X54.366 Y177.65 Z-0.21 I0.496 J0.81
N1895 X53.374 Y176.03 Z-0.314 I-0.496 J-0.81
N1900 X54.366 Y177.65 Z-0.418 I0.496 J0.81
N1905 X53.374 Y176.03 Z-0.522 I-0.496 J-0.81
N1910 X54.366 Y177.65 Z-0.627 I0.496 J0.81
N1915 X53.374 Y176.03 Z-0.731 I-0.496 J-0.81
N1920 X54.366 Y177.65 Z-0.835 I0.496 J0.81
N1925 X53.374 Y176.03 Z-0.939 I-0.496 J-0.81
N1930 X54.366 Y177.65 Z-1.044 I0.496 J0.81
N1935 X53.374 Y176.03 Z-1.148 I-0.496 J-0.81
N1940 X54.366 Y177.65 Z-1.252 I0.496 J0.81
N1945 X53.374 Y176.03 Z-1.356 I-0.496 J-0.81
N1950 X54.366 Y177.65 Z-1.46 I0.496 J0.81
N1955 X53.3 Y177.6 Z-1.5 I-0.496 J-0.81
N1960 X55.7 Y174.4 I1.2 J-1.6
N1965 X53.3 Y177.6 I-1.2 J1.6
N1970 X55.7 Y174.4 Z-1.719 I1.2 J-1.6
N1975 X53.3 Y177.6 Z-1.939 I-1.2 J1.6
N1980 X55.7 Y174.4 Z-2.158 I1.2 J-1.6
N1985 X53.3 Y177.6 Z-2.378 I-1.2 J1.6
N1990 X55.7 Y174.4 Z-2.597 I1.2 J-1.6
N1995 X53.3 Y177.6 Z-2.816 I-1.2 J1.6
N2000 X54.758 Y174.017 Z-3 I1.2 J-1.6
N2005 X54.242 Y177.983 I-0.258 J1.983
N2010 X54.758 Y174.017 I0.258 J-1.983
N2015 X54.242 Y177.983 Z-3.219 I-0.258 J1.983
N2020 X54.758 Y174.017 Z-3.439 I0.258 J-1.983
N2025 X56.189 Y174.929 Z-3.5 I-0.258 J1.983
N2030 X52.811 Y177.071 I-1.689 J1.071
N2035 X56.189 Y174.929 I1.689 J-1.071
N2040 G1 X56.21 Y174.974 Z-3.487
N2045 X56.219 Y175.023 Z-3.473
N2050 Y175.059 Z-3.437
N2055 X56.211 Y175.095 Z-3.4
N2060 X56.201 Y175.12 Z-3.3
N2065 G0 Z15
N2070 X103.395 Y87.63
N2075 Z5
N2080 G1 Z2.5 F400
N2085 Z-1.3
N2090 Y87.637 Z-1.352
N2095 X103.394 Y87.657 Z-1.4
N2100 Y87.689 Z-1.441
N2105 Y87.73 Z-1.473
N2110 Y87.778 Z-1.493
N2115 Y87.83 Z-1.5
N2120 Y87.85
N2125 X103.386 Y98.51 F600
N2130 G3 X84.614 I-9.386
N2135 G1 X84.605 Y87.858
N2140 X84.612 Y87.805
N2145 X84.633 Y87.756
N2150 X84.667 Y87.714
N2155 X84.71 Y87.682
N2160 X84.76 Y87.663
N2165 X104.755 Y83
N2170 G3 X105 Y83.195 I0.045 J0.195
N2175 G1 Y98.51
N2180 G3 X83 I-11
N2185 G1 Y83.199
N2190 G3 X83.241 Y83.004 I0.2
N2195 G1 X103.236 Y87.247
N2200 G3 X103.395 Y87.442 I-0.042 J0.196
N2205 G1 Y87.494 Z-1.507 F400
N2210 Y87.542 Z-1.527
N2215 Y87.584 Z-1.559
N2220 Y87.616 Z-1.6
N2225 Y87.636 Z-1.648
N2230 Y87.642 Z-1.7
N2235 Z-2.8
N2240 Y87.649 Z-2.852
N2245 X103.394 Y87.669 Z-2.9
N2250 Y87.701 Z-2.941
N2255 Y87.742 Z-2.973
N2260 Y87.791 Z-2.993
N2265 Y87.842 Z-3
N2270 Y87.85
N2275 X103.386 Y98.51 F600
N2280 G3 X84.614 I-9.386
N2285 G1 X84.605 Y87.858
N2290 X84.612 Y87.805
N2295 X84.633 Y87.756
N2300 X84.667 Y87.714
N2305 X84.71 Y87.682
N2310 X84.76 Y87.663
N2315 X104.755 Y83
N2320 G3 X105 Y83.195 I0.045 J0.195
N2325 G1 Y98.51
N2330 G3 X83 I-11
N2335 G1 Y83.199
N2340 X83.002 Y83.168
N2345 X83.158 Y82.18
N2350 X83.167 Y82.129 Z-2.993
N2355 X83.174 Y82.082 Z-2.973
N2360 X83.181 Y82.041 Z-2.941
N2365 X83.186 Y82.009 Z-2.9
N2370 X83.189 Y81.99 Z-2.852
N2375 X83.19 Y81.983 Z-2.8
N2380 G0 Z15

(2D ??30)
N2385 X109.655 Y89.814
N2390 Z15
N2395 Z5
N2400 G1 Z2.5 F600
N2405 Z-1.3
N2410 X109.662 Z-1.352
N2415 X109.682 Z-1.4
N2420 X109.713 Y89.815 Z-1.441
N2425 X109.755 Y89.816 Z-1.473
N2430 X109.803 Y89.817 Z-1.493
N2435 X109.855 Y89.819 Z-1.5
N2440 X110.055 Y89.824 F400
N2445 G3 X110.25 Y90.028 I-0.005 J0.2
N2450 X108.75 Y89.992 I-0.75 J-0.018 F600
N2455 X110.25 Y90.028 I0.75 J0.018
N2460 X110.045 Y90.223 I-0.2 J-0.005
N2465 G1 X109.845 Y90.219
N2470 X109.793 Y90.217 Z-1.493
N2475 X109.745 Y90.216 Z-1.473
N2480 X109.704 Y90.215 Z-1.441
N2485 X109.672 Y90.214 Z-1.4
N2490 X109.652 Z-1.352
N2495 X109.645 Z-1.3
N2500 G0 Z5
N2505 X109.655 Y89.814
N2510 G1 Z1 F600
N2515 Z-2.1
N2520 X109.662 Z-2.152
N2525 X109.682 Z-2.2
N2530 X109.713 Y89.815 Z-2.241
N2535 X109.755 Y89.816 Z-2.273
N2540 X109.803 Y89.817 Z-2.293
N2545 X109.855 Y89.819 Z-2.3
N2550 X110.055 Y89.824 F400
N2555 G3 X110.25 Y90.028 I-0.005 J0.2
N2560 X108.75 Y89.992 I-0.75 J-0.018 F600
N2565 X110.25 Y90.028 I0.75 J0.018
N2570 X110.045 Y90.223 I-0.2 J-0.005
N2575 G1 X109.845 Y90.219
N2580 X109.793 Y90.217 Z-2.293
N2585 X109.745 Y90.216 Z-2.273
N2590 X109.704 Y90.215 Z-2.241
N2595 X109.672 Y90.214 Z-2.2
N2600 X109.652 Z-2.152
N2605 X109.645 Z-2.1
N2610 G0 Z5
N2615 X109.655 Y89.814
N2620 G1 Z0.2 F600
N2625 Z-2.9
N2630 X109.662 Z-2.952
N2635 X109.682 Z-3
N2640 X109.713 Y89.815 Z-3.041
N2645 X109.755 Y89.816 Z-3.073
N2650 X109.803 Y89.817 Z-3.093
N2655 X109.855 Y89.819 Z-3.1
N2660 X110.055 Y89.824 F400
N2665 G3 X110.25 Y90.028 I-0.005 J0.2
N2670 X108.75 Y89.992 I-0.75 J-0.018 F600
N2675 X110.25 Y90.028 I0.75 J0.018
N2680 X110.045 Y90.223 I-0.2 J-0.005
N2685 G1 X109.845 Y90.219
N2690 X109.793 Y90.217 Z-3.093
N2695 X109.745 Y90.216 Z-3.073
N2700 X109.704 Y90.215 Z-3.041
N2705 X109.672 Y90.214 Z-3
N2710 X109.652 Z-2.952
N2715 X109.645 Z-2.9
N2720 G0 Z5
N2725 X106.65 Y57.26
N2730 G1 Z2.5 F600
N2735 Z-1.3
N2740 G18 G2 X106.85 Z-1.5 I0.2
N2745 G1 X107.05 F400
N2750 G17 G3 X107.25 Y57.46 J0.2
N2755 X105.75 I-0.75 F600
N2760 X107.25 I0.75
N2765 X107.05 Y57.66 I-0.2
N2770 G1 X106.85
N2775 G18 G3 X106.65 Z-1.3 K0.2
N2780 G0 Z5
N2785 Y57.26
N2790 G1 Z1 F600
N2795 Z-2.1
N2800 G2 X106.85 Z-2.3 I0.2
N2805 G1 X107.05 F400
N2810 G17 G3 X107.25 Y57.46 J0.2
N2815 X105.75 I-0.75 F600
N2820 X107.25 I0.75
N2825 X107.05 Y57.66 I-0.2
N2830 G1 X106.85
N2835 G18 G3 X106.65 Z-2.1 K0.2
N2840 G0 Z5
N2845 Y57.26
N2850 G1 Z0.2 F600
N2855 Z-2.9
N2860 G2 X106.85 Z-3.1 I0.2
N2865 G1 X107.05 F400
N2870 G17 G3 X107.25 Y57.46 J0.2
N2875 X105.75 I-0.75 F600
N2880 X107.25 I0.75
N2885 X107.05 Y57.66 I-0.2
N2890 G1 X106.85
N2895 G18 G3 X106.65 Z-2.9 K0.2
N2900 G0 Z5
N2905 X69.65 Y55.81
N2910 G1 Z2.5 F600
N2915 Z-1.3
N2920 G2 X69.85 Z-1.5 I0.2
N2925 G1 X70.05 F400
N2930 G17 G3 X70.25 Y56.01 J0.2
N2935 X68.75 I-0.75 F600
N2940 X70.25 I0.75
N2945 X70.05 Y56.21 I-0.2
N2950 G1 X69.85
N2955 G18 G3 X69.65 Z-1.3 K0.2
N2960 G0 Z5
N2965 Y55.81
N2970 G1 Z1 F600
N2975 Z-2.1
N2980 G2 X69.85 Z-2.3 I0.2
N2985 G1 X70.05 F400
N2990 G17 G3 X70.25 Y56.01 J0.2
N2995 X68.75 I-0.75 F600
N3000 X70.25 I0.75
N3005 X70.05 Y56.21 I-0.2
N3010 G1 X69.85
N3015 G18 G3 X69.65 Z-2.1 K0.2
N3020 G0 Z5
N3025 Y55.81
N3030 G1 Z0.2 F600
N3035 Z-2.9
N3040 G2 X69.85 Z-3.1 I0.2
N3045 G1 X70.05 F400
N3050 G17 G3 X70.25 Y56.01 J0.2
N3055 X68.75 I-0.75 F600
N3060 X70.25 I0.75
N3065 X70.05 Y56.21 I-0.2
N3070 G1 X69.85
N3075 G18 G3 X69.65 Z-2.9 K0.2
N3080 G0 Z5
N3085 Y65.81
N3090 G1 Z2.5 F600
N3095 Z-1.3
N3100 G2 X69.85 Z-1.5 I0.2
N3105 G1 X70.05 F400
N3110 G17 G3 X70.25 Y66.01 J0.2
N3115 X68.75 I-0.75 F600
N3120 X70.25 I0.75
N3125 X70.05 Y66.21 I-0.2
N3130 G1 X69.85
N3135 G18 G3 X69.65 Z-1.3 K0.2
N3140 G0 Z5
N3145 Y65.81
N3150 G1 Z1 F600
N3155 Z-2.1
N3160 G2 X69.85 Z-2.3 I0.2
N3165 G1 X70.05 F400
N3170 G17 G3 X70.25 Y66.01 J0.2
N3175 X68.75 I-0.75 F600
N3180 X70.25 I0.75
N3185 X70.05 Y66.21 I-0.2
N3190 G1 X69.85
N3195 G18 G3 X69.65 Z-2.1 K0.2
N3200 G0 Z5
N3205 Y65.81
N3210 G1 Z0.2 F600
N3215 Z-2.9
N3220 G2 X69.85 Z-3.1 I0.2
N3225 G1 X70.05 F400
N3230 G17 G3 X70.25 Y66.01 J0.2
N3235 X68.75 I-0.75 F600
N3240 X70.25 I0.75
N3245 X70.05 Y66.21 I-0.2
N3250 G1 X69.85
N3255 G18 G3 X69.65 Z-2.9 K0.2
N3260 G0 Z5
N3265 X69.654 Y42.814
N3270 G1 Z2.5 F600
N3275 Z-1.3
N3280 X69.661 Z-1.352
N3285 X69.681 Z-1.4
N3290 X69.713 Y42.815 Z-1.441
N3295 X69.754 Y42.816 Z-1.473
N3300 X69.803 Y42.817 Z-1.493
N3305 X69.854 Y42.819 Z-1.5
N3310 X70.054 Y42.824 F400
N3315 G17 G3 X70.249 Y43.028 I-0.005 J0.2
N3320 X68.75 Y42.992 I-0.75 J-0.018 F600
N3325 X70.249 Y43.028 I0.75 J0.018
N3330 X70.045 Y43.223 I-0.2 J-0.005
N3335 G1 X69.845 Y43.219
N3340 X69.793 Y43.217 Z-1.493
N3345 X69.745 Y43.216 Z-1.473
N3350 X69.703 Y43.215 Z-1.441
N3355 X69.671 Y43.214 Z-1.4
N3360 X69.651 Z-1.352
N3365 X69.645 Z-1.3
N3370 G0 Z5
N3375 X69.654 Y42.814
N3380 G1 Z1 F600
N3385 Z-2.1
N3390 X69.661 Z-2.152
N3395 X69.681 Z-2.2
N3400 X69.713 Y42.815 Z-2.241
N3405 X69.754 Y42.816 Z-2.273
N3410 X69.803 Y42.817 Z-2.293
N3415 X69.854 Y42.819 Z-2.3
N3420 X70.054 Y42.824 F400
N3425 G3 X70.249 Y43.028 I-0.005 J0.2
N3430 X68.75 Y42.992 I-0.75 J-0.018 F600
N3435 X70.249 Y43.028 I0.75 J0.018
N3440 X70.045 Y43.223 I-0.2 J-0.005
N3445 G1 X69.845 Y43.219
N3450 X69.793 Y43.217 Z-2.293
N3455 X69.745 Y43.216 Z-2.273
N3460 X69.703 Y43.215 Z-2.241
N3465 X69.671 Y43.214 Z-2.2
N3470 X69.651 Z-2.152
N3475 X69.645 Z-2.1
N3480 G0 Z5
N3485 X69.654 Y42.814
N3490 G1 Z0.2 F600
N3495 Z-2.9
N3500 X69.661 Z-2.952
N3505 X69.681 Z-3
N3510 X69.713 Y42.815 Z-3.041
N3515 X69.754 Y42.816 Z-3.073
N3520 X69.803 Y42.817 Z-3.093
N3525 X69.854 Y42.819 Z-3.1
N3530 X70.054 Y42.824 F400
N3535 G3 X70.249 Y43.028 I-0.005 J0.2
N3540 X68.75 Y42.992 I-0.75 J-0.018 F600
N3545 X70.249 Y43.028 I0.75 J0.018
N3550 X70.045 Y43.223 I-0.2 J-0.005
N3555 G1 X69.845 Y43.219
N3560 X69.793 Y43.217 Z-3.093
N3565 X69.745 Y43.216 Z-3.073
N3570 X69.703 Y43.215 Z-3.041
N3575 X69.671 Y43.214 Z-3
N3580 X69.651 Z-2.952
N3585 X69.645 Z-2.9
N3590 G0 Z5
N3595 X107.453 Y144.818
N3600 G1 Z2.5 F600
N3605 Z-1.3
N3610 G18 G2 X107.653 Z-1.5 I0.2
N3615 G1 X107.853 F400
N3620 G17 G3 X108.053 Y145.018 J0.2
N3625 X106.553 I-0.75 F600
N3630 X108.053 I0.75
N3635 X107.853 Y145.218 I-0.2
N3640 G1 X107.653
N3645 G18 G3 X107.453 Z-1.3 K0.2
N3650 G0 Z5
N3655 Y144.818
N3660 G1 Z1 F600
N3665 Z-2.1
N3670 G2 X107.653 Z-2.3 I0.2
N3675 G1 X107.853 F400
N3680 G17 G3 X108.053 Y145.018 J0.2
N3685 X106.553 I-0.75 F600
N3690 X108.053 I0.75
N3695 X107.853 Y145.218 I-0.2
N3700 G1 X107.653
N3705 G18 G3 X107.453 Z-2.1 K0.2
N3710 G0 Z5
N3715 Y144.818
N3720 G1 Z0.2 F600
N3725 Z-2.9
N3730 G2 X107.653 Z-3.1 I0.2
N3735 G1 X107.853 F400
N3740 G17 G3 X108.053 Y145.018 J0.2
N3745 X106.553 I-0.75 F600
N3750 X108.053 I0.75
N3755 X107.853 Y145.218 I-0.2
N3760 G1 X107.653
N3765 G18 G3 X107.453 Z-2.9 K0.2
N3770 G0 Z15
N3775 X49.701 Y89.851
N3780 Z5
N3785 G1 Z2.5 F600
N3790 Z-1.3
N3795 X49.707 Y89.853 Z-1.352
N3800 X49.727 Y89.859 Z-1.4
N3805 X49.757 Y89.868 Z-1.441
N3810 X49.797 Y89.88 Z-1.473
N3815 X49.843 Y89.894 Z-1.493
N3820 X49.893 Y89.908 Z-1.5
N3825 X50.084 Y89.965 F400
N3830 G17 G3 X50.219 Y90.214 I-0.057 J0.192
N3835 X48.781 Y89.786 I-0.719 J-0.214 F600
N3840 X50.219 Y90.214 I0.719 J0.214
N3845 X49.97 Y90.349 I-0.192 J-0.057
N3850 G1 X49.778 Y90.292
N3855 X49.729 Y90.277 Z-1.493
N3860 X49.682 Y90.263 Z-1.473
N3865 X49.643 Y90.251 Z-1.441
N3870 X49.612 Y90.242 Z-1.4
N3875 X49.593 Y90.236 Z-1.352
N3880 X49.587 Y90.235 Z-1.3
N3885 G0 Z5
N3890 X49.701 Y89.851
N3895 G1 Z1 F600
N3900 Z-2.8
N3905 X49.707 Y89.853 Z-2.852
N3910 X49.727 Y89.859 Z-2.9
N3915 X49.757 Y89.868 Z-2.941
N3920 X49.797 Y89.88 Z-2.973
N3925 X49.843 Y89.894 Z-2.993
N3930 X49.893 Y89.908 Z-3
N3935 X50.084 Y89.965 F400
N3940 G3 X50.219 Y90.214 I-0.057 J0.192
N3945 X48.781 Y89.786 I-0.719 J-0.214 F600
N3950 X50.219 Y90.214 I0.719 J0.214
N3955 X49.97 Y90.349 I-0.192 J-0.057
N3960 G1 X49.778 Y90.292
N3965 X49.729 Y90.277 Z-2.993
N3970 X49.682 Y90.263 Z-2.973
N3975 X49.643 Y90.251 Z-2.941
N3980 X49.612 Y90.242 Z-2.9
N3985 X49.593 Y90.236 Z-2.852
N3990 X49.587 Y90.235 Z-2.8
N3995 G0 Z5
N4000 X49.701 Y89.851
N4005 G1 Z-0.5 F600
N4010 Z-4.3
N4015 X49.707 Y89.853 Z-4.352
N4020 X49.727 Y89.859 Z-4.4
N4025 X49.757 Y89.868 Z-4.441
N4030 X49.797 Y89.88 Z-4.473
N4035 X49.843 Y89.894 Z-4.493
N4040 X49.893 Y89.908 Z-4.5
N4045 X50.084 Y89.965 F400
N4050 G3 X50.219 Y90.214 I-0.057 J0.192
N4055 X48.781 Y89.786 I-0.719 J-0.214 F600
N4060 X50.219 Y90.214 I0.719 J0.214
N4065 X49.97 Y90.349 I-0.192 J-0.057
N4070 G1 X49.778 Y90.292
N4075 X49.729 Y90.277 Z-4.493
N4080 X49.682 Y90.263 Z-4.473
N4085 X49.643 Y90.251 Z-4.441
N4090 X49.612 Y90.242 Z-4.4
N4095 X49.593 Y90.236 Z-4.352
N4100 X49.587 Y90.235 Z-4.3
N4105 G0 Z5
N4110 X49.701 Y89.851
N4115 G1 Z-2 F600
N4120 Z-4.9
N4125 X49.707 Y89.853 Z-4.952
N4130 X49.727 Y89.859 Z-5
N4135 X49.757 Y89.868 Z-5.041
N4140 X49.797 Y89.88 Z-5.073
N4145 X49.843 Y89.894 Z-5.093
N4150 X49.893 Y89.908 Z-5.1
N4155 X50.084 Y89.965 F400
N4160 G3 X50.219 Y90.214 I-0.057 J0.192
N4165 X48.781 Y89.786 I-0.719 J-0.214 F600
N4170 X50.219 Y90.214 I0.719 J0.214
N4175 X49.97 Y90.349 I-0.192 J-0.057
N4180 G1 X49.778 Y90.292
N4185 X49.729 Y90.277 Z-5.093
N4190 X49.682 Y90.263 Z-5.073
N4195 X49.643 Y90.251 Z-5.041
N4200 X49.612 Y90.242 Z-5
N4205 X49.593 Y90.236 Z-4.952
N4210 X49.587 Y90.235 Z-4.9
N4215 G0 Z5
N4220 X22.846 Y67.043
N4225 G1 Z2.5 F600
N4230 Z-1.3
N4235 X22.839 Y67.044 Z-1.352
N4240 X22.82 Y67.05 Z-1.4
N4245 X22.789 Y67.058 Z-1.441
N4250 X22.749 Y67.068 Z-1.473
N4255 X22.703 Y67.081 Z-1.493
N4260 X22.653 Y67.094 Z-1.5
N4265 X22.46 Y67.146 F400
N4270 G3 X22.215 Y67.005 I-0.052 J-0.193
N4275 G1 X22.155 Y66.782 F600
N4280 X30.848 Y64.453
N4285 X30.978 Y64.936
N4290 X22.284 Y67.265
N4295 X22.215 Y67.005
N4300 G3 X22.356 Y66.76 I0.193 J-0.052
N4305 G1 X22.549 Y66.708
N4310 X22.599 Y66.695 Z-1.493
N4315 X22.646 Y66.682 Z-1.473
N4320 X22.686 Y66.671 Z-1.441
N4325 X22.717 Y66.663 Z-1.4
N4330 X22.736 Y66.658 Z-1.352
N4335 X22.742 Y66.656 Z-1.3
N4340 G0 Z5
N4345 X22.846 Y67.043
N4350 G1 Z1 F600
N4355 Z-2.8
N4360 X22.839 Y67.044 Z-2.852
N4365 X22.82 Y67.05 Z-2.9
N4370 X22.789 Y67.058 Z-2.941
N4375 X22.749 Y67.068 Z-2.973
N4380 X22.703 Y67.081 Z-2.993
N4385 X22.653 Y67.094 Z-3
N4390 X22.46 Y67.146 F400
N4395 G3 X22.215 Y67.005 I-0.052 J-0.193
N4400 G1 X22.155 Y66.782 F600
N4405 X30.848 Y64.453
N4410 X30.978 Y64.936
N4415 X22.284 Y67.265
N4420 X22.215 Y67.005
N4425 G3 X22.356 Y66.76 I0.193 J-0.052
N4430 G1 X22.549 Y66.708
N4435 X22.599 Y66.695 Z-2.993
N4440 X22.646 Y66.682 Z-2.973
N4445 X22.686 Y66.671 Z-2.941
N4450 X22.717 Y66.663 Z-2.9
N4455 X22.736 Y66.658 Z-2.852
N4460 X22.742 Y66.656 Z-2.8
N4465 G0 Z5
N4470 X22.846 Y67.043
N4475 G1 Z-0.5 F600
N4480 Z-4.3
N4485 X22.839 Y67.044 Z-4.352
N4490 X22.82 Y67.05 Z-4.4
N4495 X22.789 Y67.058 Z-4.441
N4500 X22.749 Y67.068 Z-4.473
N4505 X22.703 Y67.081 Z-4.493
N4510 X22.653 Y67.094 Z-4.5
N4515 X22.46 Y67.146 F400
N4520 G3 X22.215 Y67.005 I-0.052 J-0.193
N4525 G1 X22.155 Y66.782 F600
N4530 X30.848 Y64.453
N4535 X30.978 Y64.936
N4540 X22.284 Y67.265
N4545 X22.215 Y67.005
N4550 G3 X22.356 Y66.76 I0.193 J-0.052
N4555 G1 X22.549 Y66.708
N4560 X22.599 Y66.695 Z-4.493
N4565 X22.646 Y66.682 Z-4.473
N4570 X22.686 Y66.671 Z-4.441
N4575 X22.717 Y66.663 Z-4.4
N4580 X22.736 Y66.658 Z-4.352
N4585 X22.742 Y66.656 Z-4.3
N4590 G0 Z5
N4595 X22.846 Y67.043
N4600 G1 Z-2 F600
N4605 Z-4.9
N4610 X22.839 Y67.044 Z-4.952
N4615 X22.82 Y67.05 Z-5
N4620 X22.789 Y67.058 Z-5.041
N4625 X22.749 Y67.068 Z-5.073
N4630 X22.703 Y67.081 Z-5.093
N4635 X22.653 Y67.094 Z-5.1
N4640 X22.46 Y67.146 F400
N4645 G3 X22.215 Y67.005 I-0.052 J-0.193
N4650 G1 X22.155 Y66.782 F600
N4655 X30.848 Y64.453
N4660 X30.978 Y64.936
N4665 X22.284 Y67.265
N4670 X22.215 Y67.005
N4675 G3 X22.356 Y66.76 I0.193 J-0.052
N4680 G1 X22.549 Y66.708
N4685 X22.599 Y66.695 Z-5.093
N4690 X22.646 Y66.682 Z-5.073
N4695 X22.686 Y66.671 Z-5.041
N4700 X22.717 Y66.663 Z-5
N4705 X22.736 Y66.658 Z-4.952
N4710 X22.742 Y66.656 Z-4.9
N4715 G0 Z5
N4720 X9.3 Y52.6
N4725 G1 Z2.5 F600
N4730 Z-1.3
N4735 G19 G2 Y52.4 Z-1.5 J-0.2
N4740 G1 Y52.2 F400
N4745 G17 G3 X9.5 Y52 I0.2
N4750 G1 X11.5 F600
N4755 G2 X15.5 Y48 J-4
N4760 G1 Y38.959
N4765 G3 X17.502 Y37 I2 J0.041
N4770 G1 X17.503
N4775 X38.5
N4780 G3 X40.5 Y39 J2
N4785 G1 Y58
N4790 G3 X38.5 Y60 I-2
N4795 G1 X7.5
N4800 G3 X5.5 Y58.041 J-2
N4805 G1 Y53.959
N4810 G3 X7.502 Y52 I2 J0.041
N4815 G1 X7.503
N4820 X9.5
N4825 G3 X9.7 Y52.2 J0.2
N4830 G1 Y52.4
N4835 G19 G3 Y52.6 Z-1.3 K0.2
N4840 G0 Z5
N4845 X9.3
N4850 G1 Z1 F600
N4855 Z-2.8
N4860 G2 Y52.4 Z-3 J-0.2
N4865 G1 Y52.2 F400
N4870 G17 G3 X9.5 Y52 I0.2
N4875 G1 X11.5 F600
N4880 G2 X15.5 Y48 J-4
N4885 G1 Y38.959
N4890 G3 X17.502 Y37 I2 J0.041
N4895 G1 X17.503
N4900 X38.5
N4905 G3 X40.5 Y39 J2
N4910 G1 Y58
N4915 G3 X38.5 Y60 I-2
N4920 G1 X7.5
N4925 G3 X5.5 Y58.041 J-2
N4930 G1 Y53.959
N4935 G3 X7.502 Y52 I2 J0.041
N4940 G1 X7.503
N4945 X9.5
N4950 G3 X9.7 Y52.2 J0.2
N4955 G1 Y52.4
N4960 G19 G3 Y52.6 Z-2.8 K0.2
N4965 G0 Z5
N4970 X9.3
N4975 G1 Z-0.5 F600
N4980 Z-4.3
N4985 G2 Y52.4 Z-4.5 J-0.2
N4990 G1 Y52.2 F400
N4995 G17 G3 X9.5 Y52 I0.2
N5000 G1 X11.5 F600
N5005 G2 X15.5 Y48 J-4
N5010 G1 Y38.959
N5015 G3 X17.502 Y37 I2 J0.041
N5020 G1 X17.503
N5025 X38.5
N5030 G3 X40.5 Y39 J2
N5035 G1 Y58
N5040 G3 X38.5 Y60 I-2
N5045 G1 X7.5
N5050 G3 X5.5 Y58.041 J-2
N5055 G1 Y53.959
N5060 G3 X7.502 Y52 I2 J0.041
N5065 G1 X7.503
N5070 X9.5
N5075 G3 X9.7 Y52.2 J0.2
N5080 G1 Y52.4
N5085 G19 G3 Y52.6 Z-4.3 K0.2
N5090 G0 Z5
N5095 X9.3
N5100 G1 Z-2 F600
N5105 Z-4.9
N5110 G2 Y52.4 Z-5.1 J-0.2
N5115 G1 Y52.2 F400
N5120 G17 G3 X9.5 Y52 I0.2
N5125 G1 X11.5 F600
N5130 G2 X15.5 Y48 J-4
N5135 G1 Y38.959
N5140 G3 X17.502 Y37 I2 J0.041
N5145 G1 X17.503
N5150 X38.5
N5155 G3 X40.5 Y39 J2
N5160 G1 Y58
N5165 G3 X38.5 Y60 I-2
N5170 G1 X7.5
N5175 G3 X5.5 Y58.041 J-2
N5180 G1 Y53.959
N5185 G3 X7.502 Y52 I2 J0.041
N5190 G1 X7.503
N5195 X9.5
N5200 G3 X9.7 Y52.2 J0.2
N5205 G1 Y52.4
N5210 G19 G3 Y52.6 Z-4.9 K0.2
N5215 G0 Z5
N5220 X9.655 Y42.804
N5225 G1 Z2.5 F600
N5230 Z-1.3
N5235 X9.662 Z-1.352
N5240 X9.682 Z-1.4
N5245 X9.713 Y42.805 Z-1.441
N5250 X9.755 Y42.806 Z-1.473
N5255 X9.803 Y42.807 Z-1.493
N5260 X9.855 Y42.809 Z-1.5
N5265 X10.055 Y42.814 F400
N5270 G17 G3 X10.25 Y43.018 I-0.005 J0.2
N5275 X8.75 Y42.982 I-0.75 J-0.018 F600
N5280 X10.25 Y43.018 I0.75 J0.018
N5285 X10.045 Y43.213 I-0.2 J-0.005
N5290 G1 X9.845 Y43.209
N5295 X9.793 Y43.207 Z-1.493
N5300 X9.745 Y43.206 Z-1.473
N5305 X9.704 Y43.205 Z-1.441
N5310 X9.672 Y43.204 Z-1.4
N5315 X9.652 Z-1.352
N5320 X9.645 Z-1.3
N5325 G0 Z5
N5330 X9.655 Y42.804
N5335 G1 Z1 F600
N5340 Z-2.8
N5345 X9.662 Z-2.852
N5350 X9.682 Z-2.9
N5355 X9.713 Y42.805 Z-2.941
N5360 X9.755 Y42.806 Z-2.973
N5365 X9.803 Y42.807 Z-2.993
N5370 X9.855 Y42.809 Z-3
N5375 X10.055 Y42.814 F400
N5380 G3 X10.25 Y43.018 I-0.005 J0.2
N5385 X8.75 Y42.982 I-0.75 J-0.018 F600
N5390 X10.25 Y43.018 I0.75 J0.018
N5395 X10.045 Y43.213 I-0.2 J-0.005
N5400 G1 X9.845 Y43.209
N5405 X9.793 Y43.207 Z-2.993
N5410 X9.745 Y43.206 Z-2.973
N5415 X9.704 Y43.205 Z-2.941
N5420 X9.672 Y43.204 Z-2.9
N5425 X9.652 Z-2.852
N5430 X9.645 Z-2.8
N5435 G0 Z5
N5440 X9.655 Y42.804
N5445 G1 Z-0.5 F600
N5450 Z-4.3
N5455 X9.662 Z-4.352
N5460 X9.682 Z-4.4
N5465 X9.713 Y42.805 Z-4.441
N5470 X9.755 Y42.806 Z-4.473
N5475 X9.803 Y42.807 Z-4.493
N5480 X9.855 Y42.809 Z-4.5
N5485 X10.055 Y42.814 F400
N5490 G3 X10.25 Y43.018 I-0.005 J0.2
N5495 X8.75 Y42.982 I-0.75 J-0.018 F600
N5500 X10.25 Y43.018 I0.75 J0.018
N5505 X10.045 Y43.213 I-0.2 J-0.005
N5510 G1 X9.845 Y43.209
N5515 X9.793 Y43.207 Z-4.493
N5520 X9.745 Y43.206 Z-4.473
N5525 X9.704 Y43.205 Z-4.441
N5530 X9.672 Y43.204 Z-4.4
N5535 X9.652 Z-4.352
N5540 X9.645 Z-4.3
N5545 G0 Z5
N5550 X9.655 Y42.804
N5555 G1 Z-2 F600
N5560 Z-4.9
N5565 X9.662 Z-4.952
N5570 X9.682 Z-5
N5575 X9.713 Y42.805 Z-5.041
N5580 X9.755 Y42.806 Z-5.073
N5585 X9.803 Y42.807 Z-5.093
N5590 X9.855 Y42.809 Z-5.1
N5595 X10.055 Y42.814 F400
N5600 G3 X10.25 Y43.018 I-0.005 J0.2
N5605 X8.75 Y42.982 I-0.75 J-0.018 F600
N5610 X10.25 Y43.018 I0.75 J0.018
N5615 X10.045 Y43.213 I-0.2 J-0.005
N5620 G1 X9.845 Y43.209
N5625 X9.793 Y43.207 Z-5.093
N5630 X9.745 Y43.206 Z-5.073
N5635 X9.704 Y43.205 Z-5.041
N5640 X9.672 Y43.204 Z-5
N5645 X9.652 Z-4.952
N5650 X9.645 Z-4.9
N5655 G0 Z5
N5660 X9.65 Y65.8
N5665 G1 Z2.5 F600
N5670 Z-1.3
N5675 G18 G2 X9.85 Z-1.5 I0.2
N5680 G1 X10.05 F400
N5685 G17 G3 X10.25 Y66 J0.2
N5690 X8.75 I-0.75 F600
N5695 X10.25 I0.75
N5700 X10.05 Y66.2 I-0.2
N5705 G1 X9.85
N5710 G18 G3 X9.65 Z-1.3 K0.2
N5715 G0 Z5
N5720 Y65.8
N5725 G1 Z1 F600
N5730 Z-2.8
N5735 G2 X9.85 Z-3 I0.2
N5740 G1 X10.05 F400
N5745 G17 G3 X10.25 Y66 J0.2
N5750 X8.75 I-0.75 F600
N5755 X10.25 I0.75
N5760 X10.05 Y66.2 I-0.2
N5765 G1 X9.85
N5770 G18 G3 X9.65 Z-2.8 K0.2
N5775 G0 Z5
N5780 Y65.8
N5785 G1 Z-0.5 F600
N5790 Z-4.3
N5795 G2 X9.85 Z-4.5 I0.2
N5800 G1 X10.05 F400
N5805 G17 G3 X10.25 Y66 J0.2
N5810 X8.75 I-0.75 F600
N5815 X10.25 I0.75
N5820 X10.05 Y66.2 I-0.2
N5825 G1 X9.85
N5830 G18 G3 X9.65 Z-4.3 K0.2
N5835 G0 Z5
N5840 Y65.8
N5845 G1 Z-2 F600
N5850 Z-4.9
N5855 G2 X9.85 Z-5.1 I0.2
N5860 G1 X10.05 F400
N5865 G17 G3 X10.25 Y66 J0.2
N5870 X8.75 I-0.75 F600
N5875 X10.25 I0.75
N5880 X10.05 Y66.2 I-0.2
N5885 G1 X9.85
N5890 G18 G3 X9.65 Z-4.9 K0.2
N5895 G0 Z5
N5900 X46.65 Y57.25
N5905 G1 Z2.5 F600
N5910 Z-1.3
N5915 G2 X46.85 Z-1.5 I0.2
N5920 G1 X47.05 F400
N5925 G17 G3 X47.25 Y57.45 J0.2
N5930 X45.75 I-0.75 F600
N5935 X47.25 I0.75
N5940 X47.05 Y57.65 I-0.2
N5945 G1 X46.85
N5950 G18 G3 X46.65 Z-1.3 K0.2
N5955 G0 Z5
N5960 Y57.25
N5965 G1 Z1 F600
N5970 Z-2.8
N5975 G2 X46.85 Z-3 I0.2
N5980 G1 X47.05 F400
N5985 G17 G3 X47.25 Y57.45 J0.2
N5990 X45.75 I-0.75 F600
N5995 X47.25 I0.75
N6000 X47.05 Y57.65 I-0.2
N6005 G1 X46.85
N6010 G18 G3 X46.65 Z-2.8 K0.2
N6015 G0 Z5
N6020 Y57.25
N6025 G1 Z-0.5 F600
N6030 Z-4.3
N6035 G2 X46.85 Z-4.5 I0.2
N6040 G1 X47.05 F400
N6045 G17 G3 X47.25 Y57.45 J0.2
N6050 X45.75 I-0.75 F600
N6055 X47.25 I0.75
N6060 X47.05 Y57.65 I-0.2
N6065 G1 X46.85
N6070 G18 G3 X46.65 Z-4.3 K0.2
N6075 G0 Z5
N6080 Y57.25
N6085 G1 Z-2 F600
N6090 Z-4.9
N6095 G2 X46.85 Z-5.1 I0.2
N6100 G1 X47.05 F400
N6105 G17 G3 X47.25 Y57.45 J0.2
N6110 X45.75 I-0.75 F600
N6115 X47.25 I0.75
N6120 X47.05 Y57.65 I-0.2
N6125 G1 X46.85
N6130 G18 G3 X46.65 Z-4.9 K0.2
N6135 G0 Z5
N6140 X35.65 Y26
N6145 G1 Z2.5 F600
N6150 Z-1.3
N6155 G2 X35.85 Z-1.5 I0.2
N6160 G1 X36.05 F400
N6165 G17 G3 X36.25 Y26.2 J0.2
N6170 X34.75 I-0.75 F600
N6175 X36.25 I0.75
N6180 X36.05 Y26.4 I-0.2
N6185 G1 X35.85
N6190 G18 G3 X35.65 Z-1.3 K0.2
N6195 G0 Z5
N6200 Y26
N6205 G1 Z1 F600
N6210 Z-2.8
N6215 G2 X35.85 Z-3 I0.2
N6220 G1 X36.05 F400
N6225 G17 G3 X36.25 Y26.2 J0.2
N6230 X34.75 I-0.75 F600
N6235 X36.25 I0.75
N6240 X36.05 Y26.4 I-0.2
N6245 G1 X35.85
N6250 G18 G3 X35.65 Z-2.8 K0.2
N6255 G0 Z5
N6260 Y26
N6265 G1 Z-0.5 F600
N6270 Z-4.3
N6275 G2 X35.85 Z-4.5 I0.2
N6280 G1 X36.05 F400
N6285 G17 G3 X36.25 Y26.2 J0.2
N6290 X34.75 I-0.75 F600
N6295 X36.25 I0.75
N6300 X36.05 Y26.4 I-0.2
N6305 G1 X35.85
N6310 G18 G3 X35.65 Z-4.3 K0.2
N6315 G0 Z5
N6320 Y26
N6325 G1 Z-2 F600
N6330 Z-4.9
N6335 G2 X35.85 Z-5.1 I0.2
N6340 G1 X36.05 F400
N6345 G17 G3 X36.25 Y26.2 J0.2
N6350 X34.75 I-0.75 F600
N6355 X36.25 I0.75
N6360 X36.05 Y26.4 I-0.2
N6365 G1 X35.85
N6370 G18 G3 X35.65 Z-4.9 K0.2
N6375 G0 Z5
N6380 X26.655 Y26.004
N6385 G1 Z2.5 F600
N6390 Z-1.3
N6395 X26.662 Z-1.352
N6400 X26.682 Z-1.4
N6405 X26.713 Y26.005 Z-1.441
N6410 X26.755 Y26.006 Z-1.473
N6415 X26.803 Y26.007 Z-1.493
N6420 X26.855 Y26.009 Z-1.5
N6425 X27.055 Y26.014 F400
N6430 G17 G3 X27.25 Y26.218 I-0.005 J0.2
N6435 X25.75 Y26.182 I-0.75 J-0.018 F600
N6440 X27.25 Y26.218 I0.75 J0.018
N6445 X27.045 Y26.413 I-0.2 J-0.005
N6450 G1 X26.845 Y26.409
N6455 X26.793 Y26.407 Z-1.493
N6460 X26.745 Y26.406 Z-1.473
N6465 X26.704 Y26.405 Z-1.441
N6470 X26.672 Y26.404 Z-1.4
N6475 X26.652 Z-1.352
N6480 X26.645 Z-1.3
N6485 G0 Z5
N6490 X26.655 Y26.004
N6495 G1 Z1 F600
N6500 Z-2.8
N6505 X26.662 Z-2.852
N6510 X26.682 Z-2.9
N6515 X26.713 Y26.005 Z-2.941
N6520 X26.755 Y26.006 Z-2.973
N6525 X26.803 Y26.007 Z-2.993
N6530 X26.855 Y26.009 Z-3
N6535 X27.055 Y26.014 F400
N6540 G3 X27.25 Y26.218 I-0.005 J0.2
N6545 X25.75 Y26.182 I-0.75 J-0.018 F600
N6550 X27.25 Y26.218 I0.75 J0.018
N6555 X27.045 Y26.413 I-0.2 J-0.005
N6560 G1 X26.845 Y26.409
N6565 X26.793 Y26.407 Z-2.993
N6570 X26.745 Y26.406 Z-2.973
N6575 X26.704 Y26.405 Z-2.941
N6580 X26.672 Y26.404 Z-2.9
N6585 X26.652 Z-2.852
N6590 X26.645 Z-2.8
N6595 G0 Z5
N6600 X26.655 Y26.004
N6605 G1 Z-0.5 F600
N6610 Z-4.3
N6615 X26.662 Z-4.352
N6620 X26.682 Z-4.4
N6625 X26.713 Y26.005 Z-4.441
N6630 X26.755 Y26.006 Z-4.473
N6635 X26.803 Y26.007 Z-4.493
N6640 X26.855 Y26.009 Z-4.5
N6645 X27.055 Y26.014 F400
N6650 G3 X27.25 Y26.218 I-0.005 J0.2
N6655 X25.75 Y26.182 I-0.75 J-0.018 F600
N6660 X27.25 Y26.218 I0.75 J0.018
N6665 X27.045 Y26.413 I-0.2 J-0.005
N6670 G1 X26.845 Y26.409
N6675 X26.793 Y26.407 Z-4.493
N6680 X26.745 Y26.406 Z-4.473
N6685 X26.704 Y26.405 Z-4.441
N6690 X26.672 Y26.404 Z-4.4
N6695 X26.652 Z-4.352
N6700 X26.645 Z-4.3
N6705 G0 Z5
N6710 X26.655 Y26.004
N6715 G1 Z-2 F600
N6720 Z-4.9
N6725 X26.662 Z-4.952
N6730 X26.682 Z-5
N6735 X26.713 Y26.005 Z-5.041
N6740 X26.755 Y26.006 Z-5.073
N6745 X26.803 Y26.007 Z-5.093
N6750 X26.855 Y26.009 Z-5.1
N6755 X27.055 Y26.014 F400
N6760 G3 X27.25 Y26.218 I-0.005 J0.2
N6765 X25.75 Y26.182 I-0.75 J-0.018 F600
N6770 X27.25 Y26.218 I0.75 J0.018
N6775 X27.045 Y26.413 I-0.2 J-0.005
N6780 G1 X26.845 Y26.409
N6785 X26.793 Y26.407 Z-5.093
N6790 X26.745 Y26.406 Z-5.073
N6795 X26.704 Y26.405 Z-5.041
N6800 X26.672 Y26.404 Z-5
N6805 X26.652 Z-4.952
N6810 X26.645 Z-4.9
N6815 G0 Z5
N6820 X102.356 Y88.206
N6825 G1 Z2.5 F600
N6830 Z-1.3
N6835 X102.361 Y88.21 Z-1.352
N6840 X102.377 Y88.222 Z-1.4
N6845 X102.402 Y88.241 Z-1.441
N6850 X102.435 Y88.267 Z-1.473
N6855 X102.473 Y88.296 Z-1.493
N6860 X102.514 Y88.328 Z-1.5
N6865 X102.672 Y88.45 F400
N6870 G3 X102.708 Y88.73 I-0.122 J0.158
N6875 G2 X102.5 Y89.341 I0.792 J0.611 F600
N6880 G1 Y98.51
N6885 G3 X85.5 I-8.5
N6890 G1 Y89.341
N6895 G2 X85.291 Y88.73 I-1
N6900 G3 X102.708 Y75.29 I8.709 J-6.72
N6905 Y88.73 I-8.709 J6.72
N6910 X102.428 Y88.767 I-0.158 J-0.122
N6915 G1 X102.269 Y88.644
N6920 X102.228 Y88.613 Z-1.493
N6925 X102.19 Y88.583 Z-1.473
N6930 X102.158 Y88.558 Z-1.441
N6935 X102.132 Y88.539 Z-1.4
N6940 X102.117 Y88.526 Z-1.352
N6945 X102.111 Y88.522 Z-1.3
N6950 G0 Z5
N6955 X101.9 Y89.141
N6960 G1 Z1 F600
N6965 Z-2.8
N6970 G18 G2 X102.1 Z-3 I0.2
N6975 G1 X102.3 F400
N6980 G17 G3 X102.5 Y89.341 J0.2
N6985 G1 Y98.51 F600
N6990 G3 X85.5 I-8.5
N6995 G1 Y89.341
N7000 G2 X85.291 Y88.73 I-1
N7005 G3 X102.708 Y75.29 I8.709 J-6.72
N7010 Y88.73 I-8.709 J6.72
N7015 G2 X102.5 Y89.341 I0.792 J0.611
N7020 G3 X102.3 Y89.541 I-0.2
N7025 G1 X102.1
N7030 G18 G3 X101.9 Z-2.8 K0.2
N7035 G0 Z5
N7040 Y89.141
N7045 G1 Z-0.5 F600
N7050 Z-4.3
N7055 G2 X102.1 Z-4.5 I0.2
N7060 G1 X102.3 F400
N7065 G17 G3 X102.5 Y89.341 J0.2
N7070 G1 Y98.51 F600
N7075 G3 X85.5 I-8.5
N7080 G1 Y89.341
N7085 G2 X85.291 Y88.73 I-1
N7090 G3 X102.708 Y75.29 I8.709 J-6.72
N7095 Y88.73 I-8.709 J6.72
N7100 G2 X102.5 Y89.341 I0.792 J0.611
N7105 G3 X102.3 Y89.541 I-0.2
N7110 G1 X102.1
N7115 G18 G3 X101.9 Z-4.3 K0.2
N7120 G0 Z5
N7125 Y89.141
N7130 G1 Z-2 F600
N7135 Z-4.9
N7140 G2 X102.1 Z-5.1 I0.2
N7145 G1 X102.3 F400
N7150 G17 G3 X102.5 Y89.341 J0.2
N7155 G1 Y98.51 F600
N7160 G3 X85.5 I-8.5
N7165 G1 Y89.341
N7170 G2 X85.291 Y88.73 I-1
N7175 G3 X102.708 Y75.29 I8.709 J-6.72
N7180 Y88.73 I-8.709 J6.72
N7185 G2 X102.5 Y89.341 I0.792 J0.611
N7190 G3 X102.3 Y89.541 I-0.2
N7195 G1 X102.1
N7200 G18 G3 X101.9 Z-4.9 K0.2
N7205 G0 Z5
N7210 X47.453 Y144.808
N7215 G1 Z2.5 F600
N7220 Z-1.3
N7225 G2 X47.653 Z-1.5 I0.2
N7230 G1 X47.854 F400
N7235 G17 G3 X48.054 Y145.008 J0.2
N7240 X46.554 I-0.75 F600
N7245 X48.054 I0.75
N7250 X47.854 Y145.208 I-0.2
N7255 G1 X47.653
N7260 G18 G3 X47.453 Z-1.3 K0.2
N7265 G0 Z5
N7270 Y144.808
N7275 G1 Z1 F600
N7280 Z-2.8
N7285 G2 X47.653 Z-3 I0.2
N7290 G1 X47.854 F400
N7295 G17 G3 X48.054 Y145.008 J0.2
N7300 X46.554 I-0.75 F600
N7305 X48.054 I0.75
N7310 X47.854 Y145.208 I-0.2
N7315 G1 X47.653
N7320 G18 G3 X47.453 Z-2.8 K0.2
N7325 G0 Z5
N7330 Y144.808
N7335 G1 Z-0.5 F600
N7340 Z-4.3
N7345 G2 X47.653 Z-4.5 I0.2
N7350 G1 X47.854 F400
N7355 G17 G3 X48.054 Y145.008 J0.2
N7360 X46.554 I-0.75 F600
N7365 X48.054 I0.75
N7370 X47.854 Y145.208 I-0.2
N7375 G1 X47.653
N7380 G18 G3 X47.453 Z-4.3 K0.2
N7385 G0 Z5
N7390 Y144.808
N7395 G1 Z-2 F600
N7400 Z-4.9
N7405 G2 X47.653 Z-5.1 I0.2
N7410 G1 X47.854 F400
N7415 G17 G3 X48.054 Y145.008 J0.2
N7420 X46.554 I-0.75 F600
N7425 X48.054 I0.75
N7430 X47.854 Y145.208 I-0.2
N7435 G1 X47.653
N7440 G18 G3 X47.453 Z-4.9 K0.2
N7445 G0 Z5
N7450 X54.65 Y175.8
N7455 G1 Z2.5 F600
N7460 Z-1.3
N7465 G2 X54.85 Z-1.5 I0.2
N7470 G1 X55.05 F400
N7475 G17 G3 X55.25 Y176 J0.2
N7480 X53.75 I-0.75 F600
N7485 X55.25 I0.75
N7490 X55.05 Y176.2 I-0.2
N7495 G1 X54.85
N7500 G18 G3 X54.65 Z-1.3 K0.2
N7505 G0 Z5
N7510 Y175.8
N7515 G1 Z1 F600
N7520 Z-2.8
N7525 G2 X54.85 Z-3 I0.2
N7530 G1 X55.05 F400
N7535 G17 G3 X55.25 Y176 J0.2
N7540 X53.75 I-0.75 F600
N7545 X55.25 I0.75
N7550 X55.05 Y176.2 I-0.2
N7555 G1 X54.85
N7560 G18 G3 X54.65 Z-2.8 K0.2
N7565 G0 Z5
N7570 Y175.8
N7575 G1 Z-0.5 F600
N7580 Z-4.3
N7585 G2 X54.85 Z-4.5 I0.2
N7590 G1 X55.05 F400
N7595 G17 G3 X55.25 Y176 J0.2
N7600 X53.75 I-0.75 F600
N7605 X55.25 I0.75
N7610 X55.05 Y176.2 I-0.2
N7615 G1 X54.85
N7620 G18 G3 X54.65 Z-4.3 K0.2
N7625 G0 Z5
N7630 Y175.8
N7635 G1 Z-2 F600
N7640 Z-4.9
N7645 G2 X54.85 Z-5.1 I0.2
N7650 G1 X55.05 F400
N7655 G17 G3 X55.25 Y176 J0.2
N7660 X53.75 I-0.75 F600
N7665 X55.25 I0.75
N7670 X55.05 Y176.2 I-0.2
N7675 G1 X54.85
N7680 G18 G3 X54.65 Z-4.9 K0.2
N7685 G0 Z15
N7690 G17

(2D ??31)
N7695 G0 X79.961 Y136.09
N7700 Z15
N7705 Z5
N7710 G1 Z2.5 F600
N7715 Z-1.3
N7720 X79.967 Y136.088 Z-1.352
N7725 X79.987 Y136.083 Z-1.4
N7730 X80.017 Y136.075 Z-1.441
N7735 X80.057 Y136.064 Z-1.473
N7740 X80.104 Y136.051 Z-1.493
N7745 X80.154 Y136.038 Z-1.5
N7750 X80.347 Y135.986 F400
N7755 G3 X80.592 Y136.128 I0.052 J0.193
N7760 G2 X109.374 Y152.746 I22.7 J-6.082 F600
N7765 X125.991 Y123.963 I-6.082 J-22.699
N7770 G1 X116 Y86.676
N7775 Y1.01
N7780 G2 X115 Y0.01 I-1
N7785 G1 X61
N7790 G2 X60 Y1.01 J1
N7795 G1 Y59.144
N7800 G2 X60.034 Y59.403 I1
N7805 G1 X80.592 Y136.128
N7810 G3 X80.451 Y136.373 I-0.193 J0.052
N7815 G1 X80.258 Y136.424
N7820 X80.208 Y136.438 Z-1.493
N7825 X80.161 Y136.45 Z-1.473
N7830 X80.121 Y136.461 Z-1.441
N7835 X80.09 Y136.469 Z-1.4
N7840 X80.071 Y136.474 Z-1.352
N7845 X80.064 Y136.476 Z-1.3
N7850 G0 Z5
N7855 X79.961 Y136.09
N7860 G1 Z1 F600
N7865 Z-2.8
N7870 X79.967 Y136.088 Z-2.852
N7875 X79.987 Y136.083 Z-2.9
N7880 X80.017 Y136.075 Z-2.941
N7885 X80.057 Y136.064 Z-2.973
N7890 X80.104 Y136.051 Z-2.993
N7895 X80.154 Y136.038 Z-3
N7900 X80.347 Y135.986 F400
N7905 G3 X80.592 Y136.128 I0.052 J0.193
N7910 G2 X109.374 Y152.746 I22.7 J-6.082 F600
N7915 X125.991 Y123.963 I-6.082 J-22.699
N7920 G1 X116 Y86.676
N7925 Y1.01
N7930 G2 X115 Y0.01 I-1
N7935 G1 X61
N7940 G2 X60 Y1.01 J1
N7945 G1 Y59.144
N7950 G2 X60.034 Y59.403 I1
N7955 G1 X80.592 Y136.128
N7960 G3 X80.451 Y136.373 I-0.193 J0.052
N7965 G1 X80.258 Y136.424
N7970 X80.208 Y136.438 Z-2.993
N7975 X80.161 Y136.45 Z-2.973
N7980 X80.121 Y136.461 Z-2.941
N7985 X80.09 Y136.469 Z-2.9
N7990 X80.071 Y136.474 Z-2.852
N7995 X80.064 Y136.476 Z-2.8
N8000 G0 Z5
N8005 X79.961 Y136.09
N8010 G1 Z-0.5 F600
N8015 Z-4.3
N8020 X79.967 Y136.088 Z-4.352
N8025 X79.987 Y136.083 Z-4.4
N8030 X80.017 Y136.075 Z-4.441
N8035 X80.057 Y136.064 Z-4.473
N8040 X80.104 Y136.051 Z-4.493
N8045 X80.154 Y136.038 Z-4.5
N8050 X80.347 Y135.986 F400
N8055 G3 X80.592 Y136.128 I0.052 J0.193
N8060 G2 X109.374 Y152.746 I22.7 J-6.082 F600
N8065 X125.991 Y123.963 I-6.082 J-22.699
N8070 G1 X116 Y86.676
N8075 Y1.01
N8080 G2 X115 Y0.01 I-1
N8085 G1 X61
N8090 G2 X60 Y1.01 J1
N8095 G1 Y59.144
N8100 G2 X60.034 Y59.403 I1
N8105 G1 X80.592 Y136.128
N8110 G3 X80.451 Y136.373 I-0.193 J0.052
N8115 G1 X80.258 Y136.424
N8120 X80.208 Y136.438 Z-4.493
N8125 X80.161 Y136.45 Z-4.473
N8130 X80.121 Y136.461 Z-4.441
N8135 X80.09 Y136.469 Z-4.4
N8140 X80.071 Y136.474 Z-4.352
N8145 X80.064 Y136.476 Z-4.3
N8150 G0 Z5
N8155 X79.961 Y136.09
N8160 G1 Z-2 F600
N8165 Z-4.9
N8170 X79.967 Y136.088 Z-4.952
N8175 X79.987 Y136.083 Z-5
N8180 X80.017 Y136.075 Z-5.041
N8185 X80.057 Y136.064 Z-5.073
N8190 X80.104 Y136.051 Z-5.093
N8195 X80.154 Y136.038 Z-5.1
N8200 X80.347 Y135.986 F400
N8205 G3 X80.592 Y136.128 I0.052 J0.193
N8210 G2 X109.374 Y152.746 I22.7 J-6.082 F600
N8215 X125.991 Y123.963 I-6.082 J-22.699
N8220 G1 X116 Y86.676
N8225 Y1.01
N8230 G2 X115 Y0.01 I-1
N8235 G1 X61
N8240 G2 X60 Y1.01 J1
N8245 G1 Y59.144
N8250 G2 X60.034 Y59.403 I1
N8255 G1 X80.592 Y136.128
N8260 G3 X80.451 Y136.373 I-0.193 J0.052
N8265 G1 X80.258 Y136.424
N8270 X80.208 Y136.438 Z-5.093
N8275 X80.161 Y136.45 Z-5.073
N8280 X80.121 Y136.461 Z-5.041
N8285 X80.09 Y136.469 Z-5
N8290 X80.071 Y136.474 Z-4.952
N8295 X80.064 Y136.476 Z-4.9
N8300 G0 Z5
N8305 X64.773 Y140.964
N8310 G1 Z2.5 F600
N8315 Z-1.3
N8320 X64.767 Y140.961 Z-1.352
N8325 X64.749 Y140.952 Z-1.4
N8330 X64.72 Y140.938 Z-1.441
N8335 X64.683 Y140.919 Z-1.473
N8340 X64.64 Y140.898 Z-1.493
N8345 X64.594 Y140.875 Z-1.5
N8350 X64.415 Y140.786 F400
N8355 G3 X64.325 Y140.517 I0.089 J-0.179
N8360 G2 X65.991 Y123.953 I-21.033 J-10.481 F600
N8365 G1 X56 Y86.666
N8370 Y1
N8375 G2 X55 Y0 I-1
N8380 G1 X40.5
N8385 G2 X39.5 Y1 J1
N8390 G1 Y21
N8395 X20.5
N8400 Y1
N8405 G2 X19.5 Y0 I-1
N8410 G1 X1
N8415 G2 X0 Y1 J1
N8420 G1 Y59.134
N8425 G2 X0.034 Y59.393 I1
N8430 G1 X20.593 Y136.118
N8435 G2 X64.325 Y140.517 I22.699 J-6.082
N8440 G3 X64.593 Y140.428 I0.179 J0.089
N8445 G1 X64.772 Y140.517
N8450 X64.819 Y140.54 Z-1.493
N8455 X64.862 Y140.561 Z-1.473
N8460 X64.899 Y140.58 Z-1.441
N8465 X64.927 Y140.594 Z-1.4
N8470 X64.945 Y140.603 Z-1.352
N8475 X64.951 Y140.606 Z-1.3
N8480 G0 Z5
N8485 X64.773 Y140.964
N8490 G1 Z1 F600
N8495 Z-2.8
N8500 X64.767 Y140.961 Z-2.852
N8505 X64.749 Y140.952 Z-2.9
N8510 X64.72 Y140.938 Z-2.941
N8515 X64.683 Y140.919 Z-2.973
N8520 X64.64 Y140.898 Z-2.993
N8525 X64.594 Y140.875 Z-3
N8530 X64.415 Y140.786 F400
N8535 G3 X64.325 Y140.517 I0.089 J-0.179
N8540 G2 X65.991 Y123.953 I-21.033 J-10.481 F600
N8545 G1 X56 Y86.666
N8550 Y1
N8555 G2 X55 Y0 I-1
N8560 G1 X40.5
N8565 G2 X39.5 Y1 J1
N8570 G1 Y21
N8575 X20.5
N8580 Y1
N8585 G2 X19.5 Y0 I-1
N8590 G1 X1
N8595 G2 X0 Y1 J1
N8600 G1 Y59.134
N8605 G2 X0.034 Y59.393 I1
N8610 G1 X20.593 Y136.118
N8615 G2 X64.325 Y140.517 I22.699 J-6.082
N8620 G3 X64.593 Y140.428 I0.179 J0.089
N8625 G1 X64.772 Y140.517
N8630 X64.819 Y140.54 Z-2.993
N8635 X64.862 Y140.561 Z-2.973
N8640 X64.899 Y140.58 Z-2.941
N8645 X64.927 Y140.594 Z-2.9
N8650 X64.945 Y140.603 Z-2.852
N8655 X64.951 Y140.606 Z-2.8
N8660 G0 Z5
N8665 X64.773 Y140.964
N8670 G1 Z-0.5 F600
N8675 Z-4.3
N8680 X64.767 Y140.961 Z-4.352
N8685 X64.749 Y140.952 Z-4.4
N8690 X64.72 Y140.938 Z-4.441
N8695 X64.683 Y140.919 Z-4.473
N8700 X64.64 Y140.898 Z-4.493
N8705 X64.594 Y140.875 Z-4.5
N8710 X64.415 Y140.786 F400
N8715 G3 X64.325 Y140.517 I0.089 J-0.179
N8720 G2 X65.991 Y123.953 I-21.033 J-10.481 F600
N8725 G1 X56 Y86.666
N8730 Y1
N8735 G2 X55 Y0 I-1
N8740 G1 X40.5
N8745 G2 X39.5 Y1 J1
N8750 G1 Y21
N8755 X20.5
N8760 Y1
N8765 G2 X19.5 Y0 I-1
N8770 G1 X1
N8775 G2 X0 Y1 J1
N8780 G1 Y59.134
N8785 G2 X0.034 Y59.393 I1
N8790 G1 X20.593 Y136.118
N8795 G2 X64.325 Y140.517 I22.699 J-6.082
N8800 G3 X64.593 Y140.428 I0.179 J0.089
N8805 G1 X64.772 Y140.517
N8810 X64.819 Y140.54 Z-4.493
N8815 X64.862 Y140.561 Z-4.473
N8820 X64.899 Y140.58 Z-4.441
N8825 X64.927 Y140.594 Z-4.4
N8830 X64.945 Y140.603 Z-4.352
N8835 X64.951 Y140.606 Z-4.3
N8840 G0 Z5
N8845 X64.773 Y140.964
N8850 G1 Z-2 F600
N8855 Z-4.9
N8860 X64.767 Y140.961 Z-4.952
N8865 X64.749 Y140.952 Z-5
N8870 X64.72 Y140.938 Z-5.041
N8875 X64.683 Y140.919 Z-5.073
N8880 X64.64 Y140.898 Z-5.093
N8885 X64.594 Y140.875 Z-5.1
N8890 X64.415 Y140.786 F400
N8895 G3 X64.325 Y140.517 I0.089 J-0.179
N8900 G2 X65.991 Y123.953 I-21.033 J-10.481 F600
N8905 G1 X56 Y86.666
N8910 Y1
N8915 G2 X55 Y0 I-1
N8920 G1 X40.5
N8925 G2 X39.5 Y1 J1
N8930 G1 Y21
N8935 X20.5
N8940 Y1
N8945 G2 X19.5 Y0 I-1
N8950 G1 X1
N8955 G2 X0 Y1 J1
N8960 G1 Y59.134
N8965 G2 X0.034 Y59.393 I1
N8970 G1 X20.593 Y136.118
N8975 G2 X64.325 Y140.517 I22.699 J-6.082
N8980 G3 X64.593 Y140.428 I0.179 J0.089
N8985 G1 X64.772 Y140.517
N8990 X64.819 Y140.54 Z-5.093
N8995 X64.862 Y140.561 Z-5.073
N9000 X64.899 Y140.58 Z-5.041
N9005 X64.927 Y140.594 Z-5
N9010 X64.945 Y140.603 Z-4.952
N9015 X64.951 Y140.606 Z-4.9
N9020 G0 Z5
N9025 X73.489 Y154.4
N9030 G1 Z2.5 F600
N9035 Z-1.3
N9040 G19 G3 Y154.6 Z-1.5 J0.2
N9045 G1 Y154.8 F400
N9050 G17 G3 X73.289 Y155 I-0.2
N9055 G1 X62.504 F600
N9060 G2 X58.5 Y158.935 I-0.004 J4
N9065 G1 Y158.951
N9070 Y168
N9075 G3 X56.5 Y170 I-2
N9080 G1 X52.504
N9085 G2 X48.5 Y173.935 I-0.004 J4
N9090 G1 Y173.951
N9095 Y178.049
N9100 Y178.065
N9105 G2 X52.5 Y182 I3.999 J-0.065
N9110 G1 X83.5
N9115 G2 X87.5 Y178 J-4
N9120 G1 Y159
N9125 G2 X83.5 Y155 I-4
N9130 G1 X73.289
N9135 G3 X73.089 Y154.8 J-0.2
N9140 G1 Y154.6
N9145 G19 G2 Y154.4 Z-1.3 K0.2
N9150 G0 Z5
N9155 X73.489
N9160 G1 Z1 F600
N9165 Z-2.8
N9170 G3 Y154.6 Z-3 J0.2
N9175 G1 Y154.8 F400
N9180 G17 G3 X73.289 Y155 I-0.2
N9185 G1 X62.504 F600
N9190 G2 X58.5 Y158.935 I-0.004 J4
N9195 G1 Y158.951
N9200 Y168
N9205 G3 X56.5 Y170 I-2
N9210 G1 X52.504
N9215 G2 X48.5 Y173.935 I-0.004 J4
N9220 G1 Y173.951
N9225 Y178.049
N9230 Y178.065
N9235 G2 X52.5 Y182 I3.999 J-0.065
N9240 G1 X83.5
N9245 G2 X87.5 Y178 J-4
N9250 G1 Y159
N9255 G2 X83.5 Y155 I-4
N9260 G1 X73.289
N9265 G3 X73.089 Y154.8 J-0.2
N9270 G1 Y154.6
N9275 G19 G2 Y154.4 Z-2.8 K0.2
N9280 G0 Z5
N9285 X73.489
N9290 G1 Z-0.5 F600
N9295 Z-4.3
N9300 G3 Y154.6 Z-4.5 J0.2
N9305 G1 Y154.8 F400
N9310 G17 G3 X73.289 Y155 I-0.2
N9315 G1 X62.504 F600
N9320 G2 X58.5 Y158.935 I-0.004 J4
N9325 G1 Y158.951
N9330 Y168
N9335 G3 X56.5 Y170 I-2
N9340 G1 X52.504
N9345 G2 X48.5 Y173.935 I-0.004 J4
N9350 G1 Y173.951
N9355 Y178.049
N9360 Y178.065
N9365 G2 X52.5 Y182 I3.999 J-0.065
N9370 G1 X83.5
N9375 G2 X87.5 Y178 J-4
N9380 G1 Y159
N9385 G2 X83.5 Y155 I-4
N9390 G1 X73.289
N9395 G3 X73.089 Y154.8 J-0.2
N9400 G1 Y154.6
N9405 G19 G2 Y154.4 Z-4.3 K0.2
N9410 G0 Z5
N9415 X73.489
N9420 G1 Z-2 F600
N9425 Z-4.9
N9430 G3 Y154.6 Z-5.1 J0.2
N9435 G1 Y154.8 F400
N9440 G17 G3 X73.289 Y155 I-0.2
N9445 G1 X62.504 F600
N9450 G2 X58.5 Y158.935 I-0.004 J4
N9455 G1 Y158.951
N9460 Y168
N9465 G3 X56.5 Y170 I-2
N9470 G1 X52.504
N9475 G2 X48.5 Y173.935 I-0.004 J4
N9480 G1 Y173.951
N9485 Y178.049
N9490 Y178.065
N9495 G2 X52.5 Y182 I3.999 J-0.065
N9500 G1 X83.5
N9505 G2 X87.5 Y178 J-4
N9510 G1 Y159
N9515 G2 X83.5 Y155 I-4
N9520 G1 X73.289
N9525 G3 X73.089 Y154.8 J-0.2
N9530 G1 Y154.6
N9535 G19 G2 Y154.4 Z-4.9 K0.2
N9540 G0 Z15
N9545 G17
N9550 M9
N9555 G28
N9560 M30
%
