%
(1001)
(T1 D=2 CR=0 - ZMIN=-4.1 - flat end mill)
N10 G90 G94
N15 G17
N20 G21
N25 M9
N30 G28

(2D ????21)
N35 T1 M6
(0)
N40 S23873 M3
N45 G54
N50 M8
N55 G0 X116.311 Y43.534
N60 G43 Z15
N65 Z5
N70 G1 Z2.7 F400
N75 X116.292 Y43.552 Z2.602 F600
N80 X116.237 Y43.596 Z2.529
N85 X116.157 Y43.651 Z2.5
N90 G3 X115.165 Y42.031 Z2.396 I-0.496 J-0.81
N95 X116.157 Y43.651 Z2.292 I0.496 J0.81
N100 X115.165 Y42.031 Z2.187 I-0.496 J-0.81
N105 X116.157 Y43.651 Z2.083 I0.496 J0.81
N110 X115.165 Y42.031 Z1.979 I-0.496 J-0.81
N115 X116.157 Y43.651 Z1.875 I0.496 J0.81
N120 X115.165 Y42.031 Z1.77 I-0.496 J-0.81
N125 X116.157 Y43.651 Z1.666 I0.496 J0.81
N130 X115.165 Y42.031 Z1.562 I-0.496 J-0.81
N135 X116.157 Y43.651 Z1.458 I0.496 J0.81
N140 X115.165 Y42.031 Z1.354 I-0.496 J-0.81
N145 X116.157 Y43.651 Z1.249 I0.496 J0.81
N150 X115.165 Y42.031 Z1.145 I-0.496 J-0.81
N155 X116.157 Y43.651 Z1.041 I0.496 J0.81
N160 X115.165 Y42.031 Z0.937 I-0.496 J-0.81
N165 X116.157 Y43.651 Z0.832 I0.496 J0.81
N170 X115.165 Y42.031 Z0.728 I-0.496 J-0.81
N175 X116.157 Y43.651 Z0.624 I0.496 J0.81
N180 X115.165 Y42.031 Z0.52 I-0.496 J-0.81
N185 X116.157 Y43.651 Z0.416 I0.496 J0.81
N190 X115.165 Y42.031 Z0.311 I-0.496 J-0.81
N195 X116.157 Y43.651 Z0.207 I0.496 J0.81
N200 X115.165 Y42.031 Z0.103 I-0.496 J-0.81
N205 X116.157 Y43.651 Z-0.001 I0.496 J0.81
N210 X115.165 Y42.031 Z-0.106 I-0.496 J-0.81
N215 X116.157 Y43.651 Z-0.21 I0.496 J0.81
N220 X115.165 Y42.031 Z-0.314 I-0.496 J-0.81
N225 X116.157 Y43.651 Z-0.418 I0.496 J0.81
N230 X115.165 Y42.031 Z-0.522 I-0.496 J-0.81
N235 X116.157 Y43.651 Z-0.627 I0.496 J0.81
N240 X115.165 Y42.031 Z-0.731 I-0.496 J-0.81
N245 X116.157 Y43.651 Z-0.835 I0.496 J0.81
N250 X115.165 Y42.031 Z-0.939 I-0.496 J-0.81
N255 X116.157 Y43.651 Z-1.044 I0.496 J0.81
N260 X115.165 Y42.031 Z-1.148 I-0.496 J-0.81
N265 X116.157 Y43.651 Z-1.252 I0.496 J0.81
N270 X115.165 Y42.031 Z-1.356 I-0.496 J-0.81
N275 X116.157 Y43.651 Z-1.46 I0.496 J0.81
N280 X115.091 Y43.601 Z-1.5 I-0.496 J-0.81
N285 X117.491 Y40.401 I1.2 J-1.6
N290 X115.091 Y43.601 I-1.2 J1.6
N295 X117.491 Y40.401 Z-1.719 I1.2 J-1.6
N300 X115.091 Y43.601 Z-1.939 I-1.2 J1.6
N305 X117.491 Y40.401 Z-2.158 I1.2 J-1.6
N310 X115.091 Y43.601 Z-2.378 I-1.2 J1.6
N315 X114.933 Y40.533 Z-2.5 I1.2 J-1.6
N320 X117.649 Y43.469 I1.358 J1.468
N325 X114.933 Y40.533 I-1.358 J-1.468
N330 G1 X114.974 Y40.504 Z-2.487
N335 X115.02 Y40.486 Z-2.473
N340 X115.056 Y40.48 Z-2.437
N345 X115.093 Y40.481 Z-2.4
N350 X115.119 Y40.486 Z-2.3
N355 G0 Z15
N360 X116.311 Y66.534
N365 Z5
N370 G1 Z2.7 F400
N375 X116.292 Y66.552 Z2.602 F600
N380 X116.237 Y66.596 Z2.529
N385 X116.157 Y66.651 Z2.5
N390 G3 X115.165 Y65.031 Z2.396 I-0.496 J-0.81
N395 X116.157 Y66.651 Z2.292 I0.496 J0.81
N400 X115.165 Y65.031 Z2.187 I-0.496 J-0.81
N405 X116.157 Y66.651 Z2.083 I0.496 J0.81
N410 X115.165 Y65.031 Z1.979 I-0.496 J-0.81
N415 X116.157 Y66.651 Z1.875 I0.496 J0.81
N420 X115.165 Y65.031 Z1.77 I-0.496 J-0.81
N425 X116.157 Y66.651 Z1.666 I0.496 J0.81
N430 X115.165 Y65.031 Z1.562 I-0.496 J-0.81
N435 X116.157 Y66.651 Z1.458 I0.496 J0.81
N440 X115.165 Y65.031 Z1.354 I-0.496 J-0.81
N445 X116.157 Y66.651 Z1.249 I0.496 J0.81
N450 X115.165 Y65.031 Z1.145 I-0.496 J-0.81
N455 X116.157 Y66.651 Z1.041 I0.496 J0.81
N460 X115.165 Y65.031 Z0.937 I-0.496 J-0.81
N465 X116.157 Y66.651 Z0.832 I0.496 J0.81
N470 X115.165 Y65.031 Z0.728 I-0.496 J-0.81
N475 X116.157 Y66.651 Z0.624 I0.496 J0.81
N480 X115.165 Y65.031 Z0.52 I-0.496 J-0.81
N485 X116.157 Y66.651 Z0.416 I0.496 J0.81
N490 X115.165 Y65.031 Z0.311 I-0.496 J-0.81
N495 X116.157 Y66.651 Z0.207 I0.496 J0.81
N500 X115.165 Y65.031 Z0.103 I-0.496 J-0.81
N505 X116.157 Y66.651 Z-0.001 I0.496 J0.81
N510 X115.165 Y65.031 Z-0.106 I-0.496 J-0.81
N515 X116.157 Y66.651 Z-0.21 I0.496 J0.81
N520 X115.165 Y65.031 Z-0.314 I-0.496 J-0.81
N525 X116.157 Y66.651 Z-0.418 I0.496 J0.81
N530 X115.165 Y65.031 Z-0.522 I-0.496 J-0.81
N535 X116.157 Y66.651 Z-0.627 I0.496 J0.81
N540 X115.165 Y65.031 Z-0.731 I-0.496 J-0.81
N545 X116.157 Y66.651 Z-0.835 I0.496 J0.81
N550 X115.165 Y65.031 Z-0.939 I-0.496 J-0.81
N555 X116.157 Y66.651 Z-1.044 I0.496 J0.81
N560 X115.165 Y65.031 Z-1.148 I-0.496 J-0.81
N565 X116.157 Y66.651 Z-1.252 I0.496 J0.81
N570 X115.165 Y65.031 Z-1.356 I-0.496 J-0.81
N575 X116.157 Y66.651 Z-1.46 I0.496 J0.81
N580 X115.091 Y66.601 Z-1.5 I-0.496 J-0.81
N585 X117.491 Y63.401 I1.2 J-1.6
N590 X115.091 Y66.601 I-1.2 J1.6
N595 X117.491 Y63.401 Z-1.719 I1.2 J-1.6
N600 X115.091 Y66.601 Z-1.939 I-1.2 J1.6
N605 X117.491 Y63.401 Z-2.158 I1.2 J-1.6
N610 X115.091 Y66.601 Z-2.378 I-1.2 J1.6
N615 X114.933 Y63.533 Z-2.5 I1.2 J-1.6
N620 X117.649 Y66.469 I1.358 J1.468
N625 X114.933 Y63.533 I-1.358 J-1.468
N630 G1 X114.974 Y63.504 Z-2.487
N635 X115.02 Y63.486 Z-2.473
N640 X115.056 Y63.48 Z-2.437
N645 X115.093 Y63.481 Z-2.4
N650 X115.119 Y63.486 Z-2.3
N655 G0 Z15
N660 X79.311 Y57.984
N665 Z5
N670 G1 Z2.7 F400
N675 X79.292 Y58.002 Z2.602 F600
N680 X79.238 Y58.046 Z2.529
N685 X79.158 Y58.101 Z2.5
N690 G3 X78.165 Y56.481 Z2.396 I-0.496 J-0.81
N695 X79.158 Y58.101 Z2.292 I0.496 J0.81
N700 X78.165 Y56.481 Z2.187 I-0.496 J-0.81
N705 X79.158 Y58.101 Z2.083 I0.496 J0.81
N710 X78.165 Y56.481 Z1.979 I-0.496 J-0.81
N715 X79.158 Y58.101 Z1.875 I0.496 J0.81
N720 X78.165 Y56.481 Z1.77 I-0.496 J-0.81
N725 X79.158 Y58.101 Z1.666 I0.496 J0.81
N730 X78.165 Y56.481 Z1.562 I-0.496 J-0.81
N735 X79.158 Y58.101 Z1.458 I0.496 J0.81
N740 X78.165 Y56.481 Z1.354 I-0.496 J-0.81
N745 X79.158 Y58.101 Z1.249 I0.496 J0.81
N750 X78.165 Y56.481 Z1.145 I-0.496 J-0.81
N755 X79.158 Y58.101 Z1.041 I0.496 J0.81
N760 X78.165 Y56.481 Z0.937 I-0.496 J-0.81
N765 X79.158 Y58.101 Z0.832 I0.496 J0.81
N770 X78.165 Y56.481 Z0.728 I-0.496 J-0.81
N775 X79.158 Y58.101 Z0.624 I0.496 J0.81
N780 X78.165 Y56.481 Z0.52 I-0.496 J-0.81
N785 X79.158 Y58.101 Z0.416 I0.496 J0.81
N790 X78.165 Y56.481 Z0.311 I-0.496 J-0.81
N795 X79.158 Y58.101 Z0.207 I0.496 J0.81
N800 X78.165 Y56.481 Z0.103 I-0.496 J-0.81
N805 X79.158 Y58.101 Z-0.001 I0.496 J0.81
N810 X78.165 Y56.481 Z-0.106 I-0.496 J-0.81
N815 X79.158 Y58.101 Z-0.21 I0.496 J0.81
N820 X78.165 Y56.481 Z-0.314 I-0.496 J-0.81
N825 X79.158 Y58.101 Z-0.418 I0.496 J0.81
N830 X78.165 Y56.481 Z-0.522 I-0.496 J-0.81
N835 X79.158 Y58.101 Z-0.627 I0.496 J0.81
N840 X78.165 Y56.481 Z-0.731 I-0.496 J-0.81
N845 X79.158 Y58.101 Z-0.835 I0.496 J0.81
N850 X78.165 Y56.481 Z-0.939 I-0.496 J-0.81
N855 X79.158 Y58.101 Z-1.044 I0.496 J0.81
N860 X78.165 Y56.481 Z-1.148 I-0.496 J-0.81
N865 X79.158 Y58.101 Z-1.252 I0.496 J0.81
N870 X78.165 Y56.481 Z-1.356 I-0.496 J-0.81
N875 X79.158 Y58.101 Z-1.46 I0.496 J0.81
N880 X78.091 Y58.051 Z-1.5 I-0.496 J-0.81
N885 X80.491 Y54.851 I1.2 J-1.6
N890 X78.091 Y58.051 I-1.2 J1.6
N895 X80.491 Y54.851 Z-1.719 I1.2 J-1.6
N900 X78.091 Y58.051 Z-1.939 I-1.2 J1.6
N905 X80.491 Y54.851 Z-2.158 I1.2 J-1.6
N910 X78.091 Y58.051 Z-2.378 I-1.2 J1.6
N915 X77.933 Y54.983 Z-2.5 I1.2 J-1.6
N920 X80.649 Y57.919 I1.358 J1.468
N925 X77.933 Y54.983 I-1.358 J-1.468
N930 G1 X77.974 Y54.954 Z-2.487
N935 X78.021 Y54.936 Z-2.473
N940 X78.057 Y54.93 Z-2.437
N945 X78.093 Y54.931 Z-2.4
N950 X78.119 Y54.936 Z-2.3
N955 G0 Z15
N960 X76.311 Y90.534
N965 Z5
N970 G1 Z2.7 F400
N975 X76.292 Y90.552 Z2.602 F600
N980 X76.238 Y90.596 Z2.529
N985 X76.158 Y90.651 Z2.5
N990 G3 X75.165 Y89.031 Z2.396 I-0.496 J-0.81
N995 X76.158 Y90.651 Z2.292 I0.496 J0.81
N1000 X75.165 Y89.031 Z2.187 I-0.496 J-0.81
N1005 X76.158 Y90.651 Z2.083 I0.496 J0.81
N1010 X75.165 Y89.031 Z1.979 I-0.496 J-0.81
N1015 X76.158 Y90.651 Z1.875 I0.496 J0.81
N1020 X75.165 Y89.031 Z1.77 I-0.496 J-0.81
N1025 X76.158 Y90.651 Z1.666 I0.496 J0.81
N1030 X75.165 Y89.031 Z1.562 I-0.496 J-0.81
N1035 X76.158 Y90.651 Z1.458 I0.496 J0.81
N1040 X75.165 Y89.031 Z1.354 I-0.496 J-0.81
N1045 X76.158 Y90.651 Z1.249 I0.496 J0.81
N1050 X75.165 Y89.031 Z1.145 I-0.496 J-0.81
N1055 X76.158 Y90.651 Z1.041 I0.496 J0.81
N1060 X75.165 Y89.031 Z0.937 I-0.496 J-0.81
N1065 X76.158 Y90.651 Z0.832 I0.496 J0.81
N1070 X75.165 Y89.031 Z0.728 I-0.496 J-0.81
N1075 X76.158 Y90.651 Z0.624 I0.496 J0.81
N1080 X75.165 Y89.031 Z0.52 I-0.496 J-0.81
N1085 X76.158 Y90.651 Z0.416 I0.496 J0.81
N1090 X75.165 Y89.031 Z0.311 I-0.496 J-0.81
N1095 X76.158 Y90.651 Z0.207 I0.496 J0.81
N1100 X75.165 Y89.031 Z0.103 I-0.496 J-0.81
N1105 X76.158 Y90.651 Z-0.001 I0.496 J0.81
N1110 X75.165 Y89.031 Z-0.106 I-0.496 J-0.81
N1115 X76.158 Y90.651 Z-0.21 I0.496 J0.81
N1120 X75.165 Y89.031 Z-0.314 I-0.496 J-0.81
N1125 X76.158 Y90.651 Z-0.418 I0.496 J0.81
N1130 X75.165 Y89.031 Z-0.522 I-0.496 J-0.81
N1135 X76.158 Y90.651 Z-0.627 I0.496 J0.81
N1140 X75.165 Y89.031 Z-0.731 I-0.496 J-0.81
N1145 X76.158 Y90.651 Z-0.835 I0.496 J0.81
N1150 X75.165 Y89.031 Z-0.939 I-0.496 J-0.81
N1155 X76.158 Y90.651 Z-1.044 I0.496 J0.81
N1160 X75.165 Y89.031 Z-1.148 I-0.496 J-0.81
N1165 X76.158 Y90.651 Z-1.252 I0.496 J0.81
N1170 X75.165 Y89.031 Z-1.356 I-0.496 J-0.81
N1175 X76.158 Y90.651 Z-1.46 I0.496 J0.81
N1180 X75.091 Y90.601 Z-1.5 I-0.496 J-0.81
N1185 X77.491 Y87.401 I1.2 J-1.6
N1190 X75.091 Y90.601 I-1.2 J1.6
N1195 X77.491 Y87.401 Z-1.719 I1.2 J-1.6
N1200 X75.091 Y90.601 Z-1.939 I-1.2 J1.6
N1205 X77.491 Y87.401 Z-2.158 I1.2 J-1.6
N1210 X75.091 Y90.601 Z-2.378 I-1.2 J1.6
N1215 X74.933 Y87.533 Z-2.5 I1.2 J-1.6
N1220 X77.649 Y90.469 I1.358 J1.468
N1225 X74.933 Y87.533 I-1.358 J-1.468
N1230 G1 X74.974 Y87.504 Z-2.487
N1235 X75.021 Y87.486 Z-2.473
N1240 X75.057 Y87.48 Z-2.437
N1245 X75.093 Y87.481 Z-2.4
N1250 X75.119 Y87.486 Z-2.3
N1255 G0 Z15
N1260 X78.507 Y145.542
N1265 Z5
N1270 G1 Z2.7 F400
N1275 X78.488 Y145.56 Z2.602 F600
N1280 X78.434 Y145.604 Z2.529
N1285 X78.354 Y145.659 Z2.5
N1290 G3 X77.362 Y144.039 Z2.396 I-0.496 J-0.81
N1295 X78.354 Y145.659 Z2.292 I0.496 J0.81
N1300 X77.362 Y144.039 Z2.187 I-0.496 J-0.81
N1305 X78.354 Y145.659 Z2.083 I0.496 J0.81
N1310 X77.362 Y144.039 Z1.979 I-0.496 J-0.81
N1315 X78.354 Y145.659 Z1.875 I0.496 J0.81
N1320 X77.362 Y144.039 Z1.77 I-0.496 J-0.81
N1325 X78.354 Y145.659 Z1.666 I0.496 J0.81
N1330 X77.362 Y144.039 Z1.562 I-0.496 J-0.81
N1335 X78.354 Y145.659 Z1.458 I0.496 J0.81
N1340 X77.362 Y144.039 Z1.354 I-0.496 J-0.81
N1345 X78.354 Y145.659 Z1.249 I0.496 J0.81
N1350 X77.362 Y144.039 Z1.145 I-0.496 J-0.81
N1355 X78.354 Y145.659 Z1.041 I0.496 J0.81
N1360 X77.362 Y144.039 Z0.937 I-0.496 J-0.81
N1365 X78.354 Y145.659 Z0.832 I0.496 J0.81
N1370 X77.362 Y144.039 Z0.728 I-0.496 J-0.81
N1375 X78.354 Y145.659 Z0.624 I0.496 J0.81
N1380 X77.362 Y144.039 Z0.52 I-0.496 J-0.81
N1385 X78.354 Y145.659 Z0.416 I0.496 J0.81
N1390 X77.362 Y144.039 Z0.311 I-0.496 J-0.81
N1395 X78.354 Y145.659 Z0.207 I0.496 J0.81
N1400 X77.362 Y144.039 Z0.103 I-0.496 J-0.81
N1405 X78.354 Y145.659 Z-0.001 I0.496 J0.81
N1410 X77.362 Y144.039 Z-0.106 I-0.496 J-0.81
N1415 X78.354 Y145.659 Z-0.21 I0.496 J0.81
N1420 X77.362 Y144.039 Z-0.314 I-0.496 J-0.81
N1425 X78.354 Y145.659 Z-0.418 I0.496 J0.81
N1430 X77.362 Y144.039 Z-0.522 I-0.496 J-0.81
N1435 X78.354 Y145.659 Z-0.627 I0.496 J0.81
N1440 X77.362 Y144.039 Z-0.731 I-0.496 J-0.81
N1445 X78.354 Y145.659 Z-0.835 I0.496 J0.81
N1450 X77.362 Y144.039 Z-0.939 I-0.496 J-0.81
N1455 X78.354 Y145.659 Z-1.044 I0.496 J0.81
N1460 X77.362 Y144.039 Z-1.148 I-0.496 J-0.81
N1465 X78.354 Y145.659 Z-1.252 I0.496 J0.81
N1470 X77.362 Y144.039 Z-1.356 I-0.496 J-0.81
N1475 X78.354 Y145.659 Z-1.46 I0.496 J0.81
N1480 X77.288 Y145.609 Z-1.5 I-0.496 J-0.81
N1485 X79.688 Y142.409 I1.2 J-1.6
N1490 X77.288 Y145.609 I-1.2 J1.6
N1495 X79.688 Y142.409 Z-1.719 I1.2 J-1.6
N1500 X77.288 Y145.609 Z-1.939 I-1.2 J1.6
N1505 X79.688 Y142.409 Z-2.158 I1.2 J-1.6
N1510 X77.288 Y145.609 Z-2.378 I-1.2 J1.6
N1515 X77.13 Y142.541 Z-2.5 I1.2 J-1.6
N1520 X79.846 Y145.477 I1.358 J1.468
N1525 X77.13 Y142.541 I-1.358 J-1.468
N1530 G1 X77.171 Y142.512 Z-2.487
N1535 X77.217 Y142.494 Z-2.473
N1540 X77.253 Y142.488 Z-2.437
N1545 X77.29 Y142.489 Z-2.4
N1550 X77.316 Y142.494 Z-2.3
N1555 G0 Z15
N1560 X66.311 Y176.533
N1565 Z5
N1570 G1 Z2.7 F400
N1575 X66.292 Y176.551 Z2.602 F600
N1580 X66.238 Y176.595 Z2.529
N1585 X66.158 Y176.65 Z2.5
N1590 G3 X65.165 Y175.03 Z2.396 I-0.496 J-0.81
N1595 X66.158 Y176.65 Z2.292 I0.496 J0.81
N1600 X65.165 Y175.03 Z2.187 I-0.496 J-0.81
N1605 X66.158 Y176.65 Z2.083 I0.496 J0.81
N1610 X65.165 Y175.03 Z1.979 I-0.496 J-0.81
N1615 X66.158 Y176.65 Z1.875 I0.496 J0.81
N1620 X65.165 Y175.03 Z1.77 I-0.496 J-0.81
N1625 X66.158 Y176.65 Z1.666 I0.496 J0.81
N1630 X65.165 Y175.03 Z1.562 I-0.496 J-0.81
N1635 X66.158 Y176.65 Z1.458 I0.496 J0.81
N1640 X65.165 Y175.03 Z1.354 I-0.496 J-0.81
N1645 X66.158 Y176.65 Z1.249 I0.496 J0.81
N1650 X65.165 Y175.03 Z1.145 I-0.496 J-0.81
N1655 X66.158 Y176.65 Z1.041 I0.496 J0.81
N1660 X65.165 Y175.03 Z0.937 I-0.496 J-0.81
N1665 X66.158 Y176.65 Z0.832 I0.496 J0.81
N1670 X65.165 Y175.03 Z0.728 I-0.496 J-0.81
N1675 X66.158 Y176.65 Z0.624 I0.496 J0.81
N1680 X65.165 Y175.03 Z0.52 I-0.496 J-0.81
N1685 X66.158 Y176.65 Z0.416 I0.496 J0.81
N1690 X65.165 Y175.03 Z0.311 I-0.496 J-0.81
N1695 X66.158 Y176.65 Z0.207 I0.496 J0.81
N1700 X65.165 Y175.03 Z0.103 I-0.496 J-0.81
N1705 X66.158 Y176.65 Z-0.001 I0.496 J0.81
N1710 X65.165 Y175.03 Z-0.106 I-0.496 J-0.81
N1715 X66.158 Y176.65 Z-0.21 I0.496 J0.81
N1720 X65.165 Y175.03 Z-0.314 I-0.496 J-0.81
N1725 X66.158 Y176.65 Z-0.418 I0.496 J0.81
N1730 X65.165 Y175.03 Z-0.522 I-0.496 J-0.81
N1735 X66.158 Y176.65 Z-0.627 I0.496 J0.81
N1740 X65.165 Y175.03 Z-0.731 I-0.496 J-0.81
N1745 X66.158 Y176.65 Z-0.835 I0.496 J0.81
N1750 X65.165 Y175.03 Z-0.939 I-0.496 J-0.81
N1755 X66.158 Y176.65 Z-1.044 I0.496 J0.81
N1760 X65.165 Y175.03 Z-1.148 I-0.496 J-0.81
N1765 X66.158 Y176.65 Z-1.252 I0.496 J0.81
N1770 X65.165 Y175.03 Z-1.356 I-0.496 J-0.81
N1775 X66.158 Y176.65 Z-1.46 I0.496 J0.81
N1780 X65.091 Y176.6 Z-1.5 I-0.496 J-0.81
N1785 X67.491 Y173.4 I1.2 J-1.6
N1790 X65.091 Y176.6 I-1.2 J1.6
N1795 X67.491 Y173.4 Z-1.719 I1.2 J-1.6
N1800 X65.091 Y176.6 Z-1.939 I-1.2 J1.6
N1805 X67.491 Y173.4 Z-2.158 I1.2 J-1.6
N1810 X65.091 Y176.6 Z-2.378 I-1.2 J1.6
N1815 X64.933 Y173.532 Z-2.5 I1.2 J-1.6
N1820 X67.649 Y176.468 I1.358 J1.468
N1825 X64.933 Y173.532 I-1.358 J-1.468
N1830 G1 X64.974 Y173.503 Z-2.487
N1835 X65.021 Y173.485 Z-2.473
N1840 X65.057 Y173.479 Z-2.437
N1845 X65.093 Y173.48 Z-2.4
N1850 X65.119 Y173.485 Z-2.3
N1855 G0 Z15
N1860 X22.397 Y108.38
N1865 Z5
N1870 G1 Z2.5 F400
N1875 Z-1.3
N1880 Y108.373 Z-1.352
N1885 Y108.353 Z-1.4
N1890 Y108.321 Z-1.441
N1895 Y108.28 Z-1.473
N1900 Y108.232 Z-1.493
N1905 Y108.18 Z-1.5
N1910 Y108.16
N1915 X22.406 Y97.5 F600
N1920 G3 X41.177 I9.386
N1925 G1 X41.186 Y108.152
N1930 X41.179 Y108.205
N1935 X41.158 Y108.254
N1940 X41.125 Y108.296
N1945 X41.082 Y108.328
N1950 X41.032 Y108.347
N1955 X21.037 Y113.01
N1960 G3 X20.792 Y112.815 I-0.045 J-0.195
N1965 G1 Y97.5
N1970 G3 X42.792 I11
N1975 G1 Y112.811
N1980 G3 X41.61 Y113.732 Z-1.539 I-0.95
N1985 G1 X23.116 Y109.082 Z-1.971
N1990 G3 X22.397 Y108.16 Z-2 I0.232 J-0.921
N1995 G1 X22.406 Y97.5
N2000 G3 X41.177 I9.386
N2005 G1 X41.186 Y108.152
N2010 X41.179 Y108.205
N2015 X41.158 Y108.254
N2020 X41.125 Y108.296
N2025 X41.082 Y108.328
N2030 X41.032 Y108.347
N2035 X21.037 Y113.01
N2040 G3 X20.792 Y112.815 I-0.045 J-0.195
N2045 G1 Y97.5
N2050 G3 X42.792 I11
N2055 G1 Y112.811
N2060 X42.789 Y112.842
N2065 X42.633 Y113.83
N2070 X42.625 Y113.881 Z-1.993
N2075 X42.617 Y113.928 Z-1.973
N2080 X42.611 Y113.969 Z-1.941
N2085 X42.606 Y114.001 Z-1.9
N2090 X42.603 Y114.02 Z-1.852
N2095 X42.602 Y114.027 Z-1.8
N2100 G0 Z15

(2D ??32)
N2105 X16.442 Y88.8
N2110 Z15
N2115 Z5
N2120 G1 Z2.5 F600
N2125 Z-1.3
N2130 G18 G2 X16.642 Z-1.5 I0.2
N2135 G1 X16.842 F400
N2140 G17 G3 X17.042 Y89 J0.2
N2145 X15.542 I-0.75 F600
N2150 X17.042 I0.75
N2155 X16.842 Y89.2 I-0.2
N2160 G1 X16.642
N2165 G18 G3 X16.442 Z-1.3 K0.2
N2170 G0 Z5
N2175 Y88.8
N2180 G1 Z1 F600
N2185 Z-1.9
N2190 G2 X16.642 Z-2.1 I0.2
N2195 G1 X16.842 F400
N2200 G17 G3 X17.042 Y89 J0.2
N2205 X15.542 I-0.75 F600
N2210 X17.042 I0.75
N2215 X16.842 Y89.2 I-0.2
N2220 G1 X16.642
N2225 G18 G3 X16.442 Z-1.9 K0.2
N2230 G0 Z5
N2235 X19.442 Y56.25
N2240 G1 Z2.5 F600
N2245 Z-1.3
N2250 G2 X19.642 Z-1.5 I0.2
N2255 G1 X19.842 F400
N2260 G17 G3 X20.042 Y56.45 J0.2
N2265 X18.542 I-0.75 F600
N2270 X20.042 I0.75
N2275 X19.842 Y56.65 I-0.2
N2280 G1 X19.642
N2285 G18 G3 X19.442 Z-1.3 K0.2
N2290 G0 Z5
N2295 Y56.25
N2300 G1 Z1 F600
N2305 Z-1.9
N2310 G2 X19.642 Z-2.1 I0.2
N2315 G1 X19.842 F400
N2320 G17 G3 X20.042 Y56.45 J0.2
N2325 X18.542 I-0.75 F600
N2330 X20.042 I0.75
N2335 X19.842 Y56.65 I-0.2
N2340 G1 X19.642
N2345 G18 G3 X19.442 Z-1.9 K0.2
N2350 G0 Z5
N2355 X56.442 Y54.8
N2360 G1 Z2.5 F600
N2365 Z-1.3
N2370 G2 X56.642 Z-1.5 I0.2
N2375 G1 X56.842 F400
N2380 G17 G3 X57.042 Y55 J0.2
N2385 X55.542 I-0.75 F600
N2390 X57.042 I0.75
N2395 X56.842 Y55.2 I-0.2
N2400 G1 X56.642
N2405 G18 G3 X56.442 Z-1.3 K0.2
N2410 G0 Z5
N2415 Y54.8
N2420 G1 Z1 F600
N2425 Z-1.9
N2430 G2 X56.642 Z-2.1 I0.2
N2435 G1 X56.842 F400
N2440 G17 G3 X57.042 Y55 J0.2
N2445 X55.542 I-0.75 F600
N2450 X57.042 I0.75
N2455 X56.842 Y55.2 I-0.2
N2460 G1 X56.642
N2465 G18 G3 X56.442 Z-1.9 K0.2
N2470 G0 Z5
N2475 Y64.8
N2480 G1 Z2.5 F600
N2485 Z-1.3
N2490 G2 X56.642 Z-1.5 I0.2
N2495 G1 X56.842 F400
N2500 G17 G3 X57.042 Y65 J0.2
N2505 X55.542 I-0.75 F600
N2510 X57.042 I0.75
N2515 X56.842 Y65.2 I-0.2
N2520 G1 X56.642
N2525 G18 G3 X56.442 Z-1.3 K0.2
N2530 G0 Z5
N2535 Y64.8
N2540 G1 Z1 F600
N2545 Z-1.9
N2550 G2 X56.642 Z-2.1 I0.2
N2555 G1 X56.842 F400
N2560 G17 G3 X57.042 Y65 J0.2
N2565 X55.542 I-0.75 F600
N2570 X57.042 I0.75
N2575 X56.842 Y65.2 I-0.2
N2580 G1 X56.642
N2585 G18 G3 X56.442 Z-1.9 K0.2
N2590 G0 Z5
N2595 Y41.8
N2600 G1 Z2.5 F600
N2605 Z-1.3
N2610 G2 X56.642 Z-1.5 I0.2
N2615 G1 X56.842 F400
N2620 G17 G3 X57.042 Y42 J0.2
N2625 X55.542 I-0.75 F600
N2630 X57.042 I0.75
N2635 X56.842 Y42.2 I-0.2
N2640 G1 X56.642
N2645 G18 G3 X56.442 Z-1.3 K0.2
N2650 G0 Z5
N2655 Y41.8
N2660 G1 Z1 F600
N2665 Z-1.9
N2670 G2 X56.642 Z-2.1 I0.2
N2675 G1 X56.842 F400
N2680 G17 G3 X57.042 Y42 J0.2
N2685 X55.542 I-0.75 F600
N2690 X57.042 I0.75
N2695 X56.842 Y42.2 I-0.2
N2700 G1 X56.642
N2705 G18 G3 X56.442 Z-1.9 K0.2
N2710 G0 Z5
N2715 X18.638 Y143.808
N2720 G1 Z2.5 F600
N2725 Z-1.3
N2730 G2 X18.838 Z-1.5 I0.2
N2735 G1 X19.038 F400
N2740 G17 G3 X19.238 Y144.008 J0.2
N2745 X17.738 I-0.75 F600
N2750 X19.238 I0.75
N2755 X19.038 Y144.208 I-0.2
N2760 G1 X18.838
N2765 G18 G3 X18.638 Z-1.3 K0.2
N2770 G0 Z5
N2775 Y143.808
N2780 G1 Z1 F600
N2785 Z-1.9
N2790 G2 X18.838 Z-2.1 I0.2
N2795 G1 X19.038 F400
N2800 G17 G3 X19.238 Y144.008 J0.2
N2805 X17.738 I-0.75 F600
N2810 X19.238 I0.75
N2815 X19.038 Y144.208 I-0.2
N2820 G1 X18.838
N2825 G18 G3 X18.638 Z-1.9 K0.2
N2830 G0 Z15
N2835 X76.492 Y88.852
N2840 Z5
N2845 G1 Z2.5 F600
N2850 Z-1.3
N2855 X76.499 Y88.854 Z-1.352
N2860 X76.518 Y88.86 Z-1.4
N2865 X76.548 Y88.869 Z-1.441
N2870 X76.588 Y88.881 Z-1.473
N2875 X76.634 Y88.895 Z-1.493
N2880 X76.684 Y88.909 Z-1.5
N2885 X76.876 Y88.966 F400
N2890 G17 G3 X77.01 Y89.215 I-0.057 J0.192
N2895 X75.573 Y88.787 I-0.719 J-0.214 F600
N2900 X77.01 Y89.215 I0.719 J0.214
N2905 X76.761 Y89.35 I-0.192 J-0.057
N2910 G1 X76.57 Y89.293
N2915 X76.52 Y89.278 Z-1.493
N2920 X76.474 Y89.264 Z-1.473
N2925 X76.434 Y89.252 Z-1.441
N2930 X76.404 Y89.243 Z-1.4
N2935 X76.385 Y89.237 Z-1.352
N2940 X76.378 Y89.236 Z-1.3
N2945 G0 Z5
N2950 X76.492 Y88.852
N2955 G1 Z1 F600
N2960 Z-2.8
N2965 X76.499 Y88.854 Z-2.852
N2970 X76.518 Y88.86 Z-2.9
N2975 X76.548 Y88.869 Z-2.941
N2980 X76.588 Y88.881 Z-2.973
N2985 X76.634 Y88.895 Z-2.993
N2990 X76.684 Y88.909 Z-3
N2995 X76.876 Y88.966 F400
N3000 G3 X77.01 Y89.215 I-0.057 J0.192
N3005 X75.573 Y88.787 I-0.719 J-0.214 F600
N3010 X77.01 Y89.215 I0.719 J0.214
N3015 X76.761 Y89.35 I-0.192 J-0.057
N3020 G1 X76.57 Y89.293
N3025 X76.52 Y89.278 Z-2.993
N3030 X76.474 Y89.264 Z-2.973
N3035 X76.434 Y89.252 Z-2.941
N3040 X76.404 Y89.243 Z-2.9
N3045 X76.385 Y89.237 Z-2.852
N3050 X76.378 Y89.236 Z-2.8
N3055 G0 Z5
N3060 X76.492 Y88.852
N3065 G1 Z-0.5 F600
N3070 Z-3.9
N3075 X76.499 Y88.854 Z-3.952
N3080 X76.518 Y88.86 Z-4
N3085 X76.548 Y88.869 Z-4.041
N3090 X76.588 Y88.881 Z-4.073
N3095 X76.634 Y88.895 Z-4.093
N3100 X76.684 Y88.909 Z-4.1
N3105 X76.876 Y88.966 F400
N3110 G3 X77.01 Y89.215 I-0.057 J0.192
N3115 X75.573 Y88.787 I-0.719 J-0.214 F600
N3120 X77.01 Y89.215 I0.719 J0.214
N3125 X76.761 Y89.35 I-0.192 J-0.057
N3130 G1 X76.57 Y89.293
N3135 X76.52 Y89.278 Z-4.093
N3140 X76.474 Y89.264 Z-4.073
N3145 X76.434 Y89.252 Z-4.041
N3150 X76.404 Y89.243 Z-4
N3155 X76.385 Y89.237 Z-3.952
N3160 X76.378 Y89.236 Z-3.9
N3165 G0 Z5
N3170 X103.049 Y65.657
N3175 G1 Z2.5 F600
N3180 Z-1.3
N3185 X103.055 Y65.659 Z-1.352
N3190 X103.075 Y65.664 Z-1.4
N3195 X103.105 Y65.672 Z-1.441
N3200 X103.145 Y65.683 Z-1.473
N3205 X103.192 Y65.696 Z-1.493
N3210 X103.242 Y65.709 Z-1.5
N3215 X103.435 Y65.761 F400
N3220 G3 X103.577 Y66.006 I-0.052 J0.193
N3225 G1 X103.507 Y66.266 F600
N3230 X94.814 Y63.937
N3235 X94.943 Y63.454
N3240 X103.636 Y65.783
N3245 X103.577 Y66.006
N3250 G3 X103.332 Y66.147 I-0.193 J-0.052
N3255 G1 X103.138 Y66.095
N3260 X103.088 Y66.082 Z-1.493
N3265 X103.042 Y66.069 Z-1.473
N3270 X103.002 Y66.059 Z-1.441
N3275 X102.971 Y66.051 Z-1.4
N3280 X102.952 Y66.045 Z-1.352
N3285 X102.945 Y66.044 Z-1.3
N3290 G0 Z5
N3295 X103.049 Y65.657
N3300 G1 Z1 F600
N3305 Z-2.8
N3310 X103.055 Y65.659 Z-2.852
N3315 X103.075 Y65.664 Z-2.9
N3320 X103.105 Y65.672 Z-2.941
N3325 X103.145 Y65.683 Z-2.973
N3330 X103.192 Y65.696 Z-2.993
N3335 X103.242 Y65.709 Z-3
N3340 X103.435 Y65.761 F400
N3345 G3 X103.577 Y66.006 I-0.052 J0.193
N3350 G1 X103.507 Y66.266 F600
N3355 X94.814 Y63.937
N3360 X94.943 Y63.454
N3365 X103.636 Y65.783
N3370 X103.577 Y66.006
N3375 G3 X103.332 Y66.147 I-0.193 J-0.052
N3380 G1 X103.138 Y66.095
N3385 X103.088 Y66.082 Z-2.993
N3390 X103.042 Y66.069 Z-2.973
N3395 X103.002 Y66.059 Z-2.941
N3400 X102.971 Y66.051 Z-2.9
N3405 X102.952 Y66.045 Z-2.852
N3410 X102.945 Y66.044 Z-2.8
N3415 G0 Z5
N3420 X103.049 Y65.657
N3425 G1 Z-0.5 F600
N3430 Z-3.9
N3435 X103.055 Y65.659 Z-3.952
N3440 X103.075 Y65.664 Z-4
N3445 X103.105 Y65.672 Z-4.041
N3450 X103.145 Y65.683 Z-4.073
N3455 X103.192 Y65.696 Z-4.093
N3460 X103.242 Y65.709 Z-4.1
N3465 X103.435 Y65.761 F400
N3470 G3 X103.577 Y66.006 I-0.052 J0.193
N3475 G1 X103.507 Y66.266 F600
N3480 X94.814 Y63.937
N3485 X94.943 Y63.454
N3490 X103.636 Y65.783
N3495 X103.577 Y66.006
N3500 G3 X103.332 Y66.147 I-0.193 J-0.052
N3505 G1 X103.138 Y66.095
N3510 X103.088 Y66.082 Z-4.093
N3515 X103.042 Y66.069 Z-4.073
N3520 X103.002 Y66.059 Z-4.041
N3525 X102.971 Y66.051 Z-4
N3530 X102.952 Y66.045 Z-3.952
N3535 X102.945 Y66.044 Z-3.9
N3540 G0 Z5
N3545 X114.452 Y58.401
N3550 G1 Z2.5 F600
N3555 Z-1.3
N3560 G19 G3 Y58.601 Z-1.5 J0.2
N3565 G1 Y58.801 F400
N3570 G17 G3 X114.252 Y59.001 I-0.2
N3575 G1 X87.291 F600
N3580 G3 X85.291 Y57.001 J-2
N3585 G1 Y38.001
N3590 G3 X87.291 Y36.001 I2
N3595 G1 X108.288
N3600 X108.289
N3605 G3 X110.291 Y37.96 I0.002 J2
N3610 G1 Y47.001
N3615 G2 X114.291 Y51.001 I4
N3620 G1 X118.288
N3625 X118.289
N3630 G3 X120.291 Y52.96 I0.002 J2
N3635 G1 Y57.042
N3640 G3 X118.292 Y59.001 I-1.999 J-0.04
N3645 G1 X114.252
N3650 G3 X114.052 Y58.801 J-0.2
N3655 G1 Y58.601
N3660 G19 G2 Y58.401 Z-1.3 K0.2
N3665 G0 Z5
N3670 X114.452
N3675 G1 Z1 F600
N3680 Z-2.8
N3685 G3 Y58.601 Z-3 J0.2
N3690 G1 Y58.801 F400
N3695 G17 G3 X114.252 Y59.001 I-0.2
N3700 G1 X87.291 F600
N3705 G3 X85.291 Y57.001 J-2
N3710 G1 Y38.001
N3715 G3 X87.291 Y36.001 I2
N3720 G1 X108.288
N3725 X108.289
N3730 G3 X110.291 Y37.96 I0.002 J2
N3735 G1 Y47.001
N3740 G2 X114.291 Y51.001 I4
N3745 G1 X118.288
N3750 X118.289
N3755 G3 X120.291 Y52.96 I0.002 J2
N3760 G1 Y57.042
N3765 G3 X118.292 Y59.001 I-1.999 J-0.04
N3770 G1 X114.252
N3775 G3 X114.052 Y58.801 J-0.2
N3780 G1 Y58.601
N3785 G19 G2 Y58.401 Z-2.8 K0.2
N3790 G0 Z5
N3795 X114.452
N3800 G1 Z-0.5 F600
N3805 Z-3.9
N3810 G3 Y58.601 Z-4.1 J0.2
N3815 G1 Y58.801 F400
N3820 G17 G3 X114.252 Y59.001 I-0.2
N3825 G1 X87.291 F600
N3830 G3 X85.291 Y57.001 J-2
N3835 G1 Y38.001
N3840 G3 X87.291 Y36.001 I2
N3845 G1 X108.288
N3850 X108.289
N3855 G3 X110.291 Y37.96 I0.002 J2
N3860 G1 Y47.001
N3865 G2 X114.291 Y51.001 I4
N3870 G1 X118.288
N3875 X118.289
N3880 G3 X120.291 Y52.96 I0.002 J2
N3885 G1 Y57.042
N3890 G3 X118.292 Y59.001 I-1.999 J-0.04
N3895 G1 X114.252
N3900 G3 X114.052 Y58.801 J-0.2
N3905 G1 Y58.601
N3910 G19 G2 Y58.401 Z-3.9 K0.2
N3915 G0 Z5
N3920 X116.441 Y64.801
N3925 G1 Z2.5 F600
N3930 Z-1.3
N3935 G18 G2 X116.641 Z-1.5 I0.2
N3940 G1 X116.841 F400
N3945 G17 G3 X117.041 Y65.001 J0.2
N3950 X115.541 I-0.75 F600
N3955 X117.041 I0.75
N3960 X116.841 Y65.201 I-0.2
N3965 G1 X116.641
N3970 G18 G3 X116.441 Z-1.3 K0.2
N3975 G0 Z5
N3980 Y64.801
N3985 G1 Z1 F600
N3990 Z-2.8
N3995 G2 X116.641 Z-3 I0.2
N4000 G1 X116.841 F400
N4005 G17 G3 X117.041 Y65.001 J0.2
N4010 X115.541 I-0.75 F600
N4015 X117.041 I0.75
N4020 X116.841 Y65.201 I-0.2
N4025 G1 X116.641
N4030 G18 G3 X116.441 Z-2.8 K0.2
N4035 G0 Z5
N4040 Y64.801
N4045 G1 Z-0.5 F600
N4050 Z-3.9
N4055 G2 X116.641 Z-4.1 I0.2
N4060 G1 X116.841 F400
N4065 G17 G3 X117.041 Y65.001 J0.2
N4070 X115.541 I-0.75 F600
N4075 X117.041 I0.75
N4080 X116.841 Y65.201 I-0.2
N4085 G1 X116.641
N4090 G18 G3 X116.441 Z-3.9 K0.2
N4095 G0 Z5
N4100 Y41.801
N4105 G1 Z2.5 F600
N4110 Z-1.3
N4115 G2 X116.641 Z-1.5 I0.2
N4120 G1 X116.841 F400
N4125 G17 G3 X117.041 Y42.001 J0.2
N4130 X115.541 I-0.75 F600
N4135 X117.041 I0.75
N4140 X116.841 Y42.201 I-0.2
N4145 G1 X116.641
N4150 G18 G3 X116.441 Z-1.3 K0.2
N4155 G0 Z5
N4160 Y41.801
N4165 G1 Z1 F600
N4170 Z-2.8
N4175 G2 X116.641 Z-3 I0.2
N4180 G1 X116.841 F400
N4185 G17 G3 X117.041 Y42.001 J0.2
N4190 X115.541 I-0.75 F600
N4195 X117.041 I0.75
N4200 X116.841 Y42.201 I-0.2
N4205 G1 X116.641
N4210 G18 G3 X116.441 Z-2.8 K0.2
N4215 G0 Z5
N4220 Y41.801
N4225 G1 Z-0.5 F600
N4230 Z-3.9
N4235 G2 X116.641 Z-4.1 I0.2
N4240 G1 X116.841 F400
N4245 G17 G3 X117.041 Y42.001 J0.2
N4250 X115.541 I-0.75 F600
N4255 X117.041 I0.75
N4260 X116.841 Y42.201 I-0.2
N4265 G1 X116.641
N4270 G18 G3 X116.441 Z-3.9 K0.2
N4275 G0 Z5
N4280 X99.441 Y25.001
N4285 G1 Z2.5 F600
N4290 Z-1.3
N4295 G2 X99.641 Z-1.5 I0.2
N4300 G1 X99.841 F400
N4305 G17 G3 X100.041 Y25.201 J0.2
N4310 X98.541 I-0.75 F600
N4315 X100.041 I0.75
N4320 X99.841 Y25.401 I-0.2
N4325 G1 X99.641
N4330 G18 G3 X99.441 Z-1.3 K0.2
N4335 G0 Z5
N4340 Y25.001
N4345 G1 Z1 F600
N4350 Z-2.8
N4355 G2 X99.641 Z-3 I0.2
N4360 G1 X99.841 F400
N4365 G17 G3 X100.041 Y25.201 J0.2
N4370 X98.541 I-0.75 F600
N4375 X100.041 I0.75
N4380 X99.841 Y25.401 I-0.2
N4385 G1 X99.641
N4390 G18 G3 X99.441 Z-2.8 K0.2
N4395 G0 Z5
N4400 Y25.001
N4405 G1 Z-0.5 F600
N4410 Z-3.9
N4415 G2 X99.641 Z-4.1 I0.2
N4420 G1 X99.841 F400
N4425 G17 G3 X100.041 Y25.201 J0.2
N4430 X98.541 I-0.75 F600
N4435 X100.041 I0.75
N4440 X99.841 Y25.401 I-0.2
N4445 G1 X99.641
N4450 G18 G3 X99.441 Z-3.9 K0.2
N4455 G0 Z5
N4460 X90.441 Y25.001
N4465 G1 Z2.5 F600
N4470 Z-1.3
N4475 G2 X90.641 Z-1.5 I0.2
N4480 G1 X90.841 F400
N4485 G17 G3 X91.041 Y25.201 J0.2
N4490 X89.541 I-0.75 F600
N4495 X91.041 I0.75
N4500 X90.841 Y25.401 I-0.2
N4505 G1 X90.641
N4510 G18 G3 X90.441 Z-1.3 K0.2
N4515 G0 Z5
N4520 Y25.001
N4525 G1 Z1 F600
N4530 Z-2.8
N4535 G2 X90.641 Z-3 I0.2
N4540 G1 X90.841 F400
N4545 G17 G3 X91.041 Y25.201 J0.2
N4550 X89.541 I-0.75 F600
N4555 X91.041 I0.75
N4560 X90.841 Y25.401 I-0.2
N4565 G1 X90.641
N4570 G18 G3 X90.441 Z-2.8 K0.2
N4575 G0 Z5
N4580 Y25.001
N4585 G1 Z-0.5 F600
N4590 Z-3.9
N4595 G2 X90.641 Z-4.1 I0.2
N4600 G1 X90.841 F400
N4605 G17 G3 X91.041 Y25.201 J0.2
N4610 X89.541 I-0.75 F600
N4615 X91.041 I0.75
N4620 X90.841 Y25.401 I-0.2
N4625 G1 X90.641
N4630 G18 G3 X90.441 Z-3.9 K0.2
N4635 G0 Z5
N4640 X79.441 Y56.251
N4645 G1 Z2.5 F600
N4650 Z-1.3
N4655 G2 X79.641 Z-1.5 I0.2
N4660 G1 X79.841 F400
N4665 G17 G3 X80.041 Y56.451 J0.2
N4670 X78.541 I-0.75 F600
N4675 X80.041 I0.75
N4680 X79.841 Y56.651 I-0.2
N4685 G1 X79.641
N4690 G18 G3 X79.441 Z-1.3 K0.2
N4695 G0 Z5
N4700 Y56.251
N4705 G1 Z1 F600
N4710 Z-2.8
N4715 G2 X79.641 Z-3 I0.2
N4720 G1 X79.841 F400
N4725 G17 G3 X80.041 Y56.451 J0.2
N4730 X78.541 I-0.75 F600
N4735 X80.041 I0.75
N4740 X79.841 Y56.651 I-0.2
N4745 G1 X79.641
N4750 G18 G3 X79.441 Z-2.8 K0.2
N4755 G0 Z5
N4760 Y56.251
N4765 G1 Z-0.5 F600
N4770 Z-3.9
N4775 G2 X79.641 Z-4.1 I0.2
N4780 G1 X79.841 F400
N4785 G17 G3 X80.041 Y56.451 J0.2
N4790 X78.541 I-0.75 F600
N4795 X80.041 I0.75
N4800 X79.841 Y56.651 I-0.2
N4805 G1 X79.641
N4810 G18 G3 X79.441 Z-3.9 K0.2
N4815 G0 Z5
N4820 X39.692 Y97.3
N4825 G1 Z2.5 F600
N4830 Z-1.3
N4835 G2 X39.892 Z-1.5 I0.2
N4840 G1 X40.092 F400
N4845 G17 G3 X40.292 Y97.5 J0.2
N4850 G1 Y106.669 F600
N4855 G2 X40.5 Y107.28 I1
N4860 G3 X23.083 Y120.72 I-8.708 J6.72
N4865 Y107.28 I8.708 J-6.72
N4870 G2 X23.292 Y106.669 I-0.792 J-0.611
N4875 G1 Y97.5
N4880 G3 X40.292 I8.5
N4885 X40.092 Y97.7 I-0.2
N4890 G1 X39.892
N4895 G18 G3 X39.692 Z-1.3 K0.2
N4900 G0 Z5
N4905 Y97.3
N4910 G1 Z1 F600
N4915 Z-2.8
N4920 G2 X39.892 Z-3 I0.2
N4925 G1 X40.092 F400
N4930 G17 G3 X40.292 Y97.5 J0.2
N4935 G1 Y106.669 F600
N4940 G2 X40.5 Y107.28 I1
N4945 G3 X23.083 Y120.72 I-8.708 J6.72
N4950 Y107.28 I8.708 J-6.72
N4955 G2 X23.292 Y106.669 I-0.792 J-0.611
N4960 G1 Y97.5
N4965 G3 X40.292 I8.5
N4970 X40.092 Y97.7 I-0.2
N4975 G1 X39.892
N4980 G18 G3 X39.692 Z-2.8 K0.2
N4985 G0 Z5
N4990 Y97.3
N4995 G1 Z-0.5 F600
N5000 Z-3.9
N5005 G2 X39.892 Z-4.1 I0.2
N5010 G1 X40.092 F400
N5015 G17 G3 X40.292 Y97.5 J0.2
N5020 G1 Y106.669 F600
N5025 G2 X40.5 Y107.28 I1
N5030 G3 X23.083 Y120.72 I-8.708 J6.72
N5035 Y107.28 I8.708 J-6.72
N5040 G2 X23.292 Y106.669 I-0.792 J-0.611
N5045 G1 Y97.5
N5050 G3 X40.292 I8.5
N5055 X40.092 Y97.7 I-0.2
N5060 G1 X39.892
N5065 G18 G3 X39.692 Z-3.9 K0.2
N5070 G0 Z5
N5075 X78.638 Y143.809
N5080 G1 Z2.5 F600
N5085 Z-1.3
N5090 G2 X78.838 Z-1.5 I0.2
N5095 G1 X79.038 F400
N5100 G17 G3 X79.238 Y144.009 J0.2
N5105 X77.738 I-0.75 F600
N5110 X79.238 I0.75
N5115 X79.038 Y144.209 I-0.2
N5120 G1 X78.838
N5125 G18 G3 X78.638 Z-1.3 K0.2
N5130 G0 Z5
N5135 Y143.809
N5140 G1 Z1 F600
N5145 Z-2.8
N5150 G2 X78.838 Z-3 I0.2
N5155 G1 X79.038 F400
N5160 G17 G3 X79.238 Y144.009 J0.2
N5165 X77.738 I-0.75 F600
N5170 X79.238 I0.75
N5175 X79.038 Y144.209 I-0.2
N5180 G1 X78.838
N5185 G18 G3 X78.638 Z-2.8 K0.2
N5190 G0 Z5
N5195 Y143.809
N5200 G1 Z-0.5 F600
N5205 Z-3.9
N5210 G2 X78.838 Z-4.1 I0.2
N5215 G1 X79.038 F400
N5220 G17 G3 X79.238 Y144.009 J0.2
N5225 X77.738 I-0.75 F600
N5230 X79.238 I0.75
N5235 X79.038 Y144.209 I-0.2
N5240 G1 X78.838
N5245 G18 G3 X78.638 Z-3.9 K0.2
N5250 G0 Z5
N5255 X66.441 Y174.8
N5260 G1 Z2.5 F600
N5265 Z-1.3
N5270 G2 X66.641 Z-1.5 I0.2
N5275 G1 X66.841 F400
N5280 G17 G3 X67.041 Y175 J0.2
N5285 X65.541 I-0.75 F600
N5290 X67.041 I0.75
N5295 X66.841 Y175.2 I-0.2
N5300 G1 X66.641
N5305 G18 G3 X66.441 Z-1.3 K0.2
N5310 G0 Z5
N5315 Y174.8
N5320 G1 Z1 F600
N5325 Z-2.8
N5330 G2 X66.641 Z-3 I0.2
N5335 G1 X66.841 F400
N5340 G17 G3 X67.041 Y175 J0.2
N5345 X65.541 I-0.75 F600
N5350 X67.041 I0.75
N5355 X66.841 Y175.2 I-0.2
N5360 G1 X66.641
N5365 G18 G3 X66.441 Z-2.8 K0.2
N5370 G0 Z5
N5375 Y174.8
N5380 G1 Z-0.5 F600
N5385 Z-3.9
N5390 G2 X66.641 Z-4.1 I0.2
N5395 G1 X66.841 F400
N5400 G17 G3 X67.041 Y175 J0.2
N5405 X65.541 I-0.75 F600
N5410 X67.041 I0.75
N5415 X66.841 Y175.2 I-0.2
N5420 G1 X66.641
N5425 G18 G3 X66.441 Z-3.9 K0.2
N5430 G0 Z15
N5435 G17

(2D ??34)
N5440 G0 X59.55 Y83.877
N5445 Z15
N5450 Z5
N5455 G1 Z2.5 F600
N5460 Z-1.3
N5465 X59.544 Y83.875 Z-1.352
N5470 X59.525 Y83.87 Z-1.4
N5475 X59.494 Y83.862 Z-1.441
N5480 X59.454 Y83.851 Z-1.473
N5485 X59.407 Y83.839 Z-1.493
N5490 X59.357 Y83.825 Z-1.5
N5495 X59.164 Y83.773 F400
N5500 G3 X59.023 Y83.529 I0.052 J-0.193
N5505 G1 X65.758 Y58.393 F600
N5510 G2 X65.792 Y58.134 I-0.966 J-0.259
N5515 G1 Y0.001
N5520 G2 X64.792 Y-1 I-1 J-0.001
N5525 G1 X10.792
N5530 G2 X9.792 Y0 J1
N5535 G1 Y85.666
N5540 X-0.199 Y122.953
N5545 G2 X16.418 Y151.735 I22.699 J6.083
N5550 X45.199 Y135.118 I6.082 J-22.699
N5555 G1 X59.023 Y83.529
N5560 G3 X59.268 Y83.387 I0.193 J0.052
N5565 G1 X59.461 Y83.439
N5570 X59.511 Y83.452 Z-1.493
N5575 X59.557 Y83.465 Z-1.473
N5580 X59.597 Y83.475 Z-1.441
N5585 X59.628 Y83.484 Z-1.4
N5590 X59.647 Y83.489 Z-1.352
N5595 X59.654 Y83.491 Z-1.3
N5600 G0 Z5
N5605 X59.55 Y83.877
N5610 G1 Z1 F600
N5615 Z-2.8
N5620 X59.544 Y83.875 Z-2.852
N5625 X59.525 Y83.87 Z-2.9
N5630 X59.494 Y83.862 Z-2.941
N5635 X59.454 Y83.851 Z-2.973
N5640 X59.407 Y83.839 Z-2.993
N5645 X59.357 Y83.825 Z-3
N5650 X59.164 Y83.773 F400
N5655 G3 X59.023 Y83.529 I0.052 J-0.193
N5660 G1 X65.758 Y58.393 F600
N5665 G2 X65.792 Y58.134 I-0.966 J-0.259
N5670 G1 Y0.001
N5675 G2 X64.792 Y-1 I-1 J-0.001
N5680 G1 X10.792
N5685 G2 X9.792 Y0 J1
N5690 G1 Y85.666
N5695 X-0.199 Y122.953
N5700 G2 X16.418 Y151.735 I22.699 J6.083
N5705 X45.199 Y135.118 I6.082 J-22.699
N5710 G1 X59.023 Y83.529
N5715 G3 X59.268 Y83.387 I0.193 J0.052
N5720 G1 X59.461 Y83.439
N5725 X59.511 Y83.452 Z-2.993
N5730 X59.557 Y83.465 Z-2.973
N5735 X59.597 Y83.475 Z-2.941
N5740 X59.628 Y83.484 Z-2.9
N5745 X59.647 Y83.489 Z-2.852
N5750 X59.654 Y83.491 Z-2.8
N5755 G0 Z5
N5760 X59.55 Y83.877
N5765 G1 Z-0.5 F600
N5770 Z-3.9
N5775 X59.544 Y83.875 Z-3.952
N5780 X59.525 Y83.87 Z-4
N5785 X59.494 Y83.862 Z-4.041
N5790 X59.454 Y83.851 Z-4.073
N5795 X59.407 Y83.839 Z-4.093
N5800 X59.357 Y83.825 Z-4.1
N5805 X59.164 Y83.773 F400
N5810 G3 X59.023 Y83.529 I0.052 J-0.193
N5815 G1 X65.758 Y58.393 F600
N5820 G2 X65.792 Y58.134 I-0.966 J-0.259
N5825 G1 Y0.001
N5830 G2 X64.792 Y-1 I-1 J-0.001
N5835 G1 X10.792
N5840 G2 X9.792 Y0 J1
N5845 G1 Y85.666
N5850 X-0.199 Y122.953
N5855 G2 X16.418 Y151.735 I22.699 J6.083
N5860 X45.199 Y135.118 I6.082 J-22.699
N5865 G1 X59.023 Y83.529
N5870 G3 X59.268 Y83.387 I0.193 J0.052
N5875 G1 X59.461 Y83.439
N5880 X59.511 Y83.452 Z-4.093
N5885 X59.557 Y83.465 Z-4.073
N5890 X59.597 Y83.475 Z-4.041
N5895 X59.628 Y83.484 Z-4
N5900 X59.647 Y83.489 Z-3.952
N5905 X59.654 Y83.491 Z-3.9
N5910 G0 Z5
N5915 X60.839 Y139.605
N5920 G1 Z2.5 F600
N5925 Z-1.3
N5930 X60.845 Y139.602 Z-1.352
N5935 X60.863 Y139.593 Z-1.4
N5940 X60.892 Y139.579 Z-1.441
N5945 X60.929 Y139.56 Z-1.473
N5950 X60.972 Y139.539 Z-1.493
N5955 X61.018 Y139.516 Z-1.5
N5960 X61.197 Y139.426 F400
N5965 G3 X61.465 Y139.516 I0.089 J0.179
N5970 G2 X105.199 Y135.119 I21.034 J-10.479 F600
N5975 G1 X125.757 Y58.394
N5980 G2 X125.791 Y58.135 I-0.966 J-0.259
N5985 G1 Y0.001
N5990 G2 X124.791 Y-0.999 I-1
N5995 G1 X106.291
N6000 G2 X105.291 Y0.001 J1
N6005 G1 Y20.001
N6010 X86.291
N6015 Y0.001
N6020 G2 X85.291 Y-0.999 I-1
N6025 G1 X70.791
N6030 G2 X69.791 Y0.001 J1
N6035 G1 Y85.667
N6040 X59.8 Y122.954
N6045 G2 X61.465 Y139.516 I22.699 J6.083
N6050 G3 X61.375 Y139.784 I-0.179 J0.089
N6055 G1 X61.196 Y139.874
N6060 X61.15 Y139.897 Z-1.493
N6065 X61.107 Y139.918 Z-1.473
N6070 X61.07 Y139.937 Z-1.441
N6075 X61.041 Y139.951 Z-1.4
N6080 X61.024 Y139.96 Z-1.352
N6085 X61.017 Y139.963 Z-1.3
N6090 G0 Z5
N6095 X60.839 Y139.605
N6100 G1 Z1 F600
N6105 Z-2.8
N6110 X60.845 Y139.602 Z-2.852
N6115 X60.863 Y139.593 Z-2.9
N6120 X60.892 Y139.579 Z-2.941
N6125 X60.929 Y139.56 Z-2.973
N6130 X60.972 Y139.539 Z-2.993
N6135 X61.018 Y139.516 Z-3
N6140 X61.197 Y139.426 F400
N6145 G3 X61.465 Y139.516 I0.089 J0.179
N6150 G2 X105.199 Y135.119 I21.034 J-10.479 F600
N6155 G1 X125.757 Y58.394
N6160 G2 X125.791 Y58.135 I-0.966 J-0.259
N6165 G1 Y0.001
N6170 G2 X124.791 Y-0.999 I-1
N6175 G1 X106.291
N6180 G2 X105.291 Y0.001 J1
N6185 G1 Y20.001
N6190 X86.291
N6195 Y0.001
N6200 G2 X85.291 Y-0.999 I-1
N6205 G1 X70.791
N6210 G2 X69.791 Y0.001 J1
N6215 G1 Y85.667
N6220 X59.8 Y122.954
N6225 G2 X61.465 Y139.516 I22.699 J6.083
N6230 G3 X61.375 Y139.784 I-0.179 J0.089
N6235 G1 X61.196 Y139.874
N6240 X61.15 Y139.897 Z-2.993
N6245 X61.107 Y139.918 Z-2.973
N6250 X61.07 Y139.937 Z-2.941
N6255 X61.041 Y139.951 Z-2.9
N6260 X61.024 Y139.96 Z-2.852
N6265 X61.017 Y139.963 Z-2.8
N6270 G0 Z5
N6275 X60.839 Y139.605
N6280 G1 Z-0.5 F600
N6285 Z-3.9
N6290 X60.845 Y139.602 Z-3.952
N6295 X60.863 Y139.593 Z-4
N6300 X60.892 Y139.579 Z-4.041
N6305 X60.929 Y139.56 Z-4.073
N6310 X60.972 Y139.539 Z-4.093
N6315 X61.018 Y139.516 Z-4.1
N6320 X61.197 Y139.426 F400
N6325 G3 X61.465 Y139.516 I0.089 J0.179
N6330 G2 X105.199 Y135.119 I21.034 J-10.479 F600
N6335 G1 X125.757 Y58.394
N6340 G2 X125.791 Y58.135 I-0.966 J-0.259
N6345 G1 Y0.001
N6350 G2 X124.791 Y-0.999 I-1
N6355 G1 X106.291
N6360 G2 X105.291 Y0.001 J1
N6365 G1 Y20.001
N6370 X86.291
N6375 Y0.001
N6380 G2 X85.291 Y-0.999 I-1
N6385 G1 X70.791
N6390 G2 X69.791 Y0.001 J1
N6395 G1 Y85.667
N6400 X59.8 Y122.954
N6405 G2 X61.465 Y139.516 I22.699 J6.083
N6410 G3 X61.375 Y139.784 I-0.179 J0.089
N6415 G1 X61.196 Y139.874
N6420 X61.15 Y139.897 Z-4.093
N6425 X61.107 Y139.918 Z-4.073
N6430 X61.07 Y139.937 Z-4.041
N6435 X61.041 Y139.951 Z-4
N6440 X61.024 Y139.96 Z-3.952
N6445 X61.017 Y139.963 Z-3.9
N6450 G0 Z5
N6455 X52.699 Y153.4
N6460 G1 Z2.5 F600
N6465 Z-1.3
N6470 G19 G3 Y153.6 Z-1.5 J0.2
N6475 G1 Y153.8 F400
N6480 G17 G3 X52.499 Y154 I-0.2
N6485 G1 X37.291 F600
N6490 G2 X33.291 Y158 J4
N6495 G1 Y177
N6500 G2 X37.291 Y181 I4
N6505 G1 X68.292
N6510 G2 X72.291 Y177.065 J-4
N6515 G1 Y177.049
N6520 Y172.951
N6525 Y172.935
N6530 G2 X68.288 Y169 I-3.999 J0.065
N6535 G1 X64.291
N6540 G3 X62.291 Y167 J-2
N6545 G1 Y157.951
N6550 Y157.935
N6555 G2 X58.288 Y154 I-3.999 J0.065
N6560 G1 X52.499
N6565 G3 X52.299 Y153.8 J-0.2
N6570 G1 Y153.6
N6575 G19 G2 Y153.4 Z-1.3 K0.2
N6580 G0 Z5
N6585 X52.699
N6590 G1 Z1 F600
N6595 Z-2.8
N6600 G3 Y153.6 Z-3 J0.2
N6605 G1 Y153.8 F400
N6610 G17 G3 X52.499 Y154 I-0.2
N6615 G1 X37.291 F600
N6620 G2 X33.291 Y158 J4
N6625 G1 Y177
N6630 G2 X37.291 Y181 I4
N6635 G1 X68.292
N6640 G2 X72.291 Y177.065 J-4
N6645 G1 Y177.049
N6650 Y172.951
N6655 Y172.935
N6660 G2 X68.288 Y169 I-3.999 J0.065
N6665 G1 X64.291
N6670 G3 X62.291 Y167 J-2
N6675 G1 Y157.951
N6680 Y157.935
N6685 G2 X58.288 Y154 I-3.999 J0.065
N6690 G1 X52.499
N6695 G3 X52.299 Y153.8 J-0.2
N6700 G1 Y153.6
N6705 G19 G2 Y153.4 Z-2.8 K0.2
N6710 G0 Z5
N6715 X52.699
N6720 G1 Z-0.5 F600
N6725 Z-3.9
N6730 G3 Y153.6 Z-4.1 J0.2
N6735 G1 Y153.8 F400
N6740 G17 G3 X52.499 Y154 I-0.2
N6745 G1 X37.291 F600
N6750 G2 X33.291 Y158 J4
N6755 G1 Y177
N6760 G2 X37.291 Y181 I4
N6765 G1 X68.292
N6770 G2 X72.291 Y177.065 J-4
N6775 G1 Y177.049
N6780 Y172.951
N6785 Y172.935
N6790 G2 X68.288 Y169 I-3.999 J0.065
N6795 G1 X64.291
N6800 G3 X62.291 Y167 J-2
N6805 G1 Y157.951
N6810 Y157.935
N6815 G2 X58.288 Y154 I-3.999 J0.065
N6820 G1 X52.499
N6825 G3 X52.299 Y153.8 J-0.2
N6830 G1 Y153.6
N6835 G19 G2 Y153.4 Z-3.9 K0.2
N6840 G0 Z15
N6845 G17
N6850 M9
N6855 G28
N6860 M30
%
