%
(1001)
(T1 D=2 CR=0 - ZMIN=-4.1 - flat end mill)
N10 G90 G94
N15 G17
N20 G21
N25 M9
N30 G28

(2D ????21)
N35 T1 M6
(0)
N40 S23873 M3
N45 G54
N50 M8
N55 G0 X22.397 Y108.38
N60 G43 Z15
N65 Z5
N70 G1 Z2.5 F400
N75 Z-1.3
N80 Y108.373 Z-1.352
N85 Y108.353 Z-1.4
N90 Y108.321 Z-1.441
N95 Y108.28 Z-1.473
N100 Y108.232 Z-1.493
N105 Y108.18 Z-1.5
N110 Y108.16
N115 X22.406 Y97.5 F600
N120 G3 X41.177 I9.386
N125 G1 X41.186 Y108.152
N130 X41.179 Y108.205
N135 X41.158 Y108.254
N140 X41.125 Y108.296
N145 X41.082 Y108.328
N150 X41.032 Y108.347
N155 X21.037 Y113.01
N160 G3 X20.792 Y112.815 I-0.045 J-0.195
N165 G1 Y97.5
N170 G3 X42.792 I11
N175 G1 Y112.811
N180 G3 X41.61 Y113.732 Z-1.539 I-0.95
N185 G1 X23.116 Y109.082 Z-1.971
N190 G3 X22.397 Y108.16 Z-2 I0.232 J-0.921
N195 G1 X22.406 Y97.5
N200 G3 X41.177 I9.386
N205 G1 X41.186 Y108.152
N210 X41.179 Y108.205
N215 X41.158 Y108.254
N220 X41.125 Y108.296
N225 X41.082 Y108.328
N230 X41.032 Y108.347
N235 X21.037 Y113.01
N240 G3 X20.792 Y112.815 I-0.045 J-0.195
N245 G1 Y97.5
N250 G3 X42.792 I11
N255 G1 Y112.811
N260 X42.789 Y112.842
N265 X42.633 Y113.83
N270 X42.625 Y113.881 Z-1.993
N275 X42.617 Y113.928 Z-1.973
N280 X42.611 Y113.969 Z-1.941
N285 X42.606 Y114.001 Z-1.9
N290 X42.603 Y114.02 Z-1.852
N295 X42.602 Y114.027 Z-1.8
N300 G0 Z15
N305 X76.465 Y90.348
N310 Z5
N315 G1 Z2.7 F400
N320 X76.451 Y90.37 Z2.602 F600
N325 X76.409 Y90.427 Z2.529
N330 X76.346 Y90.5 Z2.5
N335 G3 X74.977 Y89.182 Z2.396 I-0.684 J-0.659
N340 X76.346 Y90.5 Z2.292 I0.684 J0.659
N345 X74.977 Y89.182 Z2.187 I-0.684 J-0.659
N350 X76.346 Y90.5 Z2.083 I0.684 J0.659
N355 X74.977 Y89.182 Z1.979 I-0.684 J-0.659
N360 X76.346 Y90.5 Z1.875 I0.684 J0.659
N365 X74.977 Y89.182 Z1.77 I-0.684 J-0.659
N370 X76.346 Y90.5 Z1.666 I0.684 J0.659
N375 X74.977 Y89.182 Z1.562 I-0.684 J-0.659
N380 X76.346 Y90.5 Z1.458 I0.684 J0.659
N385 X74.977 Y89.182 Z1.354 I-0.684 J-0.659
N390 X76.346 Y90.5 Z1.249 I0.684 J0.659
N395 X74.977 Y89.182 Z1.145 I-0.684 J-0.659
N400 X76.346 Y90.5 Z1.041 I0.684 J0.659
N405 X74.977 Y89.182 Z0.937 I-0.684 J-0.659
N410 X76.346 Y90.5 Z0.832 I0.684 J0.659
N415 X74.977 Y89.182 Z0.728 I-0.684 J-0.659
N420 X76.346 Y90.5 Z0.624 I0.684 J0.659
N425 X74.977 Y89.182 Z0.52 I-0.684 J-0.659
N430 X76.346 Y90.5 Z0.416 I0.684 J0.659
N435 X74.977 Y89.182 Z0.311 I-0.684 J-0.659
N440 X76.346 Y90.5 Z0.207 I0.684 J0.659
N445 X74.977 Y89.182 Z0.103 I-0.684 J-0.659
N450 X76.346 Y90.5 Z-0.001 I0.684 J0.659
N455 X74.977 Y89.182 Z-0.106 I-0.684 J-0.659
N460 X76.346 Y90.5 Z-0.21 I0.684 J0.659
N465 X74.977 Y89.182 Z-0.314 I-0.684 J-0.659
N470 X76.346 Y90.5 Z-0.418 I0.684 J0.659
N475 X74.977 Y89.182 Z-0.522 I-0.684 J-0.659
N480 X76.346 Y90.5 Z-0.627 I0.684 J0.659
N485 X74.977 Y89.182 Z-0.731 I-0.684 J-0.659
N490 X76.346 Y90.5 Z-0.835 I0.684 J0.659
N495 X74.977 Y89.182 Z-0.939 I-0.684 J-0.659
N500 X76.346 Y90.5 Z-1.044 I0.684 J0.659
N505 X74.977 Y89.182 Z-1.148 I-0.684 J-0.659
N510 X76.346 Y90.5 Z-1.252 I0.684 J0.659
N515 X75.091 Y90.601 Z-1.3 I-0.684 J-0.659
N520 X77.491 Y87.401 I1.2 J-1.6
N525 X75.091 Y90.601 I-1.2 J1.6
N530 G1 X75.056 Y90.566 Z-1.287
N535 X75.029 Y90.524 Z-1.273
N540 X75.017 Y90.489 Z-1.237
N545 X75.012 Y90.453 Z-1.2
N550 Y90.426 Z-1.1
N555 G0 Z15
N560 X79.465 Y57.798
N565 Z5
N570 G1 Z2.7 F400
N575 X79.451 Y57.82 Z2.602 F600
N580 X79.409 Y57.877 Z2.529
N585 X79.346 Y57.95 Z2.5
N590 G3 X77.977 Y56.632 Z2.396 I-0.684 J-0.659
N595 X79.346 Y57.95 Z2.292 I0.684 J0.659
N600 X77.977 Y56.632 Z2.187 I-0.684 J-0.659
N605 X79.346 Y57.95 Z2.083 I0.684 J0.659
N610 X77.977 Y56.632 Z1.979 I-0.684 J-0.659
N615 X79.346 Y57.95 Z1.875 I0.684 J0.659
N620 X77.977 Y56.632 Z1.77 I-0.684 J-0.659
N625 X79.346 Y57.95 Z1.666 I0.684 J0.659
N630 X77.977 Y56.632 Z1.562 I-0.684 J-0.659
N635 X79.346 Y57.95 Z1.458 I0.684 J0.659
N640 X77.977 Y56.632 Z1.354 I-0.684 J-0.659
N645 X79.346 Y57.95 Z1.249 I0.684 J0.659
N650 X77.977 Y56.632 Z1.145 I-0.684 J-0.659
N655 X79.346 Y57.95 Z1.041 I0.684 J0.659
N660 X77.977 Y56.632 Z0.937 I-0.684 J-0.659
N665 X79.346 Y57.95 Z0.832 I0.684 J0.659
N670 X77.977 Y56.632 Z0.728 I-0.684 J-0.659
N675 X79.346 Y57.95 Z0.624 I0.684 J0.659
N680 X77.977 Y56.632 Z0.52 I-0.684 J-0.659
N685 X79.346 Y57.95 Z0.416 I0.684 J0.659
N690 X77.977 Y56.632 Z0.311 I-0.684 J-0.659
N695 X79.346 Y57.95 Z0.207 I0.684 J0.659
N700 X77.977 Y56.632 Z0.103 I-0.684 J-0.659
N705 X79.346 Y57.95 Z-0.001 I0.684 J0.659
N710 X77.977 Y56.632 Z-0.106 I-0.684 J-0.659
N715 X79.346 Y57.95 Z-0.21 I0.684 J0.659
N720 X77.977 Y56.632 Z-0.314 I-0.684 J-0.659
N725 X79.346 Y57.95 Z-0.418 I0.684 J0.659
N730 X77.977 Y56.632 Z-0.522 I-0.684 J-0.659
N735 X79.346 Y57.95 Z-0.627 I0.684 J0.659
N740 X77.977 Y56.632 Z-0.731 I-0.684 J-0.659
N745 X79.346 Y57.95 Z-0.835 I0.684 J0.659
N750 X77.977 Y56.632 Z-0.939 I-0.684 J-0.659
N755 X79.346 Y57.95 Z-1.044 I0.684 J0.659
N760 X77.977 Y56.632 Z-1.148 I-0.684 J-0.659
N765 X79.346 Y57.95 Z-1.252 I0.684 J0.659
N770 X78.091 Y58.051 Z-1.3 I-0.684 J-0.659
N775 X80.491 Y54.851 I1.2 J-1.6
N780 X78.091 Y58.051 I-1.2 J1.6
N785 G1 X78.056 Y58.016 Z-1.287
N790 X78.029 Y57.974 Z-1.273
N795 X78.017 Y57.939 Z-1.237
N800 X78.012 Y57.903 Z-1.2
N805 Y57.876 Z-1.1
N810 G0 Z15
N815 X116.464 Y43.348
N820 Z5
N825 G1 Z2.7 F400
N830 X116.45 Y43.37 Z2.602 F600
N835 X116.409 Y43.427 Z2.529
N840 X116.345 Y43.5 Z2.5
N845 G3 X114.977 Y42.182 Z2.396 I-0.684 J-0.659
N850 X116.345 Y43.5 Z2.292 I0.684 J0.659
N855 X114.977 Y42.182 Z2.187 I-0.684 J-0.659
N860 X116.345 Y43.5 Z2.083 I0.684 J0.659
N865 X114.977 Y42.182 Z1.979 I-0.684 J-0.659
N870 X116.345 Y43.5 Z1.875 I0.684 J0.659
N875 X114.977 Y42.182 Z1.77 I-0.684 J-0.659
N880 X116.345 Y43.5 Z1.666 I0.684 J0.659
N885 X114.977 Y42.182 Z1.562 I-0.684 J-0.659
N890 X116.345 Y43.5 Z1.458 I0.684 J0.659
N895 X114.977 Y42.182 Z1.354 I-0.684 J-0.659
N900 X116.345 Y43.5 Z1.249 I0.684 J0.659
N905 X114.977 Y42.182 Z1.145 I-0.684 J-0.659
N910 X116.345 Y43.5 Z1.041 I0.684 J0.659
N915 X114.977 Y42.182 Z0.937 I-0.684 J-0.659
N920 X116.345 Y43.5 Z0.832 I0.684 J0.659
N925 X114.977 Y42.182 Z0.728 I-0.684 J-0.659
N930 X116.345 Y43.5 Z0.624 I0.684 J0.659
N935 X114.977 Y42.182 Z0.52 I-0.684 J-0.659
N940 X116.345 Y43.5 Z0.416 I0.684 J0.659
N945 X114.977 Y42.182 Z0.311 I-0.684 J-0.659
N950 X116.345 Y43.5 Z0.207 I0.684 J0.659
N955 X114.977 Y42.182 Z0.103 I-0.684 J-0.659
N960 X116.345 Y43.5 Z-0.001 I0.684 J0.659
N965 X114.977 Y42.182 Z-0.106 I-0.684 J-0.659
N970 X116.345 Y43.5 Z-0.21 I0.684 J0.659
N975 X114.977 Y42.182 Z-0.314 I-0.684 J-0.659
N980 X116.345 Y43.5 Z-0.418 I0.684 J0.659
N985 X114.977 Y42.182 Z-0.522 I-0.684 J-0.659
N990 X116.345 Y43.5 Z-0.627 I0.684 J0.659
N995 X114.977 Y42.182 Z-0.731 I-0.684 J-0.659
N1000 X116.345 Y43.5 Z-0.835 I0.684 J0.659
N1005 X114.977 Y42.182 Z-0.939 I-0.684 J-0.659
N1010 X116.345 Y43.5 Z-1.044 I0.684 J0.659
N1015 X114.977 Y42.182 Z-1.148 I-0.684 J-0.659
N1020 X116.345 Y43.5 Z-1.252 I0.684 J0.659
N1025 X115.091 Y43.601 Z-1.3 I-0.684 J-0.659
N1030 X117.491 Y40.401 I1.2 J-1.6
N1035 X115.091 Y43.601 I-1.2 J1.6
N1040 G1 X115.055 Y43.566 Z-1.287
N1045 X115.029 Y43.524 Z-1.273
N1050 X115.017 Y43.489 Z-1.237
N1055 X115.011 Y43.453 Z-1.2
N1060 X115.012 Y43.426 Z-1.1
N1065 G0 Z15
N1070 X116.464 Y66.348
N1075 Z5
N1080 G1 Z2.7 F400
N1085 X116.45 Y66.37 Z2.602 F600
N1090 X116.409 Y66.427 Z2.529
N1095 X116.345 Y66.5 Z2.5
N1100 G3 X114.977 Y65.182 Z2.396 I-0.684 J-0.659
N1105 X116.345 Y66.5 Z2.292 I0.684 J0.659
N1110 X114.977 Y65.182 Z2.187 I-0.684 J-0.659
N1115 X116.345 Y66.5 Z2.083 I0.684 J0.659
N1120 X114.977 Y65.182 Z1.979 I-0.684 J-0.659
N1125 X116.345 Y66.5 Z1.875 I0.684 J0.659
N1130 X114.977 Y65.182 Z1.77 I-0.684 J-0.659
N1135 X116.345 Y66.5 Z1.666 I0.684 J0.659
N1140 X114.977 Y65.182 Z1.562 I-0.684 J-0.659
N1145 X116.345 Y66.5 Z1.458 I0.684 J0.659
N1150 X114.977 Y65.182 Z1.354 I-0.684 J-0.659
N1155 X116.345 Y66.5 Z1.249 I0.684 J0.659
N1160 X114.977 Y65.182 Z1.145 I-0.684 J-0.659
N1165 X116.345 Y66.5 Z1.041 I0.684 J0.659
N1170 X114.977 Y65.182 Z0.937 I-0.684 J-0.659
N1175 X116.345 Y66.5 Z0.832 I0.684 J0.659
N1180 X114.977 Y65.182 Z0.728 I-0.684 J-0.659
N1185 X116.345 Y66.5 Z0.624 I0.684 J0.659
N1190 X114.977 Y65.182 Z0.52 I-0.684 J-0.659
N1195 X116.345 Y66.5 Z0.416 I0.684 J0.659
N1200 X114.977 Y65.182 Z0.311 I-0.684 J-0.659
N1205 X116.345 Y66.5 Z0.207 I0.684 J0.659
N1210 X114.977 Y65.182 Z0.103 I-0.684 J-0.659
N1215 X116.345 Y66.5 Z-0.001 I0.684 J0.659
N1220 X114.977 Y65.182 Z-0.106 I-0.684 J-0.659
N1225 X116.345 Y66.5 Z-0.21 I0.684 J0.659
N1230 X114.977 Y65.182 Z-0.314 I-0.684 J-0.659
N1235 X116.345 Y66.5 Z-0.418 I0.684 J0.659
N1240 X114.977 Y65.182 Z-0.522 I-0.684 J-0.659
N1245 X116.345 Y66.5 Z-0.627 I0.684 J0.659
N1250 X114.977 Y65.182 Z-0.731 I-0.684 J-0.659
N1255 X116.345 Y66.5 Z-0.835 I0.684 J0.659
N1260 X114.977 Y65.182 Z-0.939 I-0.684 J-0.659
N1265 X116.345 Y66.5 Z-1.044 I0.684 J0.659
N1270 X114.977 Y65.182 Z-1.148 I-0.684 J-0.659
N1275 X116.345 Y66.5 Z-1.252 I0.684 J0.659
N1280 X115.091 Y66.601 Z-1.3 I-0.684 J-0.659
N1285 X117.491 Y63.401 I1.2 J-1.6
N1290 X115.091 Y66.601 I-1.2 J1.6
N1295 G1 X115.055 Y66.566 Z-1.287
N1300 X115.029 Y66.524 Z-1.273
N1305 X115.017 Y66.489 Z-1.237
N1310 X115.011 Y66.453 Z-1.2
N1315 X115.012 Y66.426 Z-1.1
N1320 G0 Z15
N1325 X78.661 Y145.356
N1330 Z5
N1335 G1 Z2.7 F400
N1340 X78.647 Y145.378 Z2.602 F600
N1345 X78.606 Y145.435 Z2.529
N1350 X78.542 Y145.508 Z2.5
N1355 G3 X77.174 Y144.19 Z2.396 I-0.684 J-0.659
N1360 X78.542 Y145.508 Z2.292 I0.684 J0.659
N1365 X77.174 Y144.19 Z2.187 I-0.684 J-0.659
N1370 X78.542 Y145.508 Z2.083 I0.684 J0.659
N1375 X77.174 Y144.19 Z1.979 I-0.684 J-0.659
N1380 X78.542 Y145.508 Z1.875 I0.684 J0.659
N1385 X77.174 Y144.19 Z1.77 I-0.684 J-0.659
N1390 X78.542 Y145.508 Z1.666 I0.684 J0.659
N1395 X77.174 Y144.19 Z1.562 I-0.684 J-0.659
N1400 X78.542 Y145.508 Z1.458 I0.684 J0.659
N1405 X77.174 Y144.19 Z1.354 I-0.684 J-0.659
N1410 X78.542 Y145.508 Z1.249 I0.684 J0.659
N1415 X77.174 Y144.19 Z1.145 I-0.684 J-0.659
N1420 X78.542 Y145.508 Z1.041 I0.684 J0.659
N1425 X77.174 Y144.19 Z0.937 I-0.684 J-0.659
N1430 X78.542 Y145.508 Z0.832 I0.684 J0.659
N1435 X77.174 Y144.19 Z0.728 I-0.684 J-0.659
N1440 X78.542 Y145.508 Z0.624 I0.684 J0.659
N1445 X77.174 Y144.19 Z0.52 I-0.684 J-0.659
N1450 X78.542 Y145.508 Z0.416 I0.684 J0.659
N1455 X77.174 Y144.19 Z0.311 I-0.684 J-0.659
N1460 X78.542 Y145.508 Z0.207 I0.684 J0.659
N1465 X77.174 Y144.19 Z0.103 I-0.684 J-0.659
N1470 X78.542 Y145.508 Z-0.001 I0.684 J0.659
N1475 X77.174 Y144.19 Z-0.106 I-0.684 J-0.659
N1480 X78.542 Y145.508 Z-0.21 I0.684 J0.659
N1485 X77.174 Y144.19 Z-0.314 I-0.684 J-0.659
N1490 X78.542 Y145.508 Z-0.418 I0.684 J0.659
N1495 X77.174 Y144.19 Z-0.522 I-0.684 J-0.659
N1500 X78.542 Y145.508 Z-0.627 I0.684 J0.659
N1505 X77.174 Y144.19 Z-0.731 I-0.684 J-0.659
N1510 X78.542 Y145.508 Z-0.835 I0.684 J0.659
N1515 X77.174 Y144.19 Z-0.939 I-0.684 J-0.659
N1520 X78.542 Y145.508 Z-1.044 I0.684 J0.659
N1525 X77.174 Y144.19 Z-1.148 I-0.684 J-0.659
N1530 X78.542 Y145.508 Z-1.252 I0.684 J0.659
N1535 X77.288 Y145.609 Z-1.3 I-0.684 J-0.659
N1540 X79.688 Y142.409 I1.2 J-1.6
N1545 X77.288 Y145.609 I-1.2 J1.6
N1550 G1 X77.252 Y145.574 Z-1.287
N1555 X77.226 Y145.532 Z-1.273
N1560 X77.214 Y145.497 Z-1.237
N1565 X77.208 Y145.461 Z-1.2
N1570 Y145.434 Z-1.1
N1575 G0 Z15
N1580 X66.465 Y176.347
N1585 Z5
N1590 G1 Z2.7 F400
N1595 X66.451 Y176.369 Z2.602 F600
N1600 X66.409 Y176.426 Z2.529
N1605 X66.346 Y176.499 Z2.5
N1610 G3 X64.977 Y175.181 Z2.396 I-0.684 J-0.659
N1615 X66.346 Y176.499 Z2.292 I0.684 J0.659
N1620 X64.977 Y175.181 Z2.187 I-0.684 J-0.659
N1625 X66.346 Y176.499 Z2.083 I0.684 J0.659
N1630 X64.977 Y175.181 Z1.979 I-0.684 J-0.659
N1635 X66.346 Y176.499 Z1.875 I0.684 J0.659
N1640 X64.977 Y175.181 Z1.77 I-0.684 J-0.659
N1645 X66.346 Y176.499 Z1.666 I0.684 J0.659
N1650 X64.977 Y175.181 Z1.562 I-0.684 J-0.659
N1655 X66.346 Y176.499 Z1.458 I0.684 J0.659
N1660 X64.977 Y175.181 Z1.354 I-0.684 J-0.659
N1665 X66.346 Y176.499 Z1.249 I0.684 J0.659
N1670 X64.977 Y175.181 Z1.145 I-0.684 J-0.659
N1675 X66.346 Y176.499 Z1.041 I0.684 J0.659
N1680 X64.977 Y175.181 Z0.937 I-0.684 J-0.659
N1685 X66.346 Y176.499 Z0.832 I0.684 J0.659
N1690 X64.977 Y175.181 Z0.728 I-0.684 J-0.659
N1695 X66.346 Y176.499 Z0.624 I0.684 J0.659
N1700 X64.977 Y175.181 Z0.52 I-0.684 J-0.659
N1705 X66.346 Y176.499 Z0.416 I0.684 J0.659
N1710 X64.977 Y175.181 Z0.311 I-0.684 J-0.659
N1715 X66.346 Y176.499 Z0.207 I0.684 J0.659
N1720 X64.977 Y175.181 Z0.103 I-0.684 J-0.659
N1725 X66.346 Y176.499 Z-0.001 I0.684 J0.659
N1730 X64.977 Y175.181 Z-0.106 I-0.684 J-0.659
N1735 X66.346 Y176.499 Z-0.21 I0.684 J0.659
N1740 X64.977 Y175.181 Z-0.314 I-0.684 J-0.659
N1745 X66.346 Y176.499 Z-0.418 I0.684 J0.659
N1750 X64.977 Y175.181 Z-0.522 I-0.684 J-0.659
N1755 X66.346 Y176.499 Z-0.627 I0.684 J0.659
N1760 X64.977 Y175.181 Z-0.731 I-0.684 J-0.659
N1765 X66.346 Y176.499 Z-0.835 I0.684 J0.659
N1770 X64.977 Y175.181 Z-0.939 I-0.684 J-0.659
N1775 X66.346 Y176.499 Z-1.044 I0.684 J0.659
N1780 X64.977 Y175.181 Z-1.148 I-0.684 J-0.659
N1785 X66.346 Y176.499 Z-1.252 I0.684 J0.659
N1790 X65.091 Y176.6 Z-1.3 I-0.684 J-0.659
N1795 X67.491 Y173.4 I1.2 J-1.6
N1800 X65.091 Y176.6 I-1.2 J1.6
N1805 G1 X65.056 Y176.565 Z-1.287
N1810 X65.029 Y176.523 Z-1.273
N1815 X65.017 Y176.488 Z-1.237
N1820 X65.012 Y176.452 Z-1.2
N1825 Y176.425 Z-1.1
N1830 G0 Z15

(2D ??32)
N1835 X16.442 Y88.8
N1840 Z15
N1845 Z5
N1850 G1 Z2.5 F600
N1855 Z-1.3
N1860 G18 G2 X16.642 Z-1.5 I0.2
N1865 G1 X16.842 F400
N1870 G17 G3 X17.042 Y89 J0.2
N1875 X15.542 I-0.75 F600
N1880 X17.042 I0.75
N1885 X16.842 Y89.2 I-0.2
N1890 G1 X16.642
N1895 G18 G3 X16.442 Z-1.3 K0.2
N1900 G0 Z5
N1905 Y88.8
N1910 G1 Z1 F600
N1915 Z-1.9
N1920 G2 X16.642 Z-2.1 I0.2
N1925 G1 X16.842 F400
N1930 G17 G3 X17.042 Y89 J0.2
N1935 X15.542 I-0.75 F600
N1940 X17.042 I0.75
N1945 X16.842 Y89.2 I-0.2
N1950 G1 X16.642
N1955 G18 G3 X16.442 Z-1.9 K0.2
N1960 G0 Z5
N1965 X19.442 Y56.25
N1970 G1 Z2.5 F600
N1975 Z-1.3
N1980 G2 X19.642 Z-1.5 I0.2
N1985 G1 X19.842 F400
N1990 G17 G3 X20.042 Y56.45 J0.2
N1995 X18.542 I-0.75 F600
N2000 X20.042 I0.75
N2005 X19.842 Y56.65 I-0.2
N2010 G1 X19.642
N2015 G18 G3 X19.442 Z-1.3 K0.2
N2020 G0 Z5
N2025 Y56.25
N2030 G1 Z1 F600
N2035 Z-1.9
N2040 G2 X19.642 Z-2.1 I0.2
N2045 G1 X19.842 F400
N2050 G17 G3 X20.042 Y56.45 J0.2
N2055 X18.542 I-0.75 F600
N2060 X20.042 I0.75
N2065 X19.842 Y56.65 I-0.2
N2070 G1 X19.642
N2075 G18 G3 X19.442 Z-1.9 K0.2
N2080 G0 Z5
N2085 X56.442 Y54.8
N2090 G1 Z2.5 F600
N2095 Z-1.3
N2100 G2 X56.642 Z-1.5 I0.2
N2105 G1 X56.842 F400
N2110 G17 G3 X57.042 Y55 J0.2
N2115 X55.542 I-0.75 F600
N2120 X57.042 I0.75
N2125 X56.842 Y55.2 I-0.2
N2130 G1 X56.642
N2135 G18 G3 X56.442 Z-1.3 K0.2
N2140 G0 Z5
N2145 Y54.8
N2150 G1 Z1 F600
N2155 Z-1.9
N2160 G2 X56.642 Z-2.1 I0.2
N2165 G1 X56.842 F400
N2170 G17 G3 X57.042 Y55 J0.2
N2175 X55.542 I-0.75 F600
N2180 X57.042 I0.75
N2185 X56.842 Y55.2 I-0.2
N2190 G1 X56.642
N2195 G18 G3 X56.442 Z-1.9 K0.2
N2200 G0 Z5
N2205 Y64.8
N2210 G1 Z2.5 F600
N2215 Z-1.3
N2220 G2 X56.642 Z-1.5 I0.2
N2225 G1 X56.842 F400
N2230 G17 G3 X57.042 Y65 J0.2
N2235 X55.542 I-0.75 F600
N2240 X57.042 I0.75
N2245 X56.842 Y65.2 I-0.2
N2250 G1 X56.642
N2255 G18 G3 X56.442 Z-1.3 K0.2
N2260 G0 Z5
N2265 Y64.8
N2270 G1 Z1 F600
N2275 Z-1.9
N2280 G2 X56.642 Z-2.1 I0.2
N2285 G1 X56.842 F400
N2290 G17 G3 X57.042 Y65 J0.2
N2295 X55.542 I-0.75 F600
N2300 X57.042 I0.75
N2305 X56.842 Y65.2 I-0.2
N2310 G1 X56.642
N2315 G18 G3 X56.442 Z-1.9 K0.2
N2320 G0 Z5
N2325 Y41.8
N2330 G1 Z2.5 F600
N2335 Z-1.3
N2340 G2 X56.642 Z-1.5 I0.2
N2345 G1 X56.842 F400
N2350 G17 G3 X57.042 Y42 J0.2
N2355 X55.542 I-0.75 F600
N2360 X57.042 I0.75
N2365 X56.842 Y42.2 I-0.2
N2370 G1 X56.642
N2375 G18 G3 X56.442 Z-1.3 K0.2
N2380 G0 Z5
N2385 Y41.8
N2390 G1 Z1 F600
N2395 Z-1.9
N2400 G2 X56.642 Z-2.1 I0.2
N2405 G1 X56.842 F400
N2410 G17 G3 X57.042 Y42 J0.2
N2415 X55.542 I-0.75 F600
N2420 X57.042 I0.75
N2425 X56.842 Y42.2 I-0.2
N2430 G1 X56.642
N2435 G18 G3 X56.442 Z-1.9 K0.2
N2440 G0 Z5
N2445 X18.638 Y143.808
N2450 G1 Z2.5 F600
N2455 Z-1.3
N2460 G2 X18.838 Z-1.5 I0.2
N2465 G1 X19.038 F400
N2470 G17 G3 X19.238 Y144.008 J0.2
N2475 X17.738 I-0.75 F600
N2480 X19.238 I0.75
N2485 X19.038 Y144.208 I-0.2
N2490 G1 X18.838
N2495 G18 G3 X18.638 Z-1.3 K0.2
N2500 G0 Z5
N2505 Y143.808
N2510 G1 Z1 F600
N2515 Z-1.9
N2520 G2 X18.838 Z-2.1 I0.2
N2525 G1 X19.038 F400
N2530 G17 G3 X19.238 Y144.008 J0.2
N2535 X17.738 I-0.75 F600
N2540 X19.238 I0.75
N2545 X19.038 Y144.208 I-0.2
N2550 G1 X18.838
N2555 G18 G3 X18.638 Z-1.9 K0.2
N2560 G0 Z15
N2565 X76.492 Y88.852
N2570 Z5
N2575 G1 Z2.5 F600
N2580 Z-1.3
N2585 X76.499 Y88.854 Z-1.352
N2590 X76.518 Y88.86 Z-1.4
N2595 X76.548 Y88.869 Z-1.441
N2600 X76.588 Y88.881 Z-1.473
N2605 X76.634 Y88.895 Z-1.493
N2610 X76.684 Y88.909 Z-1.5
N2615 X76.876 Y88.966 F400
N2620 G17 G3 X77.01 Y89.215 I-0.057 J0.192
N2625 X75.573 Y88.787 I-0.719 J-0.214 F600
N2630 X77.01 Y89.215 I0.719 J0.214
N2635 X76.761 Y89.35 I-0.192 J-0.057
N2640 G1 X76.57 Y89.293
N2645 X76.52 Y89.278 Z-1.493
N2650 X76.474 Y89.264 Z-1.473
N2655 X76.434 Y89.252 Z-1.441
N2660 X76.404 Y89.243 Z-1.4
N2665 X76.385 Y89.237 Z-1.352
N2670 X76.378 Y89.236 Z-1.3
N2675 G0 Z5
N2680 X76.492 Y88.852
N2685 G1 Z1 F600
N2690 Z-2.8
N2695 X76.499 Y88.854 Z-2.852
N2700 X76.518 Y88.86 Z-2.9
N2705 X76.548 Y88.869 Z-2.941
N2710 X76.588 Y88.881 Z-2.973
N2715 X76.634 Y88.895 Z-2.993
N2720 X76.684 Y88.909 Z-3
N2725 X76.876 Y88.966 F400
N2730 G3 X77.01 Y89.215 I-0.057 J0.192
N2735 X75.573 Y88.787 I-0.719 J-0.214 F600
N2740 X77.01 Y89.215 I0.719 J0.214
N2745 X76.761 Y89.35 I-0.192 J-0.057
N2750 G1 X76.57 Y89.293
N2755 X76.52 Y89.278 Z-2.993
N2760 X76.474 Y89.264 Z-2.973
N2765 X76.434 Y89.252 Z-2.941
N2770 X76.404 Y89.243 Z-2.9
N2775 X76.385 Y89.237 Z-2.852
N2780 X76.378 Y89.236 Z-2.8
N2785 G0 Z5
N2790 X76.492 Y88.852
N2795 G1 Z-0.5 F600
N2800 Z-3.9
N2805 X76.499 Y88.854 Z-3.952
N2810 X76.518 Y88.86 Z-4
N2815 X76.548 Y88.869 Z-4.041
N2820 X76.588 Y88.881 Z-4.073
N2825 X76.634 Y88.895 Z-4.093
N2830 X76.684 Y88.909 Z-4.1
N2835 X76.876 Y88.966 F400
N2840 G3 X77.01 Y89.215 I-0.057 J0.192
N2845 X75.573 Y88.787 I-0.719 J-0.214 F600
N2850 X77.01 Y89.215 I0.719 J0.214
N2855 X76.761 Y89.35 I-0.192 J-0.057
N2860 G1 X76.57 Y89.293
N2865 X76.52 Y89.278 Z-4.093
N2870 X76.474 Y89.264 Z-4.073
N2875 X76.434 Y89.252 Z-4.041
N2880 X76.404 Y89.243 Z-4
N2885 X76.385 Y89.237 Z-3.952
N2890 X76.378 Y89.236 Z-3.9
N2895 G0 Z5
N2900 X103.049 Y65.657
N2905 G1 Z2.5 F600
N2910 Z-1.3
N2915 X103.055 Y65.659 Z-1.352
N2920 X103.075 Y65.664 Z-1.4
N2925 X103.105 Y65.672 Z-1.441
N2930 X103.145 Y65.683 Z-1.473
N2935 X103.192 Y65.696 Z-1.493
N2940 X103.242 Y65.709 Z-1.5
N2945 X103.435 Y65.761 F400
N2950 G3 X103.577 Y66.006 I-0.052 J0.193
N2955 G1 X103.507 Y66.266 F600
N2960 X94.814 Y63.937
N2965 X94.943 Y63.454
N2970 X103.636 Y65.783
N2975 X103.577 Y66.006
N2980 G3 X103.332 Y66.147 I-0.193 J-0.052
N2985 G1 X103.138 Y66.095
N2990 X103.088 Y66.082 Z-1.493
N2995 X103.042 Y66.069 Z-1.473
N3000 X103.002 Y66.059 Z-1.441
N3005 X102.971 Y66.051 Z-1.4
N3010 X102.952 Y66.045 Z-1.352
N3015 X102.945 Y66.044 Z-1.3
N3020 G0 Z5
N3025 X103.049 Y65.657
N3030 G1 Z1 F600
N3035 Z-2.8
N3040 X103.055 Y65.659 Z-2.852
N3045 X103.075 Y65.664 Z-2.9
N3050 X103.105 Y65.672 Z-2.941
N3055 X103.145 Y65.683 Z-2.973
N3060 X103.192 Y65.696 Z-2.993
N3065 X103.242 Y65.709 Z-3
N3070 X103.435 Y65.761 F400
N3075 G3 X103.577 Y66.006 I-0.052 J0.193
N3080 G1 X103.507 Y66.266 F600
N3085 X94.814 Y63.937
N3090 X94.943 Y63.454
N3095 X103.636 Y65.783
N3100 X103.577 Y66.006
N3105 G3 X103.332 Y66.147 I-0.193 J-0.052
N3110 G1 X103.138 Y66.095
N3115 X103.088 Y66.082 Z-2.993
N3120 X103.042 Y66.069 Z-2.973
N3125 X103.002 Y66.059 Z-2.941
N3130 X102.971 Y66.051 Z-2.9
N3135 X102.952 Y66.045 Z-2.852
N3140 X102.945 Y66.044 Z-2.8
N3145 G0 Z5
N3150 X103.049 Y65.657
N3155 G1 Z-0.5 F600
N3160 Z-3.9
N3165 X103.055 Y65.659 Z-3.952
N3170 X103.075 Y65.664 Z-4
N3175 X103.105 Y65.672 Z-4.041
N3180 X103.145 Y65.683 Z-4.073
N3185 X103.192 Y65.696 Z-4.093
N3190 X103.242 Y65.709 Z-4.1
N3195 X103.435 Y65.761 F400
N3200 G3 X103.577 Y66.006 I-0.052 J0.193
N3205 G1 X103.507 Y66.266 F600
N3210 X94.814 Y63.937
N3215 X94.943 Y63.454
N3220 X103.636 Y65.783
N3225 X103.577 Y66.006
N3230 G3 X103.332 Y66.147 I-0.193 J-0.052
N3235 G1 X103.138 Y66.095
N3240 X103.088 Y66.082 Z-4.093
N3245 X103.042 Y66.069 Z-4.073
N3250 X103.002 Y66.059 Z-4.041
N3255 X102.971 Y66.051 Z-4
N3260 X102.952 Y66.045 Z-3.952
N3265 X102.945 Y66.044 Z-3.9
N3270 G0 Z5
N3275 X114.452 Y58.401
N3280 G1 Z2.5 F600
N3285 Z-1.3
N3290 G19 G3 Y58.601 Z-1.5 J0.2
N3295 G1 Y58.801 F400
N3300 G17 G3 X114.252 Y59.001 I-0.2
N3305 G1 X87.291 F600
N3310 G3 X85.291 Y57.001 J-2
N3315 G1 Y38.001
N3320 G3 X87.291 Y36.001 I2
N3325 G1 X108.288
N3330 X108.289
N3335 G3 X110.291 Y37.96 I0.002 J2
N3340 G1 Y47.001
N3345 G2 X114.291 Y51.001 I4
N3350 G1 X118.288
N3355 X118.289
N3360 G3 X120.291 Y52.96 I0.002 J2
N3365 G1 Y57.042
N3370 G3 X118.292 Y59.001 I-1.999 J-0.04
N3375 G1 X114.252
N3380 G3 X114.052 Y58.801 J-0.2
N3385 G1 Y58.601
N3390 G19 G2 Y58.401 Z-1.3 K0.2
N3395 G0 Z5
N3400 X114.452
N3405 G1 Z1 F600
N3410 Z-2.8
N3415 G3 Y58.601 Z-3 J0.2
N3420 G1 Y58.801 F400
N3425 G17 G3 X114.252 Y59.001 I-0.2
N3430 G1 X87.291 F600
N3435 G3 X85.291 Y57.001 J-2
N3440 G1 Y38.001
N3445 G3 X87.291 Y36.001 I2
N3450 G1 X108.288
N3455 X108.289
N3460 G3 X110.291 Y37.96 I0.002 J2
N3465 G1 Y47.001
N3470 G2 X114.291 Y51.001 I4
N3475 G1 X118.288
N3480 X118.289
N3485 G3 X120.291 Y52.96 I0.002 J2
N3490 G1 Y57.042
N3495 G3 X118.292 Y59.001 I-1.999 J-0.04
N3500 G1 X114.252
N3505 G3 X114.052 Y58.801 J-0.2
N3510 G1 Y58.601
N3515 G19 G2 Y58.401 Z-2.8 K0.2
N3520 G0 Z5
N3525 X114.452
N3530 G1 Z-0.5 F600
N3535 Z-3.9
N3540 G3 Y58.601 Z-4.1 J0.2
N3545 G1 Y58.801 F400
N3550 G17 G3 X114.252 Y59.001 I-0.2
N3555 G1 X87.291 F600
N3560 G3 X85.291 Y57.001 J-2
N3565 G1 Y38.001
N3570 G3 X87.291 Y36.001 I2
N3575 G1 X108.288
N3580 X108.289
N3585 G3 X110.291 Y37.96 I0.002 J2
N3590 G1 Y47.001
N3595 G2 X114.291 Y51.001 I4
N3600 G1 X118.288
N3605 X118.289
N3610 G3 X120.291 Y52.96 I0.002 J2
N3615 G1 Y57.042
N3620 G3 X118.292 Y59.001 I-1.999 J-0.04
N3625 G1 X114.252
N3630 G3 X114.052 Y58.801 J-0.2
N3635 G1 Y58.601
N3640 G19 G2 Y58.401 Z-3.9 K0.2
N3645 G0 Z5
N3650 X116.441 Y64.801
N3655 G1 Z2.5 F600
N3660 Z-1.3
N3665 G18 G2 X116.641 Z-1.5 I0.2
N3670 G1 X116.841 F400
N3675 G17 G3 X117.041 Y65.001 J0.2
N3680 X115.541 I-0.75 F600
N3685 X117.041 I0.75
N3690 X116.841 Y65.201 I-0.2
N3695 G1 X116.641
N3700 G18 G3 X116.441 Z-1.3 K0.2
N3705 G0 Z5
N3710 Y64.801
N3715 G1 Z1 F600
N3720 Z-2.8
N3725 G2 X116.641 Z-3 I0.2
N3730 G1 X116.841 F400
N3735 G17 G3 X117.041 Y65.001 J0.2
N3740 X115.541 I-0.75 F600
N3745 X117.041 I0.75
N3750 X116.841 Y65.201 I-0.2
N3755 G1 X116.641
N3760 G18 G3 X116.441 Z-2.8 K0.2
N3765 G0 Z5
N3770 Y64.801
N3775 G1 Z-0.5 F600
N3780 Z-3.9
N3785 G2 X116.641 Z-4.1 I0.2
N3790 G1 X116.841 F400
N3795 G17 G3 X117.041 Y65.001 J0.2
N3800 X115.541 I-0.75 F600
N3805 X117.041 I0.75
N3810 X116.841 Y65.201 I-0.2
N3815 G1 X116.641
N3820 G18 G3 X116.441 Z-3.9 K0.2
N3825 G0 Z5
N3830 Y41.801
N3835 G1 Z2.5 F600
N3840 Z-1.3
N3845 G2 X116.641 Z-1.5 I0.2
N3850 G1 X116.841 F400
N3855 G17 G3 X117.041 Y42.001 J0.2
N3860 X115.541 I-0.75 F600
N3865 X117.041 I0.75
N3870 X116.841 Y42.201 I-0.2
N3875 G1 X116.641
N3880 G18 G3 X116.441 Z-1.3 K0.2
N3885 G0 Z5
N3890 Y41.801
N3895 G1 Z1 F600
N3900 Z-2.8
N3905 G2 X116.641 Z-3 I0.2
N3910 G1 X116.841 F400
N3915 G17 G3 X117.041 Y42.001 J0.2
N3920 X115.541 I-0.75 F600
N3925 X117.041 I0.75
N3930 X116.841 Y42.201 I-0.2
N3935 G1 X116.641
N3940 G18 G3 X116.441 Z-2.8 K0.2
N3945 G0 Z5
N3950 Y41.801
N3955 G1 Z-0.5 F600
N3960 Z-3.9
N3965 G2 X116.641 Z-4.1 I0.2
N3970 G1 X116.841 F400
N3975 G17 G3 X117.041 Y42.001 J0.2
N3980 X115.541 I-0.75 F600
N3985 X117.041 I0.75
N3990 X116.841 Y42.201 I-0.2
N3995 G1 X116.641
N4000 G18 G3 X116.441 Z-3.9 K0.2
N4005 G0 Z5
N4010 X99.441 Y25.001
N4015 G1 Z2.5 F600
N4020 Z-1.3
N4025 G2 X99.641 Z-1.5 I0.2
N4030 G1 X99.841 F400
N4035 G17 G3 X100.041 Y25.201 J0.2
N4040 X98.541 I-0.75 F600
N4045 X100.041 I0.75
N4050 X99.841 Y25.401 I-0.2
N4055 G1 X99.641
N4060 G18 G3 X99.441 Z-1.3 K0.2
N4065 G0 Z5
N4070 Y25.001
N4075 G1 Z1 F600
N4080 Z-2.8
N4085 G2 X99.641 Z-3 I0.2
N4090 G1 X99.841 F400
N4095 G17 G3 X100.041 Y25.201 J0.2
N4100 X98.541 I-0.75 F600
N4105 X100.041 I0.75
N4110 X99.841 Y25.401 I-0.2
N4115 G1 X99.641
N4120 G18 G3 X99.441 Z-2.8 K0.2
N4125 G0 Z5
N4130 Y25.001
N4135 G1 Z-0.5 F600
N4140 Z-3.9
N4145 G2 X99.641 Z-4.1 I0.2
N4150 G1 X99.841 F400
N4155 G17 G3 X100.041 Y25.201 J0.2
N4160 X98.541 I-0.75 F600
N4165 X100.041 I0.75
N4170 X99.841 Y25.401 I-0.2
N4175 G1 X99.641
N4180 G18 G3 X99.441 Z-3.9 K0.2
N4185 G0 Z5
N4190 X90.441 Y25.001
N4195 G1 Z2.5 F600
N4200 Z-1.3
N4205 G2 X90.641 Z-1.5 I0.2
N4210 G1 X90.841 F400
N4215 G17 G3 X91.041 Y25.201 J0.2
N4220 X89.541 I-0.75 F600
N4225 X91.041 I0.75
N4230 X90.841 Y25.401 I-0.2
N4235 G1 X90.641
N4240 G18 G3 X90.441 Z-1.3 K0.2
N4245 G0 Z5
N4250 Y25.001
N4255 G1 Z1 F600
N4260 Z-2.8
N4265 G2 X90.641 Z-3 I0.2
N4270 G1 X90.841 F400
N4275 G17 G3 X91.041 Y25.201 J0.2
N4280 X89.541 I-0.75 F600
N4285 X91.041 I0.75
N4290 X90.841 Y25.401 I-0.2
N4295 G1 X90.641
N4300 G18 G3 X90.441 Z-2.8 K0.2
N4305 G0 Z5
N4310 Y25.001
N4315 G1 Z-0.5 F600
N4320 Z-3.9
N4325 G2 X90.641 Z-4.1 I0.2
N4330 G1 X90.841 F400
N4335 G17 G3 X91.041 Y25.201 J0.2
N4340 X89.541 I-0.75 F600
N4345 X91.041 I0.75
N4350 X90.841 Y25.401 I-0.2
N4355 G1 X90.641
N4360 G18 G3 X90.441 Z-3.9 K0.2
N4365 G0 Z5
N4370 X79.441 Y56.251
N4375 G1 Z2.5 F600
N4380 Z-1.3
N4385 G2 X79.641 Z-1.5 I0.2
N4390 G1 X79.841 F400
N4395 G17 G3 X80.041 Y56.451 J0.2
N4400 X78.541 I-0.75 F600
N4405 X80.041 I0.75
N4410 X79.841 Y56.651 I-0.2
N4415 G1 X79.641
N4420 G18 G3 X79.441 Z-1.3 K0.2
N4425 G0 Z5
N4430 Y56.251
N4435 G1 Z1 F600
N4440 Z-2.8
N4445 G2 X79.641 Z-3 I0.2
N4450 G1 X79.841 F400
N4455 G17 G3 X80.041 Y56.451 J0.2
N4460 X78.541 I-0.75 F600
N4465 X80.041 I0.75
N4470 X79.841 Y56.651 I-0.2
N4475 G1 X79.641
N4480 G18 G3 X79.441 Z-2.8 K0.2
N4485 G0 Z5
N4490 Y56.251
N4495 G1 Z-0.5 F600
N4500 Z-3.9
N4505 G2 X79.641 Z-4.1 I0.2
N4510 G1 X79.841 F400
N4515 G17 G3 X80.041 Y56.451 J0.2
N4520 X78.541 I-0.75 F600
N4525 X80.041 I0.75
N4530 X79.841 Y56.651 I-0.2
N4535 G1 X79.641
N4540 G18 G3 X79.441 Z-3.9 K0.2
N4545 G0 Z5
N4550 X39.692 Y97.3
N4555 G1 Z2.5 F600
N4560 Z-1.3
N4565 G2 X39.892 Z-1.5 I0.2
N4570 G1 X40.092 F400
N4575 G17 G3 X40.292 Y97.5 J0.2
N4580 G1 Y106.669 F600
N4585 G2 X40.5 Y107.28 I1
N4590 G3 X23.083 Y120.72 I-8.708 J6.72
N4595 Y107.28 I8.708 J-6.72
N4600 G2 X23.292 Y106.669 I-0.792 J-0.611
N4605 G1 Y97.5
N4610 G3 X40.292 I8.5
N4615 X40.092 Y97.7 I-0.2
N4620 G1 X39.892
N4625 G18 G3 X39.692 Z-1.3 K0.2
N4630 G0 Z5
N4635 Y97.3
N4640 G1 Z1 F600
N4645 Z-2.8
N4650 G2 X39.892 Z-3 I0.2
N4655 G1 X40.092 F400
N4660 G17 G3 X40.292 Y97.5 J0.2
N4665 G1 Y106.669 F600
N4670 G2 X40.5 Y107.28 I1
N4675 G3 X23.083 Y120.72 I-8.708 J6.72
N4680 Y107.28 I8.708 J-6.72
N4685 G2 X23.292 Y106.669 I-0.792 J-0.611
N4690 G1 Y97.5
N4695 G3 X40.292 I8.5
N4700 X40.092 Y97.7 I-0.2
N4705 G1 X39.892
N4710 G18 G3 X39.692 Z-2.8 K0.2
N4715 G0 Z5
N4720 Y97.3
N4725 G1 Z-0.5 F600
N4730 Z-3.9
N4735 G2 X39.892 Z-4.1 I0.2
N4740 G1 X40.092 F400
N4745 G17 G3 X40.292 Y97.5 J0.2
N4750 G1 Y106.669 F600
N4755 G2 X40.5 Y107.28 I1
N4760 G3 X23.083 Y120.72 I-8.708 J6.72
N4765 Y107.28 I8.708 J-6.72
N4770 G2 X23.292 Y106.669 I-0.792 J-0.611
N4775 G1 Y97.5
N4780 G3 X40.292 I8.5
N4785 X40.092 Y97.7 I-0.2
N4790 G1 X39.892
N4795 G18 G3 X39.692 Z-3.9 K0.2
N4800 G0 Z5
N4805 X78.638 Y143.809
N4810 G1 Z2.5 F600
N4815 Z-1.3
N4820 G2 X78.838 Z-1.5 I0.2
N4825 G1 X79.038 F400
N4830 G17 G3 X79.238 Y144.009 J0.2
N4835 X77.738 I-0.75 F600
N4840 X79.238 I0.75
N4845 X79.038 Y144.209 I-0.2
N4850 G1 X78.838
N4855 G18 G3 X78.638 Z-1.3 K0.2
N4860 G0 Z5
N4865 Y143.809
N4870 G1 Z1 F600
N4875 Z-2.8
N4880 G2 X78.838 Z-3 I0.2
N4885 G1 X79.038 F400
N4890 G17 G3 X79.238 Y144.009 J0.2
N4895 X77.738 I-0.75 F600
N4900 X79.238 I0.75
N4905 X79.038 Y144.209 I-0.2
N4910 G1 X78.838
N4915 G18 G3 X78.638 Z-2.8 K0.2
N4920 G0 Z5
N4925 Y143.809
N4930 G1 Z-0.5 F600
N4935 Z-3.9
N4940 G2 X78.838 Z-4.1 I0.2
N4945 G1 X79.038 F400
N4950 G17 G3 X79.238 Y144.009 J0.2
N4955 X77.738 I-0.75 F600
N4960 X79.238 I0.75
N4965 X79.038 Y144.209 I-0.2
N4970 G1 X78.838
N4975 G18 G3 X78.638 Z-3.9 K0.2
N4980 G0 Z5
N4985 X66.441 Y174.8
N4990 G1 Z2.5 F600
N4995 Z-1.3
N5000 G2 X66.641 Z-1.5 I0.2
N5005 G1 X66.841 F400
N5010 G17 G3 X67.041 Y175 J0.2
N5015 X65.541 I-0.75 F600
N5020 X67.041 I0.75
N5025 X66.841 Y175.2 I-0.2
N5030 G1 X66.641
N5035 G18 G3 X66.441 Z-1.3 K0.2
N5040 G0 Z5
N5045 Y174.8
N5050 G1 Z1 F600
N5055 Z-2.8
N5060 G2 X66.641 Z-3 I0.2
N5065 G1 X66.841 F400
N5070 G17 G3 X67.041 Y175 J0.2
N5075 X65.541 I-0.75 F600
N5080 X67.041 I0.75
N5085 X66.841 Y175.2 I-0.2
N5090 G1 X66.641
N5095 G18 G3 X66.441 Z-2.8 K0.2
N5100 G0 Z5
N5105 Y174.8
N5110 G1 Z-0.5 F600
N5115 Z-3.9
N5120 G2 X66.641 Z-4.1 I0.2
N5125 G1 X66.841 F400
N5130 G17 G3 X67.041 Y175 J0.2
N5135 X65.541 I-0.75 F600
N5140 X67.041 I0.75
N5145 X66.841 Y175.2 I-0.2
N5150 G1 X66.641
N5155 G18 G3 X66.441 Z-3.9 K0.2
N5160 G0 Z15
N5165 G17

(2D ??34)
N5170 G0 X59.55 Y83.877
N5175 Z15
N5180 Z5
N5185 G1 Z2.5 F600
N5190 Z-1.3
N5195 X59.544 Y83.875 Z-1.352
N5200 X59.525 Y83.87 Z-1.4
N5205 X59.494 Y83.862 Z-1.441
N5210 X59.454 Y83.851 Z-1.473
N5215 X59.407 Y83.839 Z-1.493
N5220 X59.357 Y83.825 Z-1.5
N5225 X59.164 Y83.773 F400
N5230 G3 X59.023 Y83.529 I0.052 J-0.193
N5235 G1 X65.758 Y58.393 F600
N5240 G2 X65.792 Y58.134 I-0.966 J-0.259
N5245 G1 Y0.001
N5250 G2 X64.792 Y-1 I-1 J-0.001
N5255 G1 X10.792
N5260 G2 X9.792 Y0 J1
N5265 G1 Y85.666
N5270 X-0.199 Y122.953
N5275 G2 X16.418 Y151.735 I22.699 J6.083
N5280 X45.199 Y135.118 I6.082 J-22.699
N5285 G1 X59.023 Y83.529
N5290 G3 X59.268 Y83.387 I0.193 J0.052
N5295 G1 X59.461 Y83.439
N5300 X59.511 Y83.452 Z-1.493
N5305 X59.557 Y83.465 Z-1.473
N5310 X59.597 Y83.475 Z-1.441
N5315 X59.628 Y83.484 Z-1.4
N5320 X59.647 Y83.489 Z-1.352
N5325 X59.654 Y83.491 Z-1.3
N5330 G0 Z5
N5335 X59.55 Y83.877
N5340 G1 Z1 F600
N5345 Z-2.8
N5350 X59.544 Y83.875 Z-2.852
N5355 X59.525 Y83.87 Z-2.9
N5360 X59.494 Y83.862 Z-2.941
N5365 X59.454 Y83.851 Z-2.973
N5370 X59.407 Y83.839 Z-2.993
N5375 X59.357 Y83.825 Z-3
N5380 X59.164 Y83.773 F400
N5385 G3 X59.023 Y83.529 I0.052 J-0.193
N5390 G1 X65.758 Y58.393 F600
N5395 G2 X65.792 Y58.134 I-0.966 J-0.259
N5400 G1 Y0.001
N5405 G2 X64.792 Y-1 I-1 J-0.001
N5410 G1 X10.792
N5415 G2 X9.792 Y0 J1
N5420 G1 Y85.666
N5425 X-0.199 Y122.953
N5430 G2 X16.418 Y151.735 I22.699 J6.083
N5435 X45.199 Y135.118 I6.082 J-22.699
N5440 G1 X59.023 Y83.529
N5445 G3 X59.268 Y83.387 I0.193 J0.052
N5450 G1 X59.461 Y83.439
N5455 X59.511 Y83.452 Z-2.993
N5460 X59.557 Y83.465 Z-2.973
N5465 X59.597 Y83.475 Z-2.941
N5470 X59.628 Y83.484 Z-2.9
N5475 X59.647 Y83.489 Z-2.852
N5480 X59.654 Y83.491 Z-2.8
N5485 G0 Z5
N5490 X59.55 Y83.877
N5495 G1 Z-0.5 F600
N5500 Z-3.9
N5505 X59.544 Y83.875 Z-3.952
N5510 X59.525 Y83.87 Z-4
N5515 X59.494 Y83.862 Z-4.041
N5520 X59.454 Y83.851 Z-4.073
N5525 X59.407 Y83.839 Z-4.093
N5530 X59.357 Y83.825 Z-4.1
N5535 X59.164 Y83.773 F400
N5540 G3 X59.023 Y83.529 I0.052 J-0.193
N5545 G1 X65.758 Y58.393 F600
N5550 G2 X65.792 Y58.134 I-0.966 J-0.259
N5555 G1 Y0.001
N5560 G2 X64.792 Y-1 I-1 J-0.001
N5565 G1 X10.792
N5570 G2 X9.792 Y0 J1
N5575 G1 Y85.666
N5580 X-0.199 Y122.953
N5585 G2 X16.418 Y151.735 I22.699 J6.083
N5590 X45.199 Y135.118 I6.082 J-22.699
N5595 G1 X59.023 Y83.529
N5600 G3 X59.268 Y83.387 I0.193 J0.052
N5605 G1 X59.461 Y83.439
N5610 X59.511 Y83.452 Z-4.093
N5615 X59.557 Y83.465 Z-4.073
N5620 X59.597 Y83.475 Z-4.041
N5625 X59.628 Y83.484 Z-4
N5630 X59.647 Y83.489 Z-3.952
N5635 X59.654 Y83.491 Z-3.9
N5640 G0 Z5
N5645 X60.839 Y139.605
N5650 G1 Z2.5 F600
N5655 Z-1.3
N5660 X60.845 Y139.602 Z-1.352
N5665 X60.863 Y139.593 Z-1.4
N5670 X60.892 Y139.579 Z-1.441
N5675 X60.929 Y139.56 Z-1.473
N5680 X60.972 Y139.539 Z-1.493
N5685 X61.018 Y139.516 Z-1.5
N5690 X61.197 Y139.426 F400
N5695 G3 X61.465 Y139.516 I0.089 J0.179
N5700 G2 X105.199 Y135.119 I21.034 J-10.479 F600
N5705 G1 X125.757 Y58.394
N5710 G2 X125.791 Y58.135 I-0.966 J-0.259
N5715 G1 Y0.001
N5720 G2 X124.791 Y-0.999 I-1
N5725 G1 X106.291
N5730 G2 X105.291 Y0.001 J1
N5735 G1 Y20.001
N5740 X86.291
N5745 Y0.001
N5750 G2 X85.291 Y-0.999 I-1
N5755 G1 X70.791
N5760 G2 X69.791 Y0.001 J1
N5765 G1 Y85.667
N5770 X59.8 Y122.954
N5775 G2 X61.465 Y139.516 I22.699 J6.083
N5780 G3 X61.375 Y139.784 I-0.179 J0.089
N5785 G1 X61.196 Y139.874
N5790 X61.15 Y139.897 Z-1.493
N5795 X61.107 Y139.918 Z-1.473
N5800 X61.07 Y139.937 Z-1.441
N5805 X61.041 Y139.951 Z-1.4
N5810 X61.024 Y139.96 Z-1.352
N5815 X61.017 Y139.963 Z-1.3
N5820 G0 Z5
N5825 X60.839 Y139.605
N5830 G1 Z1 F600
N5835 Z-2.8
N5840 X60.845 Y139.602 Z-2.852
N5845 X60.863 Y139.593 Z-2.9
N5850 X60.892 Y139.579 Z-2.941
N5855 X60.929 Y139.56 Z-2.973
N5860 X60.972 Y139.539 Z-2.993
N5865 X61.018 Y139.516 Z-3
N5870 X61.197 Y139.426 F400
N5875 G3 X61.465 Y139.516 I0.089 J0.179
N5880 G2 X105.199 Y135.119 I21.034 J-10.479 F600
N5885 G1 X125.757 Y58.394
N5890 G2 X125.791 Y58.135 I-0.966 J-0.259
N5895 G1 Y0.001
N5900 G2 X124.791 Y-0.999 I-1
N5905 G1 X106.291
N5910 G2 X105.291 Y0.001 J1
N5915 G1 Y20.001
N5920 X86.291
N5925 Y0.001
N5930 G2 X85.291 Y-0.999 I-1
N5935 G1 X70.791
N5940 G2 X69.791 Y0.001 J1
N5945 G1 Y85.667
N5950 X59.8 Y122.954
N5955 G2 X61.465 Y139.516 I22.699 J6.083
N5960 G3 X61.375 Y139.784 I-0.179 J0.089
N5965 G1 X61.196 Y139.874
N5970 X61.15 Y139.897 Z-2.993
N5975 X61.107 Y139.918 Z-2.973
N5980 X61.07 Y139.937 Z-2.941
N5985 X61.041 Y139.951 Z-2.9
N5990 X61.024 Y139.96 Z-2.852
N5995 X61.017 Y139.963 Z-2.8
N6000 G0 Z5
N6005 X60.839 Y139.605
N6010 G1 Z-0.5 F600
N6015 Z-3.9
N6020 X60.845 Y139.602 Z-3.952
N6025 X60.863 Y139.593 Z-4
N6030 X60.892 Y139.579 Z-4.041
N6035 X60.929 Y139.56 Z-4.073
N6040 X60.972 Y139.539 Z-4.093
N6045 X61.018 Y139.516 Z-4.1
N6050 X61.197 Y139.426 F400
N6055 G3 X61.465 Y139.516 I0.089 J0.179
N6060 G2 X105.199 Y135.119 I21.034 J-10.479 F600
N6065 G1 X125.757 Y58.394
N6070 G2 X125.791 Y58.135 I-0.966 J-0.259
N6075 G1 Y0.001
N6080 G2 X124.791 Y-0.999 I-1
N6085 G1 X106.291
N6090 G2 X105.291 Y0.001 J1
N6095 G1 Y20.001
N6100 X86.291
N6105 Y0.001
N6110 G2 X85.291 Y-0.999 I-1
N6115 G1 X70.791
N6120 G2 X69.791 Y0.001 J1
N6125 G1 Y85.667
N6130 X59.8 Y122.954
N6135 G2 X61.465 Y139.516 I22.699 J6.083
N6140 G3 X61.375 Y139.784 I-0.179 J0.089
N6145 G1 X61.196 Y139.874
N6150 X61.15 Y139.897 Z-4.093
N6155 X61.107 Y139.918 Z-4.073
N6160 X61.07 Y139.937 Z-4.041
N6165 X61.041 Y139.951 Z-4
N6170 X61.024 Y139.96 Z-3.952
N6175 X61.017 Y139.963 Z-3.9
N6180 G0 Z5
N6185 X52.699 Y153.4
N6190 G1 Z2.5 F600
N6195 Z-1.3
N6200 G19 G3 Y153.6 Z-1.5 J0.2
N6205 G1 Y153.8 F400
N6210 G17 G3 X52.499 Y154 I-0.2
N6215 G1 X37.291 F600
N6220 G2 X33.291 Y158 J4
N6225 G1 Y177
N6230 G2 X37.291 Y181 I4
N6235 G1 X68.292
N6240 G2 X72.291 Y177.065 J-4
N6245 G1 Y177.049
N6250 Y172.951
N6255 Y172.935
N6260 G2 X68.288 Y169 I-3.999 J0.065
N6265 G1 X64.291
N6270 G3 X62.291 Y167 J-2
N6275 G1 Y157.951
N6280 Y157.935
N6285 G2 X58.288 Y154 I-3.999 J0.065
N6290 G1 X52.499
N6295 G3 X52.299 Y153.8 J-0.2
N6300 G1 Y153.6
N6305 G19 G2 Y153.4 Z-1.3 K0.2
N6310 G0 Z5
N6315 X52.699
N6320 G1 Z1 F600
N6325 Z-2.8
N6330 G3 Y153.6 Z-3 J0.2
N6335 G1 Y153.8 F400
N6340 G17 G3 X52.499 Y154 I-0.2
N6345 G1 X37.291 F600
N6350 G2 X33.291 Y158 J4
N6355 G1 Y177
N6360 G2 X37.291 Y181 I4
N6365 G1 X68.292
N6370 G2 X72.291 Y177.065 J-4
N6375 G1 Y177.049
N6380 Y172.951
N6385 Y172.935
N6390 G2 X68.288 Y169 I-3.999 J0.065
N6395 G1 X64.291
N6400 G3 X62.291 Y167 J-2
N6405 G1 Y157.951
N6410 Y157.935
N6415 G2 X58.288 Y154 I-3.999 J0.065
N6420 G1 X52.499
N6425 G3 X52.299 Y153.8 J-0.2
N6430 G1 Y153.6
N6435 G19 G2 Y153.4 Z-2.8 K0.2
N6440 G0 Z5
N6445 X52.699
N6450 G1 Z-0.5 F600
N6455 Z-3.9
N6460 G3 Y153.6 Z-4.1 J0.2
N6465 G1 Y153.8 F400
N6470 G17 G3 X52.499 Y154 I-0.2
N6475 G1 X37.291 F600
N6480 G2 X33.291 Y158 J4
N6485 G1 Y177
N6490 G2 X37.291 Y181 I4
N6495 G1 X68.292
N6500 G2 X72.291 Y177.065 J-4
N6505 G1 Y177.049
N6510 Y172.951
N6515 Y172.935
N6520 G2 X68.288 Y169 I-3.999 J0.065
N6525 G1 X64.291
N6530 G3 X62.291 Y167 J-2
N6535 G1 Y157.951
N6540 Y157.935
N6545 G2 X58.288 Y154 I-3.999 J0.065
N6550 G1 X52.499
N6555 G3 X52.299 Y153.8 J-0.2
N6560 G1 Y153.6
N6565 G19 G2 Y153.4 Z-3.9 K0.2
N6570 G0 Z15
N6575 G17
N6580 M9
N6585 G28
N6590 M30
%
