%
(1001)
(T2 D=4 CR=0 - ZMIN=-9.1 - flat end mill)
N10 G90 G94
N15 G17
N20 G21
N25 M9
N30 G28

(2D ??37)
N35 T2 M6
N40 S10000 M3
N45 G54
N50 M8
N55 G0 X64.692 Y98.356
N60 G43 Z15
N65 Z5
N70 G1 Z2.5 F300
N75 Z-1.1
N80 G19 G3 Y98.756 Z-1.5 J0.4
N85 G1 Y99.156
N90 G17 G3 X64.292 Y99.556 I-0.4
N95 G1 X51.792
N100 G2 X49.792 Y101.556 J2
N105 G1 Y111.556
N110 G2 X51.792 Y113.556 I2
N115 G1 X54.865
N120 X38.438 Y174.862
N125 G3 X25.394 Y186.836 I-15.937 J-4.271
N130 G1 X26.285 Y183.512
N135 G2 X24.871 Y181.062 I-1.932 J-0.518
N140 G1 X15.212 Y178.474
N145 G2 X12.762 Y179.888 I-0.518 J1.932
N150 G1 X11.871 Y183.212
N155 G3 X6.562 Y166.321 I10.628 J-12.621
N160 G1 X14.538 Y136.556
N165 X21.292
N170 G2 X23.292 Y134.556 J-2
N175 G1 Y125.488
N180 G2 X21.292 Y123.488 I-2
N185 G1 X16.292
N190 Y105.488
N195 G2 X14.292 Y103.488 I-2
N200 G1 X10.792
N205 G2 X8.792 Y105.488 J2
N210 G1 Y127.091
N215 X-1.165 Y164.25
N220 G2 X16.159 Y194.257 I23.665 J6.342
N225 X46.165 Y176.933 I6.341 J-23.665
N230 G1 X66.224 Y102.074
N235 G2 X64.292 Y99.556 I-1.932 J-0.518
N240 G3 X63.892 Y99.156 J-0.4 F600
N245 G1 Y98.756
N250 G19 G2 Y98.356 Z-1.1 K0.4
N255 G0 Z5
N260 X66.718 Y93.66
N265 G1 Z2.5 F300
N270 Z-1.1
N275 X66.712 Y93.656 Z-1.178
N280 X66.693 Y93.643 Z-1.253
N285 X66.662 Y93.622 Z-1.322
N290 X66.621 Y93.594 Z-1.383
N295 X66.571 Y93.56 Z-1.433
N300 X66.514 Y93.522 Z-1.47
N305 X66.452 Y93.48 Z-1.492
N310 X66.387 Y93.436 Z-1.5
N315 X66.056 Y93.212
N320 G17 G3 X65.948 Y92.656 I0.224 J-0.331
N325 G2 X66.224 Y91.018 I-1.657 J-1.121
N330 G1 X46.165 Y16.159
N335 G2 X-1.165 Y28.841 I-23.665 J6.341
N340 G1 X8.792 Y66.001
N345 Y87.604
N350 G2 X10.792 Y89.604 I2
N355 G1 X14.292
N360 G2 X16.292 Y87.604 J-2
N365 G1 Y69.604
N370 X21.292
N375 G2 X23.292 Y67.604 J-2
N380 G1 Y58.536
N385 G2 X21.292 Y56.536 I-2
N390 G1 X14.538
N395 X6.562 Y26.771
N400 G3 X11.871 Y9.879 I15.938 J-4.271
N405 G1 X12.762 Y13.204
N410 G2 X15.212 Y14.618 I1.932 J-0.518
N415 G1 X24.871 Y12.03
N420 G2 X26.285 Y9.58 I-0.518 J-1.932
N425 G1 X25.394 Y6.256
N430 G3 X38.438 Y18.229 I-2.894 J16.244
N435 G1 X47.366 Y51.549
N440 X54.865 Y79.536
N445 X51.792
N450 G2 X49.792 Y81.536 J2
N455 G1 Y91.536
N460 G2 X51.792 Y93.536 I2
N465 G1 X64.292
N470 G2 X65.948 Y92.656 J-2
N475 G3 X66.504 Y92.549 I0.331 J0.224 F600
N480 G1 X66.835 Y92.773
N485 X66.9 Y92.817 Z-1.492
N490 X66.962 Y92.859 Z-1.47
N495 X67.019 Y92.898 Z-1.433
N500 X67.069 Y92.932 Z-1.383
N505 X67.111 Y92.96 Z-1.322
N510 X67.141 Y92.98 Z-1.253
N515 X67.16 Y92.993 Z-1.178
N520 X67.166 Y92.997 Z-1.1
N525 G0 Z5
N530 X71.299 Y90.804
N535 G1 Z2.5 F300
N540 Z-1.1
N545 G19 G2 Y90.404 Z-1.5 J-0.4
N550 G1 Y90.004
N555 G17 G3 X71.699 Y89.604 I0.4
N560 G1 X74.292
N565 G2 X76.292 Y87.604 J-2
N570 G1 Y69.604
N575 X81.292
N580 G2 X83.292 Y67.604 J-2
N585 G1 Y58.536
N590 G2 X81.292 Y56.536 I-2
N595 G1 X74.538
N600 X66.562 Y26.771
N605 G3 X71.871 Y9.879 I15.938 J-4.271
N610 G1 X72.762 Y13.204
N615 G2 X75.212 Y14.618 I1.932 J-0.518
N620 G1 X84.871 Y12.03
N625 G2 X86.285 Y9.58 I-0.518 J-1.932
N630 G1 X85.394 Y6.256
N635 G3 X98.438 Y18.229 I-2.894 J16.244
N640 G1 X114.865 Y79.536
N645 X111.792
N650 G2 X109.792 Y81.536 J2
N655 G1 Y91.536
N660 G2 X111.792 Y93.536 I2
N665 G1 X124.292
N670 G2 X126.224 Y91.018 J-2
N675 G1 X106.165 Y16.159
N680 G2 X58.835 Y28.841 I-23.665 J6.341
N685 G1 X68.792 Y66.001
N690 Y87.604
N695 G2 X70.792 Y89.604 I2
N700 G1 X71.699
N705 G3 X72.099 Y90.004 J0.4 F600
N710 G1 Y90.404
N715 G19 G3 Y90.804 Z-1.1 K0.4
N720 G0 Z5
N725 X71.299
N730 G1 Z1 F300
N735 Z-2.6
N740 G2 Y90.404 Z-3 J-0.4
N745 G1 Y90.004
N750 G17 G3 X71.699 Y89.604 I0.4
N755 G1 X74.292
N760 G2 X76.292 Y87.604 J-2
N765 G1 Y69.604
N770 X81.292
N775 G2 X83.292 Y67.604 J-2
N780 G1 Y58.536
N785 G2 X81.292 Y56.536 I-2
N790 G1 X74.538
N795 X66.562 Y26.771
N800 G3 X71.871 Y9.879 I15.938 J-4.271
N805 G1 X72.762 Y13.204
N810 G2 X75.212 Y14.618 I1.932 J-0.518
N815 G1 X84.871 Y12.03
N820 G2 X86.285 Y9.58 I-0.518 J-1.932
N825 G1 X85.394 Y6.256
N830 G3 X98.438 Y18.229 I-2.894 J16.244
N835 G1 X114.865 Y79.536
N840 X111.792
N845 G2 X109.792 Y81.536 J2
N850 G1 Y91.536
N855 G2 X111.792 Y93.536 I2
N860 G1 X124.292
N865 G2 X126.224 Y91.018 J-2
N870 G1 X106.165 Y16.159
N875 G2 X58.835 Y28.841 I-23.665 J6.341
N880 G1 X68.792 Y66.001
N885 Y87.604
N890 G2 X70.792 Y89.604 I2
N895 G1 X71.699
N900 G3 X72.099 Y90.004 J0.4 F600
N905 G1 Y90.404
N910 G19 G3 Y90.804 Z-2.6 K0.4
N915 G0 Z5
N920 X66.718 Y93.66
N925 G1 Z1 F300
N930 Z-2.6
N935 X66.712 Y93.656 Z-2.678
N940 X66.693 Y93.643 Z-2.753
N945 X66.662 Y93.622 Z-2.822
N950 X66.621 Y93.594 Z-2.883
N955 X66.571 Y93.56 Z-2.933
N960 X66.514 Y93.522 Z-2.97
N965 X66.452 Y93.48 Z-2.992
N970 X66.387 Y93.436 Z-3
N975 X66.056 Y93.212
N980 G17 G3 X65.948 Y92.656 I0.224 J-0.331
N985 G2 X66.224 Y91.018 I-1.657 J-1.121
N990 G1 X46.165 Y16.159
N995 G2 X-1.165 Y28.841 I-23.665 J6.341
N1000 G1 X8.792 Y66.001
N1005 Y87.604
N1010 G2 X10.792 Y89.604 I2
N1015 G1 X14.292
N1020 G2 X16.292 Y87.604 J-2
N1025 G1 Y69.604
N1030 X21.292
N1035 G2 X23.292 Y67.604 J-2
N1040 G1 Y58.536
N1045 G2 X21.292 Y56.536 I-2
N1050 G1 X14.538
N1055 X6.562 Y26.771
N1060 G3 X11.871 Y9.879 I15.938 J-4.271
N1065 G1 X12.762 Y13.204
N1070 G2 X15.212 Y14.618 I1.932 J-0.518
N1075 G1 X24.871 Y12.03
N1080 G2 X26.285 Y9.58 I-0.518 J-1.932
N1085 G1 X25.394 Y6.256
N1090 G3 X38.438 Y18.229 I-2.894 J16.244
N1095 G1 X47.366 Y51.549
N1100 X54.865 Y79.536
N1105 X51.792
N1110 G2 X49.792 Y81.536 J2
N1115 G1 Y91.536
N1120 G2 X51.792 Y93.536 I2
N1125 G1 X64.292
N1130 G2 X65.948 Y92.656 J-2
N1135 G3 X66.504 Y92.549 I0.331 J0.224 F600
N1140 G1 X66.835 Y92.773
N1145 X66.9 Y92.817 Z-2.992
N1150 X66.962 Y92.859 Z-2.97
N1155 X67.019 Y92.898 Z-2.933
N1160 X67.069 Y92.932 Z-2.883
N1165 X67.111 Y92.96 Z-2.822
N1170 X67.141 Y92.98 Z-2.753
N1175 X67.16 Y92.993 Z-2.678
N1180 X67.166 Y92.997 Z-2.6
N1185 G0 Z5
N1190 X66.718 Y93.66
N1195 G1 Z-0.5 F300
N1200 Z-4.1
N1205 X66.712 Y93.656 Z-4.178
N1210 X66.693 Y93.643 Z-4.253
N1215 X66.662 Y93.622 Z-4.322
N1220 X66.621 Y93.594 Z-4.383
N1225 X66.571 Y93.56 Z-4.433
N1230 X66.514 Y93.522 Z-4.47
N1235 X66.452 Y93.48 Z-4.492
N1240 X66.387 Y93.436 Z-4.5
N1245 X66.056 Y93.212
N1250 G3 X65.948 Y92.656 I0.224 J-0.331
N1255 G2 X66.224 Y91.018 I-1.657 J-1.121
N1260 G1 X46.165 Y16.159
N1265 G2 X-1.165 Y28.841 I-23.665 J6.341
N1270 G1 X8.792 Y66.001
N1275 Y87.604
N1280 G2 X10.792 Y89.604 I2
N1285 G1 X14.292
N1290 G2 X16.292 Y87.604 J-2
N1295 G1 Y69.604
N1300 X21.292
N1305 G2 X23.292 Y67.604 J-2
N1310 G1 Y58.536
N1315 G2 X21.292 Y56.536 I-2
N1320 G1 X14.538
N1325 X6.562 Y26.771
N1330 G3 X11.871 Y9.879 I15.938 J-4.271
N1335 G1 X12.762 Y13.204
N1340 G2 X15.212 Y14.618 I1.932 J-0.518
N1345 G1 X24.871 Y12.03
N1350 G2 X26.285 Y9.58 I-0.518 J-1.932
N1355 G1 X25.394 Y6.256
N1360 G3 X38.438 Y18.229 I-2.894 J16.244
N1365 G1 X47.366 Y51.549
N1370 X54.865 Y79.536
N1375 X51.792
N1380 G2 X49.792 Y81.536 J2
N1385 G1 Y91.536
N1390 G2 X51.792 Y93.536 I2
N1395 G1 X64.292
N1400 G2 X65.948 Y92.656 J-2
N1405 G3 X66.504 Y92.549 I0.331 J0.224 F600
N1410 G1 X66.835 Y92.773
N1415 X66.9 Y92.817 Z-4.492
N1420 X66.962 Y92.859 Z-4.47
N1425 X67.019 Y92.898 Z-4.433
N1430 X67.069 Y92.932 Z-4.383
N1435 X67.111 Y92.96 Z-4.322
N1440 X67.141 Y92.98 Z-4.253
N1445 X67.16 Y92.993 Z-4.178
N1450 X67.166 Y92.997 Z-4.1
N1455 G0 Z5
N1460 X71.299 Y90.804
N1465 G1 Z-0.5 F300
N1470 Z-4.1
N1475 G19 G2 Y90.404 Z-4.5 J-0.4
N1480 G1 Y90.004
N1485 G17 G3 X71.699 Y89.604 I0.4
N1490 G1 X74.292
N1495 G2 X76.292 Y87.604 J-2
N1500 G1 Y69.604
N1505 X81.292
N1510 G2 X83.292 Y67.604 J-2
N1515 G1 Y58.536
N1520 G2 X81.292 Y56.536 I-2
N1525 G1 X74.538
N1530 X66.562 Y26.771
N1535 G3 X71.871 Y9.879 I15.938 J-4.271
N1540 G1 X72.762 Y13.204
N1545 G2 X75.212 Y14.618 I1.932 J-0.518
N1550 G1 X84.871 Y12.03
N1555 G2 X86.285 Y9.58 I-0.518 J-1.932
N1560 G1 X85.394 Y6.256
N1565 G3 X98.438 Y18.229 I-2.894 J16.244
N1570 G1 X114.865 Y79.536
N1575 X111.792
N1580 G2 X109.792 Y81.536 J2
N1585 G1 Y91.536
N1590 G2 X111.792 Y93.536 I2
N1595 G1 X124.292
N1600 G2 X126.224 Y91.018 J-2
N1605 G1 X106.165 Y16.159
N1610 G2 X58.835 Y28.841 I-23.665 J6.341
N1615 G1 X68.792 Y66.001
N1620 Y87.604
N1625 G2 X70.792 Y89.604 I2
N1630 G1 X71.699
N1635 G3 X72.099 Y90.004 J0.4 F600
N1640 G1 Y90.404
N1645 G19 G3 Y90.804 Z-4.1 K0.4
N1650 G0 Z5
N1655 X71.299
N1660 G1 Z-2 F300
N1665 Z-5.6
N1670 G2 Y90.404 Z-6 J-0.4
N1675 G1 Y90.004
N1680 G17 G3 X71.699 Y89.604 I0.4
N1685 G1 X74.292
N1690 G2 X76.292 Y87.604 J-2
N1695 G1 Y69.604
N1700 X81.292
N1705 G2 X83.292 Y67.604 J-2
N1710 G1 Y58.536
N1715 G2 X81.292 Y56.536 I-2
N1720 G1 X74.538
N1725 X66.562 Y26.771
N1730 G3 X71.871 Y9.879 I15.938 J-4.271
N1735 G1 X72.762 Y13.204
N1740 G2 X75.212 Y14.618 I1.932 J-0.518
N1745 G1 X84.871 Y12.03
N1750 G2 X86.285 Y9.58 I-0.518 J-1.932
N1755 G1 X85.394 Y6.256
N1760 G3 X98.438 Y18.229 I-2.894 J16.244
N1765 G1 X114.865 Y79.536
N1770 X111.792
N1775 G2 X109.792 Y81.536 J2
N1780 G1 Y91.536
N1785 G2 X111.792 Y93.536 I2
N1790 G1 X124.292
N1795 G2 X126.224 Y91.018 J-2
N1800 G1 X106.165 Y16.159
N1805 G2 X58.835 Y28.841 I-23.665 J6.341
N1810 G1 X68.792 Y66.001
N1815 Y87.604
N1820 G2 X70.792 Y89.604 I2
N1825 G1 X71.699
N1830 G3 X72.099 Y90.004 J0.4 F600
N1835 G1 Y90.404
N1840 G19 G3 Y90.804 Z-5.6 K0.4
N1845 G0 Z5
N1850 X66.718 Y93.66
N1855 G1 Z-2 F300
N1860 Z-5.6
N1865 X66.712 Y93.656 Z-5.678
N1870 X66.693 Y93.643 Z-5.753
N1875 X66.662 Y93.622 Z-5.822
N1880 X66.621 Y93.594 Z-5.883
N1885 X66.571 Y93.56 Z-5.933
N1890 X66.514 Y93.522 Z-5.97
N1895 X66.452 Y93.48 Z-5.992
N1900 X66.387 Y93.436 Z-6
N1905 X66.056 Y93.212
N1910 G17 G3 X65.948 Y92.656 I0.224 J-0.331
N1915 G2 X66.224 Y91.018 I-1.657 J-1.121
N1920 G1 X46.165 Y16.159
N1925 G2 X-1.165 Y28.841 I-23.665 J6.341
N1930 G1 X8.792 Y66.001
N1935 Y87.604
N1940 G2 X10.792 Y89.604 I2
N1945 G1 X14.292
N1950 G2 X16.292 Y87.604 J-2
N1955 G1 Y69.604
N1960 X21.292
N1965 G2 X23.292 Y67.604 J-2
N1970 G1 Y58.536
N1975 G2 X21.292 Y56.536 I-2
N1980 G1 X14.538
N1985 X6.562 Y26.771
N1990 G3 X11.871 Y9.879 I15.938 J-4.271
N1995 G1 X12.762 Y13.204
N2000 G2 X15.212 Y14.618 I1.932 J-0.518
N2005 G1 X24.871 Y12.03
N2010 G2 X26.285 Y9.58 I-0.518 J-1.932
N2015 G1 X25.394 Y6.256
N2020 G3 X38.438 Y18.229 I-2.894 J16.244
N2025 G1 X47.366 Y51.549
N2030 X54.865 Y79.536
N2035 X51.792
N2040 G2 X49.792 Y81.536 J2
N2045 G1 Y91.536
N2050 G2 X51.792 Y93.536 I2
N2055 G1 X64.292
N2060 G2 X65.948 Y92.656 J-2
N2065 G3 X66.504 Y92.549 I0.331 J0.224 F600
N2070 G1 X66.835 Y92.773
N2075 X66.9 Y92.817 Z-5.992
N2080 X66.962 Y92.859 Z-5.97
N2085 X67.019 Y92.898 Z-5.933
N2090 X67.069 Y92.932 Z-5.883
N2095 X67.111 Y92.96 Z-5.822
N2100 X67.141 Y92.98 Z-5.753
N2105 X67.16 Y92.993 Z-5.678
N2110 X67.166 Y92.997 Z-5.6
N2115 G0 Z5
N2120 X66.718 Y93.66
N2125 G1 Z-3.5 F300
N2130 Z-7.1
N2135 X66.712 Y93.656 Z-7.178
N2140 X66.693 Y93.643 Z-7.253
N2145 X66.662 Y93.622 Z-7.322
N2150 X66.621 Y93.594 Z-7.383
N2155 X66.571 Y93.56 Z-7.433
N2160 X66.514 Y93.522 Z-7.47
N2165 X66.452 Y93.48 Z-7.492
N2170 X66.387 Y93.436 Z-7.5
N2175 X66.056 Y93.212
N2180 G3 X65.948 Y92.656 I0.224 J-0.331
N2185 G2 X66.224 Y91.018 I-1.657 J-1.121
N2190 G1 X46.165 Y16.159
N2195 G2 X-1.165 Y28.841 I-23.665 J6.341
N2200 G1 X8.792 Y66.001
N2205 Y87.604
N2210 G2 X10.792 Y89.604 I2
N2215 G1 X14.292
N2220 G2 X16.292 Y87.604 J-2
N2225 G1 Y69.604
N2230 X21.292
N2235 G2 X23.292 Y67.604 J-2
N2240 G1 Y58.536
N2245 G2 X21.292 Y56.536 I-2
N2250 G1 X14.538
N2255 X6.562 Y26.771
N2260 G3 X11.871 Y9.879 I15.938 J-4.271
N2265 G1 X12.762 Y13.204
N2270 G2 X15.212 Y14.618 I1.932 J-0.518
N2275 G1 X24.871 Y12.03
N2280 G2 X26.285 Y9.58 I-0.518 J-1.932
N2285 G1 X25.394 Y6.256
N2290 G3 X38.438 Y18.229 I-2.894 J16.244
N2295 G1 X47.366 Y51.549
N2300 X54.865 Y79.536
N2305 X51.792
N2310 G2 X49.792 Y81.536 J2
N2315 G1 Y91.536
N2320 G2 X51.792 Y93.536 I2
N2325 G1 X64.292
N2330 G2 X65.948 Y92.656 J-2
N2335 G3 X66.504 Y92.549 I0.331 J0.224 F600
N2340 G1 X66.835 Y92.773
N2345 X66.9 Y92.817 Z-7.492
N2350 X66.962 Y92.859 Z-7.47
N2355 X67.019 Y92.898 Z-7.433
N2360 X67.069 Y92.932 Z-7.383
N2365 X67.111 Y92.96 Z-7.322
N2370 X67.141 Y92.98 Z-7.253
N2375 X67.16 Y92.993 Z-7.178
N2380 X67.166 Y92.997 Z-7.1
N2385 G0 Z5
N2390 X71.299 Y90.804
N2395 G1 Z-3.5 F300
N2400 Z-7.1
N2405 G19 G2 Y90.404 Z-7.5 J-0.4
N2410 G1 Y90.004
N2415 G17 G3 X71.699 Y89.604 I0.4
N2420 G1 X74.292
N2425 G2 X76.292 Y87.604 J-2
N2430 G1 Y69.604
N2435 X81.292
N2440 G2 X83.292 Y67.604 J-2
N2445 G1 Y58.536
N2450 G2 X81.292 Y56.536 I-2
N2455 G1 X74.538
N2460 X66.562 Y26.771
N2465 G3 X71.871 Y9.879 I15.938 J-4.271
N2470 G1 X72.762 Y13.204
N2475 G2 X75.212 Y14.618 I1.932 J-0.518
N2480 G1 X84.871 Y12.03
N2485 G2 X86.285 Y9.58 I-0.518 J-1.932
N2490 G1 X85.394 Y6.256
N2495 G3 X98.438 Y18.229 I-2.894 J16.244
N2500 G1 X114.865 Y79.536
N2505 X111.792
N2510 G2 X109.792 Y81.536 J2
N2515 G1 Y91.536
N2520 G2 X111.792 Y93.536 I2
N2525 G1 X124.292
N2530 G2 X126.224 Y91.018 J-2
N2535 G1 X106.165 Y16.159
N2540 G2 X58.835 Y28.841 I-23.665 J6.341
N2545 G1 X68.792 Y66.001
N2550 Y87.604
N2555 G2 X70.792 Y89.604 I2
N2560 G1 X71.699
N2565 G3 X72.099 Y90.004 J0.4 F600
N2570 G1 Y90.404
N2575 G19 G3 Y90.804 Z-7.1 K0.4
N2580 G0 Z5
N2585 X71.299
N2590 G1 Z-5 F300
N2595 Z-7.9
N2600 G2 Y90.404 Z-8.3 J-0.4
N2605 G1 Y90.004
N2610 G17 G3 X71.699 Y89.604 I0.4
N2615 G1 X74.292
N2620 G2 X76.292 Y87.604 J-2
N2625 G1 Y69.604
N2630 X81.292
N2635 G2 X83.292 Y67.604 J-2
N2640 G1 Y58.536
N2645 G2 X81.292 Y56.536 I-2
N2650 G1 X74.538
N2655 X66.562 Y26.771
N2660 G3 X71.871 Y9.879 I15.938 J-4.271
N2665 G1 X72.762 Y13.204
N2670 G2 X75.212 Y14.618 I1.932 J-0.518
N2675 G1 X84.871 Y12.03
N2680 G2 X86.285 Y9.58 I-0.518 J-1.932
N2685 G1 X85.394 Y6.256
N2690 G3 X98.438 Y18.229 I-2.894 J16.244
N2695 G1 X114.865 Y79.536
N2700 X111.792
N2705 G2 X109.792 Y81.536 J2
N2710 G1 Y91.536
N2715 G2 X111.792 Y93.536 I2
N2720 G1 X124.292
N2725 G2 X126.224 Y91.018 J-2
N2730 G1 X106.165 Y16.159
N2735 G2 X58.835 Y28.841 I-23.665 J6.341
N2740 G1 X68.792 Y66.001
N2745 Y87.604
N2750 G2 X70.792 Y89.604 I2
N2755 G1 X71.699
N2760 G3 X72.099 Y90.004 J0.4 F600
N2765 G1 Y90.404
N2770 G19 G3 Y90.804 Z-7.9 K0.4
N2775 G0 Z5
N2780 X66.718 Y93.66
N2785 G1 Z-5 F300
N2790 Z-7.9
N2795 X66.712 Y93.656 Z-7.978
N2800 X66.693 Y93.643 Z-8.053
N2805 X66.662 Y93.622 Z-8.122
N2810 X66.621 Y93.594 Z-8.183
N2815 X66.571 Y93.56 Z-8.233
N2820 X66.514 Y93.522 Z-8.27
N2825 X66.452 Y93.48 Z-8.292
N2830 X66.387 Y93.436 Z-8.3
N2835 X66.056 Y93.212
N2840 G17 G3 X65.948 Y92.656 I0.224 J-0.331
N2845 G2 X66.224 Y91.018 I-1.657 J-1.121
N2850 G1 X46.165 Y16.159
N2855 G2 X-1.165 Y28.841 I-23.665 J6.341
N2860 G1 X8.792 Y66.001
N2865 Y87.604
N2870 G2 X10.792 Y89.604 I2
N2875 G1 X14.292
N2880 G2 X16.292 Y87.604 J-2
N2885 G1 Y69.604
N2890 X21.292
N2895 G2 X23.292 Y67.604 J-2
N2900 G1 Y58.536
N2905 G2 X21.292 Y56.536 I-2
N2910 G1 X14.538
N2915 X6.562 Y26.771
N2920 G3 X11.871 Y9.879 I15.938 J-4.271
N2925 G1 X12.762 Y13.204
N2930 G2 X15.212 Y14.618 I1.932 J-0.518
N2935 G1 X24.871 Y12.03
N2940 G2 X26.285 Y9.58 I-0.518 J-1.932
N2945 G1 X25.394 Y6.256
N2950 G3 X38.438 Y18.229 I-2.894 J16.244
N2955 G1 X47.366 Y51.549
N2960 X54.865 Y79.536
N2965 X51.792
N2970 G2 X49.792 Y81.536 J2
N2975 G1 Y91.536
N2980 G2 X51.792 Y93.536 I2
N2985 G1 X64.292
N2990 G2 X65.948 Y92.656 J-2
N2995 G3 X66.504 Y92.549 I0.331 J0.224 F600
N3000 G1 X66.835 Y92.773
N3005 X66.9 Y92.817 Z-8.292
N3010 X66.962 Y92.859 Z-8.27
N3015 X67.019 Y92.898 Z-8.233
N3020 X67.069 Y92.932 Z-8.183
N3025 X67.111 Y92.96 Z-8.122
N3030 X67.141 Y92.98 Z-8.053
N3035 X67.16 Y92.993 Z-7.978
N3040 X67.166 Y92.997 Z-7.9
N3045 G0 Z5
N3050 X66.718 Y93.66
N3055 G1 Z-5.8 F300
N3060 Z-8.7
N3065 X66.712 Y93.656 Z-8.778
N3070 X66.693 Y93.643 Z-8.853
N3075 X66.662 Y93.622 Z-8.922
N3080 X66.621 Y93.594 Z-8.983
N3085 X66.571 Y93.56 Z-9.033
N3090 X66.514 Y93.522 Z-9.07
N3095 X66.452 Y93.48 Z-9.092
N3100 X66.387 Y93.436 Z-9.1
N3105 X66.056 Y93.212
N3110 G3 X65.948 Y92.656 I0.224 J-0.331
N3115 G2 X66.224 Y91.018 I-1.657 J-1.121
N3120 G1 X46.165 Y16.159
N3125 G2 X-1.165 Y28.841 I-23.665 J6.341
N3130 G1 X8.792 Y66.001
N3135 Y87.604
N3140 G2 X10.792 Y89.604 I2
N3145 G1 X14.292
N3150 G2 X16.292 Y87.604 J-2
N3155 G1 Y69.604
N3160 X21.292
N3165 G2 X23.292 Y67.604 J-2
N3170 G1 Y58.536
N3175 G2 X21.292 Y56.536 I-2
N3180 G1 X14.538
N3185 X6.562 Y26.771
N3190 G3 X11.871 Y9.879 I15.938 J-4.271
N3195 G1 X12.762 Y13.204
N3200 G2 X15.212 Y14.618 I1.932 J-0.518
N3205 G1 X24.871 Y12.03
N3210 G2 X26.285 Y9.58 I-0.518 J-1.932
N3215 G1 X25.394 Y6.256
N3220 G3 X38.438 Y18.229 I-2.894 J16.244
N3225 G1 X47.366 Y51.549
N3230 X54.865 Y79.536
N3235 X51.792
N3240 G2 X49.792 Y81.536 J2
N3245 G1 Y91.536
N3250 G2 X51.792 Y93.536 I2
N3255 G1 X64.292
N3260 G2 X65.948 Y92.656 J-2
N3265 G3 X66.504 Y92.549 I0.331 J0.224 F600
N3270 G1 X66.835 Y92.773
N3275 X66.9 Y92.817 Z-9.092
N3280 X66.962 Y92.859 Z-9.07
N3285 X67.019 Y92.898 Z-9.033
N3290 X67.069 Y92.932 Z-8.983
N3295 X67.111 Y92.96 Z-8.922
N3300 X67.141 Y92.98 Z-8.853
N3305 X67.16 Y92.993 Z-8.778
N3310 X67.166 Y92.997 Z-8.7
N3315 G0 Z5
N3320 X71.299 Y90.804
N3325 G1 Z-5.8 F300
N3330 Z-8.7
N3335 G19 G2 Y90.404 Z-9.1 J-0.4
N3340 G1 Y90.004
N3345 G17 G3 X71.699 Y89.604 I0.4
N3350 G1 X74.292
N3355 G2 X76.292 Y87.604 J-2
N3360 G1 Y69.604
N3365 X81.292
N3370 G2 X83.292 Y67.604 J-2
N3375 G1 Y58.536
N3380 G2 X81.292 Y56.536 I-2
N3385 G1 X74.538
N3390 X66.562 Y26.771
N3395 G3 X71.871 Y9.879 I15.938 J-4.271
N3400 G1 X72.762 Y13.204
N3405 G2 X75.212 Y14.618 I1.932 J-0.518
N3410 G1 X84.871 Y12.03
N3415 G2 X86.285 Y9.58 I-0.518 J-1.932
N3420 G1 X85.394 Y6.256
N3425 G3 X98.438 Y18.229 I-2.894 J16.244
N3430 G1 X114.865 Y79.536
N3435 X111.792
N3440 G2 X109.792 Y81.536 J2
N3445 G1 Y91.536
N3450 G2 X111.792 Y93.536 I2
N3455 G1 X124.292
N3460 G2 X126.224 Y91.018 J-2
N3465 G1 X106.165 Y16.159
N3470 G2 X58.835 Y28.841 I-23.665 J6.341
N3475 G1 X68.792 Y66.001
N3480 Y87.604
N3485 G2 X70.792 Y89.604 I2
N3490 G1 X71.699
N3495 G3 X72.099 Y90.004 J0.4 F600
N3500 G1 Y90.404
N3505 G19 G3 Y90.804 Z-8.7 K0.4
N3510 G0 Z5
N3515 X74.692 Y102.288
N3520 G1 Z2.5 F300
N3525 Z-1.1
N3530 G3 Y102.688 Z-1.5 J0.4
N3535 G1 Y103.088
N3540 G17 G3 X74.292 Y103.488 I-0.4
N3545 G1 X70.792
N3550 G2 X68.792 Y105.488 J2
N3555 G1 Y127.091
N3560 X58.835 Y164.25
N3565 G2 X76.159 Y194.257 I23.665 J6.342
N3570 X106.165 Y176.933 I6.341 J-23.665
N3575 G1 X126.224 Y102.074
N3580 G2 X124.292 Y99.556 I-1.932 J-0.518
N3585 G1 X111.792
N3590 G2 X109.792 Y101.556 J2
N3595 G1 Y111.556
N3600 G2 X111.792 Y113.556 I2
N3605 G1 X114.865
N3610 X98.438 Y174.862
N3615 G3 X85.394 Y186.836 I-15.938 J-4.271
N3620 G1 X86.285 Y183.512
N3625 G2 X84.871 Y181.062 I-1.932 J-0.518
N3630 G1 X75.212 Y178.474
N3635 G2 X72.762 Y179.888 I-0.518 J1.932
N3640 G1 X71.871 Y183.212
N3645 G3 X66.562 Y166.321 I10.628 J-12.621
N3650 G1 X74.538 Y136.556
N3655 X81.292
N3660 G2 X83.292 Y134.556 J-2
N3665 G1 Y125.488
N3670 G2 X81.292 Y123.488 I-2
N3675 G1 X76.292
N3680 Y105.488
N3685 G2 X74.292 Y103.488 I-2
N3690 G3 X73.892 Y103.088 J-0.4 F600
N3695 G1 Y102.688
N3700 G19 G2 Y102.288 Z-1.1 K0.4
N3705 G0 Z5
N3710 X74.692
N3715 G1 Z1 F300
N3720 Z-2.6
N3725 G3 Y102.688 Z-3 J0.4
N3730 G1 Y103.088
N3735 G17 G3 X74.292 Y103.488 I-0.4
N3740 G1 X70.792
N3745 G2 X68.792 Y105.488 J2
N3750 G1 Y127.091
N3755 X58.835 Y164.25
N3760 G2 X76.159 Y194.257 I23.665 J6.342
N3765 X106.165 Y176.933 I6.341 J-23.665
N3770 G1 X126.224 Y102.074
N3775 G2 X124.292 Y99.556 I-1.932 J-0.518
N3780 G1 X111.792
N3785 G2 X109.792 Y101.556 J2
N3790 G1 Y111.556
N3795 G2 X111.792 Y113.556 I2
N3800 G1 X114.865
N3805 X98.438 Y174.862
N3810 G3 X85.394 Y186.836 I-15.938 J-4.271
N3815 G1 X86.285 Y183.512
N3820 G2 X84.871 Y181.062 I-1.932 J-0.518
N3825 G1 X75.212 Y178.474
N3830 G2 X72.762 Y179.888 I-0.518 J1.932
N3835 G1 X71.871 Y183.212
N3840 G3 X66.562 Y166.321 I10.628 J-12.621
N3845 G1 X74.538 Y136.556
N3850 X81.292
N3855 G2 X83.292 Y134.556 J-2
N3860 G1 Y125.488
N3865 G2 X81.292 Y123.488 I-2
N3870 G1 X76.292
N3875 Y105.488
N3880 G2 X74.292 Y103.488 I-2
N3885 G3 X73.892 Y103.088 J-0.4 F600
N3890 G1 Y102.688
N3895 G19 G2 Y102.288 Z-2.6 K0.4
N3900 G0 Z5
N3905 X67.166 Y100.094
N3910 G1 Z1 F300
N3915 Z-2.6
N3920 X67.16 Y100.099 Z-2.678
N3925 X67.141 Y100.111 Z-2.753
N3930 X67.111 Y100.132 Z-2.822
N3935 X67.069 Y100.16 Z-2.883
N3940 X67.019 Y100.194 Z-2.933
N3945 X66.962 Y100.233 Z-2.97
N3950 X66.9 Y100.275 Z-2.992
N3955 X66.835 Y100.319 Z-3
N3960 X66.504 Y100.543
N3965 G17 G3 X65.948 Y100.435 I-0.224 J-0.331
N3970 G2 X64.292 Y99.556 I-1.657 J1.121
N3975 G1 X51.792
N3980 G2 X49.792 Y101.556 J2
N3985 G1 Y111.556
N3990 G2 X51.792 Y113.556 I2
N3995 G1 X54.865
N4000 X38.438 Y174.862
N4005 G3 X25.394 Y186.836 I-15.937 J-4.271
N4010 G1 X26.285 Y183.512
N4015 G2 X24.871 Y181.062 I-1.932 J-0.518
N4020 G1 X15.212 Y178.474
N4025 G2 X12.762 Y179.888 I-0.518 J1.932
N4030 G1 X11.871 Y183.212
N4035 G3 X6.562 Y166.321 I10.628 J-12.621
N4040 G1 X14.538 Y136.556
N4045 X21.292
N4050 G2 X23.292 Y134.556 J-2
N4055 G1 Y125.488
N4060 G2 X21.292 Y123.488 I-2
N4065 G1 X16.292
N4070 Y105.488
N4075 G2 X14.292 Y103.488 I-2
N4080 G1 X10.792
N4085 G2 X8.792 Y105.488 J2
N4090 G1 Y127.091
N4095 X-1.165 Y164.25
N4100 G2 X16.159 Y194.257 I23.665 J6.342
N4105 X46.165 Y176.933 I6.341 J-23.665
N4110 G1 X66.224 Y102.074
N4115 G2 X65.948 Y100.435 I-1.932 J-0.518
N4120 G3 X66.056 Y99.88 I0.331 J-0.224 F600
N4125 G1 X66.387 Y99.656
N4130 X66.452 Y99.612 Z-2.992
N4135 X66.514 Y99.57 Z-2.97
N4140 X66.571 Y99.531 Z-2.933
N4145 X66.621 Y99.497 Z-2.883
N4150 X66.662 Y99.47 Z-2.822
N4155 X66.693 Y99.449 Z-2.753
N4160 X66.712 Y99.436 Z-2.678
N4165 X66.718 Y99.432 Z-2.6
N4170 G0 Z5
N4175 X64.692 Y98.356
N4180 G1 Z-0.5 F300
N4185 Z-4.1
N4190 G19 G3 Y98.756 Z-4.5 J0.4
N4195 G1 Y99.156
N4200 G17 G3 X64.292 Y99.556 I-0.4
N4205 G1 X51.792
N4210 G2 X49.792 Y101.556 J2
N4215 G1 Y111.556
N4220 G2 X51.792 Y113.556 I2
N4225 G1 X54.865
N4230 X38.438 Y174.862
N4235 G3 X25.394 Y186.836 I-15.937 J-4.271
N4240 G1 X26.285 Y183.512
N4245 G2 X24.871 Y181.062 I-1.932 J-0.518
N4250 G1 X15.212 Y178.474
N4255 G2 X12.762 Y179.888 I-0.518 J1.932
N4260 G1 X11.871 Y183.212
N4265 G3 X6.562 Y166.321 I10.628 J-12.621
N4270 G1 X14.538 Y136.556
N4275 X21.292
N4280 G2 X23.292 Y134.556 J-2
N4285 G1 Y125.488
N4290 G2 X21.292 Y123.488 I-2
N4295 G1 X16.292
N4300 Y105.488
N4305 G2 X14.292 Y103.488 I-2
N4310 G1 X10.792
N4315 G2 X8.792 Y105.488 J2
N4320 G1 Y127.091
N4325 X-1.165 Y164.25
N4330 G2 X16.159 Y194.257 I23.665 J6.342
N4335 X46.165 Y176.933 I6.341 J-23.665
N4340 G1 X66.224 Y102.074
N4345 G2 X64.292 Y99.556 I-1.932 J-0.518
N4350 G3 X63.892 Y99.156 J-0.4 F600
N4355 G1 Y98.756
N4360 G19 G2 Y98.356 Z-4.1 K0.4
N4365 G0 Z5
N4370 X74.692 Y102.288
N4375 G1 Z-0.5 F300
N4380 Z-4.1
N4385 G3 Y102.688 Z-4.5 J0.4
N4390 G1 Y103.088
N4395 G17 G3 X74.292 Y103.488 I-0.4
N4400 G1 X70.792
N4405 G2 X68.792 Y105.488 J2
N4410 G1 Y127.091
N4415 X58.835 Y164.25
N4420 G2 X76.159 Y194.257 I23.665 J6.342
N4425 X106.165 Y176.933 I6.341 J-23.665
N4430 G1 X126.224 Y102.074
N4435 G2 X124.292 Y99.556 I-1.932 J-0.518
N4440 G1 X111.792
N4445 G2 X109.792 Y101.556 J2
N4450 G1 Y111.556
N4455 G2 X111.792 Y113.556 I2
N4460 G1 X114.865
N4465 X98.438 Y174.862
N4470 G3 X85.394 Y186.836 I-15.938 J-4.271
N4475 G1 X86.285 Y183.512
N4480 G2 X84.871 Y181.062 I-1.932 J-0.518
N4485 G1 X75.212 Y178.474
N4490 G2 X72.762 Y179.888 I-0.518 J1.932
N4495 G1 X71.871 Y183.212
N4500 G3 X66.562 Y166.321 I10.628 J-12.621
N4505 G1 X74.538 Y136.556
N4510 X81.292
N4515 G2 X83.292 Y134.556 J-2
N4520 G1 Y125.488
N4525 G2 X81.292 Y123.488 I-2
N4530 G1 X76.292
N4535 Y105.488
N4540 G2 X74.292 Y103.488 I-2
N4545 G3 X73.892 Y103.088 J-0.4 F600
N4550 G1 Y102.688
N4555 G19 G2 Y102.288 Z-4.1 K0.4
N4560 G0 Z5
N4565 X74.692
N4570 G1 Z-2 F300
N4575 Z-5.6
N4580 G3 Y102.688 Z-6 J0.4
N4585 G1 Y103.088
N4590 G17 G3 X74.292 Y103.488 I-0.4
N4595 G1 X70.792
N4600 G2 X68.792 Y105.488 J2
N4605 G1 Y127.091
N4610 X58.835 Y164.25
N4615 G2 X76.159 Y194.257 I23.665 J6.342
N4620 X106.165 Y176.933 I6.341 J-23.665
N4625 G1 X126.224 Y102.074
N4630 G2 X124.292 Y99.556 I-1.932 J-0.518
N4635 G1 X111.792
N4640 G2 X109.792 Y101.556 J2
N4645 G1 Y111.556
N4650 G2 X111.792 Y113.556 I2
N4655 G1 X114.865
N4660 X98.438 Y174.862
N4665 G3 X85.394 Y186.836 I-15.938 J-4.271
N4670 G1 X86.285 Y183.512
N4675 G2 X84.871 Y181.062 I-1.932 J-0.518
N4680 G1 X75.212 Y178.474
N4685 G2 X72.762 Y179.888 I-0.518 J1.932
N4690 G1 X71.871 Y183.212
N4695 G3 X66.562 Y166.321 I10.628 J-12.621
N4700 G1 X74.538 Y136.556
N4705 X81.292
N4710 G2 X83.292 Y134.556 J-2
N4715 G1 Y125.488
N4720 G2 X81.292 Y123.488 I-2
N4725 G1 X76.292
N4730 Y105.488
N4735 G2 X74.292 Y103.488 I-2
N4740 G3 X73.892 Y103.088 J-0.4 F600
N4745 G1 Y102.688
N4750 G19 G2 Y102.288 Z-5.6 K0.4
N4755 G0 Z5
N4760 X67.166 Y100.094
N4765 G1 Z-2 F300
N4770 Z-5.6
N4775 X67.16 Y100.099 Z-5.678
N4780 X67.141 Y100.111 Z-5.753
N4785 X67.111 Y100.132 Z-5.822
N4790 X67.069 Y100.16 Z-5.883
N4795 X67.019 Y100.194 Z-5.933
N4800 X66.962 Y100.233 Z-5.97
N4805 X66.9 Y100.275 Z-5.992
N4810 X66.835 Y100.319 Z-6
N4815 X66.504 Y100.543
N4820 G17 G3 X65.948 Y100.435 I-0.224 J-0.331
N4825 G2 X64.292 Y99.556 I-1.657 J1.121
N4830 G1 X51.792
N4835 G2 X49.792 Y101.556 J2
N4840 G1 Y111.556
N4845 G2 X51.792 Y113.556 I2
N4850 G1 X54.865
N4855 X38.438 Y174.862
N4860 G3 X25.394 Y186.836 I-15.937 J-4.271
N4865 G1 X26.285 Y183.512
N4870 G2 X24.871 Y181.062 I-1.932 J-0.518
N4875 G1 X15.212 Y178.474
N4880 G2 X12.762 Y179.888 I-0.518 J1.932
N4885 G1 X11.871 Y183.212
N4890 G3 X6.562 Y166.321 I10.628 J-12.621
N4895 G1 X14.538 Y136.556
N4900 X21.292
N4905 G2 X23.292 Y134.556 J-2
N4910 G1 Y125.488
N4915 G2 X21.292 Y123.488 I-2
N4920 G1 X16.292
N4925 Y105.488
N4930 G2 X14.292 Y103.488 I-2
N4935 G1 X10.792
N4940 G2 X8.792 Y105.488 J2
N4945 G1 Y127.091
N4950 X-1.165 Y164.25
N4955 G2 X16.159 Y194.257 I23.665 J6.342
N4960 X46.165 Y176.933 I6.341 J-23.665
N4965 G1 X66.224 Y102.074
N4970 G2 X65.948 Y100.435 I-1.932 J-0.518
N4975 G3 X66.056 Y99.88 I0.331 J-0.224 F600
N4980 G1 X66.387 Y99.656
N4985 X66.452 Y99.612 Z-5.992
N4990 X66.514 Y99.57 Z-5.97
N4995 X66.571 Y99.531 Z-5.933
N5000 X66.621 Y99.497 Z-5.883
N5005 X66.662 Y99.47 Z-5.822
N5010 X66.693 Y99.449 Z-5.753
N5015 X66.712 Y99.436 Z-5.678
N5020 X66.718 Y99.432 Z-5.6
N5025 G0 Z5
N5030 X64.692 Y98.356
N5035 G1 Z-3.5 F300
N5040 Z-7.1
N5045 G19 G3 Y98.756 Z-7.5 J0.4
N5050 G1 Y99.156
N5055 G17 G3 X64.292 Y99.556 I-0.4
N5060 G1 X51.792
N5065 G2 X49.792 Y101.556 J2
N5070 G1 Y111.556
N5075 G2 X51.792 Y113.556 I2
N5080 G1 X54.865
N5085 X38.438 Y174.862
N5090 G3 X25.394 Y186.836 I-15.937 J-4.271
N5095 G1 X26.285 Y183.512
N5100 G2 X24.871 Y181.062 I-1.932 J-0.518
N5105 G1 X15.212 Y178.474
N5110 G2 X12.762 Y179.888 I-0.518 J1.932
N5115 G1 X11.871 Y183.212
N5120 G3 X6.562 Y166.321 I10.628 J-12.621
N5125 G1 X14.538 Y136.556
N5130 X21.292
N5135 G2 X23.292 Y134.556 J-2
N5140 G1 Y125.488
N5145 G2 X21.292 Y123.488 I-2
N5150 G1 X16.292
N5155 Y105.488
N5160 G2 X14.292 Y103.488 I-2
N5165 G1 X10.792
N5170 G2 X8.792 Y105.488 J2
N5175 G1 Y127.091
N5180 X-1.165 Y164.25
N5185 G2 X16.159 Y194.257 I23.665 J6.342
N5190 X46.165 Y176.933 I6.341 J-23.665
N5195 G1 X66.224 Y102.074
N5200 G2 X64.292 Y99.556 I-1.932 J-0.518
N5205 G3 X63.892 Y99.156 J-0.4 F600
N5210 G1 Y98.756
N5215 G19 G2 Y98.356 Z-7.1 K0.4
N5220 G0 Z5
N5225 X74.692 Y102.288
N5230 G1 Z-3.5 F300
N5235 Z-7.1
N5240 G3 Y102.688 Z-7.5 J0.4
N5245 G1 Y103.088
N5250 G17 G3 X74.292 Y103.488 I-0.4
N5255 G1 X70.792
N5260 G2 X68.792 Y105.488 J2
N5265 G1 Y127.091
N5270 X58.835 Y164.25
N5275 G2 X76.159 Y194.257 I23.665 J6.342
N5280 X106.165 Y176.933 I6.341 J-23.665
N5285 G1 X126.224 Y102.074
N5290 G2 X124.292 Y99.556 I-1.932 J-0.518
N5295 G1 X111.792
N5300 G2 X109.792 Y101.556 J2
N5305 G1 Y111.556
N5310 G2 X111.792 Y113.556 I2
N5315 G1 X114.865
N5320 X98.438 Y174.862
N5325 G3 X85.394 Y186.836 I-15.938 J-4.271
N5330 G1 X86.285 Y183.512
N5335 G2 X84.871 Y181.062 I-1.932 J-0.518
N5340 G1 X75.212 Y178.474
N5345 G2 X72.762 Y179.888 I-0.518 J1.932
N5350 G1 X71.871 Y183.212
N5355 G3 X66.562 Y166.321 I10.628 J-12.621
N5360 G1 X74.538 Y136.556
N5365 X81.292
N5370 G2 X83.292 Y134.556 J-2
N5375 G1 Y125.488
N5380 G2 X81.292 Y123.488 I-2
N5385 G1 X76.292
N5390 Y105.488
N5395 G2 X74.292 Y103.488 I-2
N5400 G3 X73.892 Y103.088 J-0.4 F600
N5405 G1 Y102.688
N5410 G19 G2 Y102.288 Z-7.1 K0.4
N5415 G0 Z5
N5420 X74.692
N5425 G1 Z-5 F300
N5430 Z-7.9
N5435 G3 Y102.688 Z-8.3 J0.4
N5440 G1 Y103.088
N5445 G17 G3 X74.292 Y103.488 I-0.4
N5450 G1 X70.792
N5455 G2 X68.792 Y105.488 J2
N5460 G1 Y127.091
N5465 X58.835 Y164.25
N5470 G2 X76.159 Y194.257 I23.665 J6.342
N5475 X106.165 Y176.933 I6.341 J-23.665
N5480 G1 X126.224 Y102.074
N5485 G2 X124.292 Y99.556 I-1.932 J-0.518
N5490 G1 X111.792
N5495 G2 X109.792 Y101.556 J2
N5500 G1 Y111.556
N5505 G2 X111.792 Y113.556 I2
N5510 G1 X114.865
N5515 X98.438 Y174.862
N5520 G3 X85.394 Y186.836 I-15.938 J-4.271
N5525 G1 X86.285 Y183.512
N5530 G2 X84.871 Y181.062 I-1.932 J-0.518
N5535 G1 X75.212 Y178.474
N5540 G2 X72.762 Y179.888 I-0.518 J1.932
N5545 G1 X71.871 Y183.212
N5550 G3 X66.562 Y166.321 I10.628 J-12.621
N5555 G1 X74.538 Y136.556
N5560 X81.292
N5565 G2 X83.292 Y134.556 J-2
N5570 G1 Y125.488
N5575 G2 X81.292 Y123.488 I-2
N5580 G1 X76.292
N5585 Y105.488
N5590 G2 X74.292 Y103.488 I-2
N5595 G3 X73.892 Y103.088 J-0.4 F600
N5600 G1 Y102.688
N5605 G19 G2 Y102.288 Z-7.9 K0.4
N5610 G0 Z5
N5615 X67.166 Y100.094
N5620 G1 Z-5 F300
N5625 Z-7.9
N5630 X67.16 Y100.099 Z-7.978
N5635 X67.141 Y100.111 Z-8.053
N5640 X67.111 Y100.132 Z-8.122
N5645 X67.069 Y100.16 Z-8.183
N5650 X67.019 Y100.194 Z-8.233
N5655 X66.962 Y100.233 Z-8.27
N5660 X66.9 Y100.275 Z-8.292
N5665 X66.835 Y100.319 Z-8.3
N5670 X66.504 Y100.543
N5675 G17 G3 X65.948 Y100.435 I-0.224 J-0.331
N5680 G2 X64.292 Y99.556 I-1.657 J1.121
N5685 G1 X51.792
N5690 G2 X49.792 Y101.556 J2
N5695 G1 Y111.556
N5700 G2 X51.792 Y113.556 I2
N5705 G1 X54.865
N5710 X38.438 Y174.862
N5715 G3 X25.394 Y186.836 I-15.937 J-4.271
N5720 G1 X26.285 Y183.512
N5725 G2 X24.871 Y181.062 I-1.932 J-0.518
N5730 G1 X15.212 Y178.474
N5735 G2 X12.762 Y179.888 I-0.518 J1.932
N5740 G1 X11.871 Y183.212
N5745 G3 X6.562 Y166.321 I10.628 J-12.621
N5750 G1 X14.538 Y136.556
N5755 X21.292
N5760 G2 X23.292 Y134.556 J-2
N5765 G1 Y125.488
N5770 G2 X21.292 Y123.488 I-2
N5775 G1 X16.292
N5780 Y105.488
N5785 G2 X14.292 Y103.488 I-2
N5790 G1 X10.792
N5795 G2 X8.792 Y105.488 J2
N5800 G1 Y127.091
N5805 X-1.165 Y164.25
N5810 G2 X16.159 Y194.257 I23.665 J6.342
N5815 X46.165 Y176.933 I6.341 J-23.665
N5820 G1 X66.224 Y102.074
N5825 G2 X65.948 Y100.435 I-1.932 J-0.518
N5830 G3 X66.056 Y99.88 I0.331 J-0.224 F600
N5835 G1 X66.387 Y99.656
N5840 X66.452 Y99.612 Z-8.292
N5845 X66.514 Y99.57 Z-8.27
N5850 X66.571 Y99.531 Z-8.233
N5855 X66.621 Y99.497 Z-8.183
N5860 X66.662 Y99.47 Z-8.122
N5865 X66.693 Y99.449 Z-8.053
N5870 X66.712 Y99.436 Z-7.978
N5875 X66.718 Y99.432 Z-7.9
N5880 G0 Z5
N5885 X64.692 Y98.356
N5890 G1 Z-5.8 F300
N5895 Z-8.7
N5900 G19 G3 Y98.756 Z-9.1 J0.4
N5905 G1 Y99.156
N5910 G17 G3 X64.292 Y99.556 I-0.4
N5915 G1 X51.792
N5920 G2 X49.792 Y101.556 J2
N5925 G1 Y111.556
N5930 G2 X51.792 Y113.556 I2
N5935 G1 X54.865
N5940 X38.438 Y174.862
N5945 G3 X25.394 Y186.836 I-15.937 J-4.271
N5950 G1 X26.285 Y183.512
N5955 G2 X24.871 Y181.062 I-1.932 J-0.518
N5960 G1 X15.212 Y178.474
N5965 G2 X12.762 Y179.888 I-0.518 J1.932
N5970 G1 X11.871 Y183.212
N5975 G3 X6.562 Y166.321 I10.628 J-12.621
N5980 G1 X14.538 Y136.556
N5985 X21.292
N5990 G2 X23.292 Y134.556 J-2
N5995 G1 Y125.488
N6000 G2 X21.292 Y123.488 I-2
N6005 G1 X16.292
N6010 Y105.488
N6015 G2 X14.292 Y103.488 I-2
N6020 G1 X10.792
N6025 G2 X8.792 Y105.488 J2
N6030 G1 Y127.091
N6035 X-1.165 Y164.25
N6040 G2 X16.159 Y194.257 I23.665 J6.342
N6045 X46.165 Y176.933 I6.341 J-23.665
N6050 G1 X66.224 Y102.074
N6055 G2 X64.292 Y99.556 I-1.932 J-0.518
N6060 G3 X63.892 Y99.156 J-0.4 F600
N6065 G1 Y98.756
N6070 G19 G2 Y98.356 Z-8.7 K0.4
N6075 G0 Z5
N6080 X74.692 Y102.288
N6085 G1 Z-5.8 F300
N6090 Z-8.7
N6095 G3 Y102.688 Z-9.1 J0.4
N6100 G1 Y103.088
N6105 G17 G3 X74.292 Y103.488 I-0.4
N6110 G1 X70.792
N6115 G2 X68.792 Y105.488 J2
N6120 G1 Y127.091
N6125 X58.835 Y164.25
N6130 G2 X76.159 Y194.257 I23.665 J6.342
N6135 X106.165 Y176.933 I6.341 J-23.665
N6140 G1 X126.224 Y102.074
N6145 G2 X124.292 Y99.556 I-1.932 J-0.518
N6150 G1 X111.792
N6155 G2 X109.792 Y101.556 J2
N6160 G1 Y111.556
N6165 G2 X111.792 Y113.556 I2
N6170 G1 X114.865
N6175 X98.438 Y174.862
N6180 G3 X85.394 Y186.836 I-15.938 J-4.271
N6185 G1 X86.285 Y183.512
N6190 G2 X84.871 Y181.062 I-1.932 J-0.518
N6195 G1 X75.212 Y178.474
N6200 G2 X72.762 Y179.888 I-0.518 J1.932
N6205 G1 X71.871 Y183.212
N6210 G3 X66.562 Y166.321 I10.628 J-12.621
N6215 G1 X74.538 Y136.556
N6220 X81.292
N6225 G2 X83.292 Y134.556 J-2
N6230 G1 Y125.488
N6235 G2 X81.292 Y123.488 I-2
N6240 G1 X76.292
N6245 Y105.488
N6250 G2 X74.292 Y103.488 I-2
N6255 G3 X73.892 Y103.088 J-0.4 F600
N6260 G1 Y102.688
N6265 G19 G2 Y102.288 Z-8.7 K0.4
N6270 G0 Z15
N6275 G17
N6280 M9
N6285 G28
N6290 M30
%
