%
(1001)
(T1 D=2 CR=0 - ZMIN=-4 - flat end mill)
N10 G90 G94
N15 G17
N20 G21
N25 M9
N30 G28

(2D ??36)
N35 T1 M6
(0)
N40 S23873 M3
N45 G54
N50 M8
N55 G0 X56.442 Y86.336
N60 G43 Z15
N65 Z5
N70 G1 Z2.5 F600
N75 Z-1.3
N80 G18 G2 X56.642 Z-1.5 I0.2
N85 G1 X56.842 F400
N90 G17 G3 X57.042 Y86.536 J0.2
N95 X55.542 I-0.75 F600
N100 X57.042 I0.75
N105 X56.842 Y86.736 I-0.2
N110 G1 X56.642
N115 G18 G3 X56.442 Z-1.3 K0.2
N120 G0 Z5
N125 Y86.336
N130 G1 Z1 F600
N135 Z-2.8
N140 G2 X56.642 Z-3 I0.2
N145 G1 X56.842 F400
N150 G17 G3 X57.042 Y86.536 J0.2
N155 X55.542 I-0.75 F600
N160 X57.042 I0.75
N165 X56.842 Y86.736 I-0.2
N170 G1 X56.642
N175 G18 G3 X56.442 Z-2.8 K0.2
N180 G0 Z5
N185 Y86.336
N190 G1 Z-0.5 F600
N195 Z-3.8
N200 G2 X56.642 Z-4 I0.2
N205 G1 X56.842 F400
N210 G17 G3 X57.042 Y86.536 J0.2
N215 X55.542 I-0.75 F600
N220 X57.042 I0.75
N225 X56.842 Y86.736 I-0.2
N230 G1 X56.642
N235 G18 G3 X56.442 Z-3.8 K0.2
N240 G0 Z5
N245 Y106.356
N250 G1 Z2.5 F600
N255 Z-1.3
N260 G2 X56.642 Z-1.5 I0.2
N265 G1 X56.842 F400
N270 G17 G3 X57.042 Y106.556 J0.2
N275 X55.542 I-0.75 F600
N280 X57.042 I0.75
N285 X56.842 Y106.756 I-0.2
N290 G1 X56.642
N295 G18 G3 X56.442 Z-1.3 K0.2
N300 G0 Z5
N305 Y106.356
N310 G1 Z1 F600
N315 Z-2.8
N320 G2 X56.642 Z-3 I0.2
N325 G1 X56.842 F400
N330 G17 G3 X57.042 Y106.556 J0.2
N335 X55.542 I-0.75 F600
N340 X57.042 I0.75
N345 X56.842 Y106.756 I-0.2
N350 G1 X56.642
N355 G18 G3 X56.442 Z-2.8 K0.2
N360 G0 Z5
N365 Y106.356
N370 G1 Z-0.5 F600
N375 Z-3.8
N380 G2 X56.642 Z-4 I0.2
N385 G1 X56.842 F400
N390 G17 G3 X57.042 Y106.556 J0.2
N395 X55.542 I-0.75 F600
N400 X57.042 I0.75
N405 X56.842 Y106.756 I-0.2
N410 G1 X56.642
N415 G18 G3 X56.442 Z-3.8 K0.2
N420 G0 Z5
N425 X76.442 Y130.356
N430 G1 Z2.5 F600
N435 Z-1.3
N440 G2 X76.642 Z-1.5 I0.2
N445 G1 X76.842 F400
N450 G17 G3 X77.042 Y130.556 J0.2
N455 X75.542 I-0.75 F600
N460 X77.042 I0.75
N465 X76.842 Y130.756 I-0.2
N470 G1 X76.642
N475 G18 G3 X76.442 Z-1.3 K0.2
N480 G0 Z5
N485 Y130.356
N490 G1 Z1 F600
N495 Z-2.8
N500 G2 X76.642 Z-3 I0.2
N505 G1 X76.842 F400
N510 G17 G3 X77.042 Y130.556 J0.2
N515 X75.542 I-0.75 F600
N520 X77.042 I0.75
N525 X76.842 Y130.756 I-0.2
N530 G1 X76.642
N535 G18 G3 X76.442 Z-2.8 K0.2
N540 G0 Z5
N545 Y130.356
N550 G1 Z-0.5 F600
N555 Z-3.8
N560 G2 X76.642 Z-4 I0.2
N565 G1 X76.842 F400
N570 G17 G3 X77.042 Y130.556 J0.2
N575 X75.542 I-0.75 F600
N580 X77.042 I0.75
N585 X76.842 Y130.756 I-0.2
N590 G1 X76.642
N595 G18 G3 X76.442 Z-3.8 K0.2
N600 G0 Z5
N605 X116.447 Y106.36
N610 G1 Z2.5 F600
N615 Z-1.3
N620 X116.454 Z-1.352
N625 X116.474 Z-1.4
N630 X116.505 Y106.361 Z-1.441
N635 X116.547 Y106.362 Z-1.473
N640 X116.595 Y106.363 Z-1.493
N645 X116.647 Y106.365 Z-1.5
N650 X116.847 Y106.37 F400
N655 G17 G3 X117.042 Y106.574 I-0.005 J0.2
N660 X115.542 Y106.538 I-0.75 J-0.018 F600
N665 X117.042 Y106.574 I0.75 J0.018
N670 X116.837 Y106.769 I-0.2 J-0.005
N675 G1 X116.637 Y106.765
N680 X116.585 Y106.763 Z-1.493
N685 X116.537 Y106.762 Z-1.473
N690 X116.496 Y106.761 Z-1.441
N695 X116.464 Y106.76 Z-1.4
N700 X116.444 Z-1.352
N705 X116.437 Z-1.3
N710 G0 Z5
N715 X116.447 Y106.36
N720 G1 Z1 F600
N725 Z-2.8
N730 X116.454 Z-2.852
N735 X116.474 Z-2.9
N740 X116.505 Y106.361 Z-2.941
N745 X116.547 Y106.362 Z-2.973
N750 X116.595 Y106.363 Z-2.993
N755 X116.647 Y106.365 Z-3
N760 X116.847 Y106.37 F400
N765 G3 X117.042 Y106.574 I-0.005 J0.2
N770 X115.542 Y106.538 I-0.75 J-0.018 F600
N775 X117.042 Y106.574 I0.75 J0.018
N780 X116.837 Y106.769 I-0.2 J-0.005
N785 G1 X116.637 Y106.765
N790 X116.585 Y106.763 Z-2.993
N795 X116.537 Y106.762 Z-2.973
N800 X116.496 Y106.761 Z-2.941
N805 X116.464 Y106.76 Z-2.9
N810 X116.444 Z-2.852
N815 X116.437 Z-2.8
N820 G0 Z5
N825 X116.447 Y106.36
N830 G1 Z-0.5 F600
N835 Z-3.8
N840 X116.454 Z-3.852
N845 X116.474 Z-3.9
N850 X116.505 Y106.361 Z-3.941
N855 X116.547 Y106.362 Z-3.973
N860 X116.595 Y106.363 Z-3.993
N865 X116.647 Y106.365 Z-4
N870 X116.847 Y106.37 F400
N875 G3 X117.042 Y106.574 I-0.005 J0.2
N880 X115.542 Y106.538 I-0.75 J-0.018 F600
N885 X117.042 Y106.574 I0.75 J0.018
N890 X116.837 Y106.769 I-0.2 J-0.005
N895 G1 X116.637 Y106.765
N900 X116.585 Y106.763 Z-3.993
N905 X116.537 Y106.762 Z-3.973
N910 X116.496 Y106.761 Z-3.941
N915 X116.464 Y106.76 Z-3.9
N920 X116.444 Z-3.852
N925 X116.437 Z-3.8
N930 G0 Z5
N935 X116.447 Y86.34
N940 G1 Z2.5 F600
N945 Z-1.3
N950 X116.454 Z-1.352
N955 X116.474 Z-1.4
N960 X116.505 Y86.341 Z-1.441
N965 X116.547 Y86.342 Z-1.473
N970 X116.595 Y86.343 Z-1.493
N975 X116.647 Y86.344 Z-1.5
N980 X116.847 Y86.349 F400
N985 G3 X117.042 Y86.554 I-0.005 J0.2
N990 X115.542 Y86.517 I-0.75 J-0.018 F600
N995 X117.042 Y86.554 I0.75 J0.018
N1000 X116.837 Y86.749 I-0.2 J-0.005
N1005 G1 X116.637 Y86.744
N1010 X116.585 Y86.743 Z-1.493
N1015 X116.537 Y86.742 Z-1.473
N1020 X116.496 Y86.741 Z-1.441
N1025 X116.464 Y86.74 Z-1.4
N1030 X116.444 Z-1.352
N1035 X116.437 Y86.739 Z-1.3
N1040 G0 Z5
N1045 X116.447 Y86.34
N1050 G1 Z1 F600
N1055 Z-2.8
N1060 X116.454 Z-2.852
N1065 X116.474 Z-2.9
N1070 X116.505 Y86.341 Z-2.941
N1075 X116.547 Y86.342 Z-2.973
N1080 X116.595 Y86.343 Z-2.993
N1085 X116.647 Y86.344 Z-3
N1090 X116.847 Y86.349 F400
N1095 G3 X117.042 Y86.554 I-0.005 J0.2
N1100 X115.542 Y86.517 I-0.75 J-0.018 F600
N1105 X117.042 Y86.554 I0.75 J0.018
N1110 X116.837 Y86.749 I-0.2 J-0.005
N1115 G1 X116.637 Y86.744
N1120 X116.585 Y86.743 Z-2.993
N1125 X116.537 Y86.742 Z-2.973
N1130 X116.496 Y86.741 Z-2.941
N1135 X116.464 Y86.74 Z-2.9
N1140 X116.444 Z-2.852
N1145 X116.437 Y86.739 Z-2.8
N1150 G0 Z5
N1155 X116.447 Y86.34
N1160 G1 Z-0.5 F600
N1165 Z-3.8
N1170 X116.454 Z-3.852
N1175 X116.474 Z-3.9
N1180 X116.505 Y86.341 Z-3.941
N1185 X116.547 Y86.342 Z-3.973
N1190 X116.595 Y86.343 Z-3.993
N1195 X116.647 Y86.344 Z-4
N1200 X116.847 Y86.349 F400
N1205 G3 X117.042 Y86.554 I-0.005 J0.2
N1210 X115.542 Y86.517 I-0.75 J-0.018 F600
N1215 X117.042 Y86.554 I0.75 J0.018
N1220 X116.837 Y86.749 I-0.2 J-0.005
N1225 G1 X116.637 Y86.744
N1230 X116.585 Y86.743 Z-3.993
N1235 X116.537 Y86.742 Z-3.973
N1240 X116.496 Y86.741 Z-3.941
N1245 X116.464 Y86.74 Z-3.9
N1250 X116.444 Z-3.852
N1255 X116.437 Y86.739 Z-3.8
N1260 G0 Z5
N1265 X76.442 Y62.336
N1270 G1 Z2.5 F600
N1275 Z-1.3
N1280 G18 G2 X76.642 Z-1.5 I0.2
N1285 G1 X76.842 F400
N1290 G17 G3 X77.042 Y62.536 J0.2
N1295 X75.542 I-0.75 F600
N1300 X77.042 I0.75
N1305 X76.842 Y62.736 I-0.2
N1310 G1 X76.642
N1315 G18 G3 X76.442 Z-1.3 K0.2
N1320 G0 Z5
N1325 Y62.336
N1330 G1 Z1 F600
N1335 Z-2.8
N1340 G2 X76.642 Z-3 I0.2
N1345 G1 X76.842 F400
N1350 G17 G3 X77.042 Y62.536 J0.2
N1355 X75.542 I-0.75 F600
N1360 X77.042 I0.75
N1365 X76.842 Y62.736 I-0.2
N1370 G1 X76.642
N1375 G18 G3 X76.442 Z-2.8 K0.2
N1380 G0 Z5
N1385 Y62.336
N1390 G1 Z-0.5 F600
N1395 Z-3.8
N1400 G2 X76.642 Z-4 I0.2
N1405 G1 X76.842 F400
N1410 G17 G3 X77.042 Y62.536 J0.2
N1415 X75.542 I-0.75 F600
N1420 X77.042 I0.75
N1425 X76.842 Y62.736 I-0.2
N1430 G1 X76.642
N1435 G18 G3 X76.442 Z-3.8 K0.2
N1440 G0 Z5
N1445 X78.643 Y7.332
N1450 G1 Z2.5 F600
N1455 Z-1.3
N1460 X78.65 Z-1.352
N1465 X78.67 Y7.333 Z-1.4
N1470 X78.702 Z-1.441
N1475 X78.743 Y7.334 Z-1.473
N1480 X78.791 Y7.336 Z-1.493
N1485 X78.843 Y7.337 Z-1.5
N1490 X79.043 Y7.342 F400
N1495 G17 G3 X79.238 Y7.547 I-0.005 J0.2
N1500 X77.739 Y7.51 I-0.75 J-0.018 F600
N1505 X79.238 Y7.547 I0.75 J0.018
N1510 X79.033 Y7.742 I-0.2 J-0.005
N1515 G1 X78.833 Y7.737
N1520 X78.782 Y7.735 Z-1.493
N1525 X78.733 Y7.734 Z-1.473
N1530 X78.692 Y7.733 Z-1.441
N1535 X78.66 Y7.732 Z-1.4
N1540 X78.64 Z-1.352
N1545 X78.633 Z-1.3
N1550 G0 Z5
N1555 X78.643 Y7.332
N1560 G1 Z1 F600
N1565 Z-2.8
N1570 X78.65 Z-2.852
N1575 X78.67 Y7.333 Z-2.9
N1580 X78.702 Z-2.941
N1585 X78.743 Y7.334 Z-2.973
N1590 X78.791 Y7.336 Z-2.993
N1595 X78.843 Y7.337 Z-3
N1600 X79.043 Y7.342 F400
N1605 G3 X79.238 Y7.547 I-0.005 J0.2
N1610 X77.739 Y7.51 I-0.75 J-0.018 F600
N1615 X79.238 Y7.547 I0.75 J0.018
N1620 X79.033 Y7.742 I-0.2 J-0.005
N1625 G1 X78.833 Y7.737
N1630 X78.782 Y7.735 Z-2.993
N1635 X78.733 Y7.734 Z-2.973
N1640 X78.692 Y7.733 Z-2.941
N1645 X78.66 Y7.732 Z-2.9
N1650 X78.64 Z-2.852
N1655 X78.633 Z-2.8
N1660 G0 Z5
N1665 X78.643 Y7.332
N1670 G1 Z-0.5 F600
N1675 Z-3.8
N1680 X78.65 Z-3.852
N1685 X78.67 Y7.333 Z-3.9
N1690 X78.702 Z-3.941
N1695 X78.743 Y7.334 Z-3.973
N1700 X78.791 Y7.336 Z-3.993
N1705 X78.843 Y7.337 Z-4
N1710 X79.043 Y7.342 F400
N1715 G3 X79.238 Y7.547 I-0.005 J0.2
N1720 X77.739 Y7.51 I-0.75 J-0.018 F600
N1725 X79.238 Y7.547 I0.75 J0.018
N1730 X79.033 Y7.742 I-0.2 J-0.005
N1735 G1 X78.833 Y7.737
N1740 X78.782 Y7.735 Z-3.993
N1745 X78.733 Y7.734 Z-3.973
N1750 X78.692 Y7.733 Z-3.941
N1755 X78.66 Y7.732 Z-3.9
N1760 X78.64 Z-3.852
N1765 X78.633 Z-3.8
N1770 G0 Z5
N1775 X18.643 Y7.332
N1780 G1 Z2.5 F600
N1785 Z-1.3
N1790 X18.65 Z-1.352
N1795 X18.67 Y7.333 Z-1.4
N1800 X18.702 Z-1.441
N1805 X18.743 Y7.334 Z-1.473
N1810 X18.791 Y7.336 Z-1.493
N1815 X18.843 Y7.337 Z-1.5
N1820 X19.043 Y7.342 F400
N1825 G3 X19.238 Y7.547 I-0.005 J0.2
N1830 X17.739 Y7.51 I-0.75 J-0.018 F600
N1835 X19.238 Y7.547 I0.75 J0.018
N1840 X19.033 Y7.742 I-0.2 J-0.005
N1845 G1 X18.833 Y7.737
N1850 X18.782 Y7.735 Z-1.493
N1855 X18.733 Y7.734 Z-1.473
N1860 X18.692 Y7.733 Z-1.441
N1865 X18.66 Y7.732 Z-1.4
N1870 X18.64 Z-1.352
N1875 X18.633 Z-1.3
N1880 G0 Z5
N1885 X18.643 Y7.332
N1890 G1 Z1 F600
N1895 Z-2.8
N1900 X18.65 Z-2.852
N1905 X18.67 Y7.333 Z-2.9
N1910 X18.702 Z-2.941
N1915 X18.743 Y7.334 Z-2.973
N1920 X18.791 Y7.336 Z-2.993
N1925 X18.843 Y7.337 Z-3
N1930 X19.043 Y7.342 F400
N1935 G3 X19.238 Y7.547 I-0.005 J0.2
N1940 X17.739 Y7.51 I-0.75 J-0.018 F600
N1945 X19.238 Y7.547 I0.75 J0.018
N1950 X19.033 Y7.742 I-0.2 J-0.005
N1955 G1 X18.833 Y7.737
N1960 X18.782 Y7.735 Z-2.993
N1965 X18.733 Y7.734 Z-2.973
N1970 X18.692 Y7.733 Z-2.941
N1975 X18.66 Y7.732 Z-2.9
N1980 X18.64 Z-2.852
N1985 X18.633 Z-2.8
N1990 G0 Z5
N1995 X18.643 Y7.332
N2000 G1 Z-0.5 F600
N2005 Z-3.8
N2010 X18.65 Z-3.852
N2015 X18.67 Y7.333 Z-3.9
N2020 X18.702 Z-3.941
N2025 X18.743 Y7.334 Z-3.973
N2030 X18.791 Y7.336 Z-3.993
N2035 X18.843 Y7.337 Z-4
N2040 X19.043 Y7.342 F400
N2045 G3 X19.238 Y7.547 I-0.005 J0.2
N2050 X17.739 Y7.51 I-0.75 J-0.018 F600
N2055 X19.238 Y7.547 I0.75 J0.018
N2060 X19.033 Y7.742 I-0.2 J-0.005
N2065 G1 X18.833 Y7.737
N2070 X18.782 Y7.735 Z-3.993
N2075 X18.733 Y7.734 Z-3.973
N2080 X18.692 Y7.733 Z-3.941
N2085 X18.66 Y7.732 Z-3.9
N2090 X18.64 Z-3.852
N2095 X18.633 Z-3.8
N2100 G0 Z5
N2105 X16.442 Y62.336
N2110 G1 Z2.5 F600
N2115 Z-1.3
N2120 G18 G2 X16.642 Z-1.5 I0.2
N2125 G1 X16.842 F400
N2130 G17 G3 X17.042 Y62.536 J0.2
N2135 X15.542 I-0.75 F600
N2140 X17.042 I0.75
N2145 X16.842 Y62.736 I-0.2
N2150 G1 X16.642
N2155 G18 G3 X16.442 Z-1.3 K0.2
N2160 G0 Z5
N2165 Y62.336
N2170 G1 Z1 F600
N2175 Z-2.8
N2180 G2 X16.642 Z-3 I0.2
N2185 G1 X16.842 F400
N2190 G17 G3 X17.042 Y62.536 J0.2
N2195 X15.542 I-0.75 F600
N2200 X17.042 I0.75
N2205 X16.842 Y62.736 I-0.2
N2210 G1 X16.642
N2215 G18 G3 X16.442 Z-2.8 K0.2
N2220 G0 Z5
N2225 Y62.336
N2230 G1 Z-0.5 F600
N2235 Z-3.8
N2240 G2 X16.642 Z-4 I0.2
N2245 G1 X16.842 F400
N2250 G17 G3 X17.042 Y62.536 J0.2
N2255 X15.542 I-0.75 F600
N2260 X17.042 I0.75
N2265 X16.842 Y62.736 I-0.2
N2270 G1 X16.642
N2275 G18 G3 X16.442 Z-3.8 K0.2
N2280 G0 Z5
N2285 Y130.356
N2290 G1 Z2.5 F600
N2295 Z-1.3
N2300 G2 X16.642 Z-1.5 I0.2
N2305 G1 X16.842 F400
N2310 G17 G3 X17.042 Y130.556 J0.2
N2315 X15.542 I-0.75 F600
N2320 X17.042 I0.75
N2325 X16.842 Y130.756 I-0.2
N2330 G1 X16.642
N2335 G18 G3 X16.442 Z-1.3 K0.2
N2340 G0 Z5
N2345 Y130.356
N2350 G1 Z1 F600
N2355 Z-2.8
N2360 G2 X16.642 Z-3 I0.2
N2365 G1 X16.842 F400
N2370 G17 G3 X17.042 Y130.556 J0.2
N2375 X15.542 I-0.75 F600
N2380 X17.042 I0.75
N2385 X16.842 Y130.756 I-0.2
N2390 G1 X16.642
N2395 G18 G3 X16.442 Z-2.8 K0.2
N2400 G0 Z5
N2405 Y130.356
N2410 G1 Z-0.5 F600
N2415 Z-3.8
N2420 G2 X16.642 Z-4 I0.2
N2425 G1 X16.842 F400
N2430 G17 G3 X17.042 Y130.556 J0.2
N2435 X15.542 I-0.75 F600
N2440 X17.042 I0.75
N2445 X16.842 Y130.756 I-0.2
N2450 G1 X16.642
N2455 G18 G3 X16.442 Z-3.8 K0.2
N2460 G0 Z5
N2465 X18.643 Y185.367
N2470 G1 Z2.5 F600
N2475 Z-1.3
N2480 X18.65 Z-1.352
N2485 X18.67 Z-1.4
N2490 X18.702 Y185.368 Z-1.441
N2495 X18.743 Y185.369 Z-1.473
N2500 X18.791 Y185.37 Z-1.493
N2505 X18.843 Y185.372 Z-1.5
N2510 X19.043 Y185.377 F400
N2515 G17 G3 X19.238 Y185.581 I-0.005 J0.2
N2520 X17.739 Y185.545 I-0.75 J-0.018 F600
N2525 X19.238 Y185.581 I0.75 J0.018
N2530 X19.033 Y185.776 I-0.2 J-0.005
N2535 G1 X18.833 Y185.772
N2540 X18.782 Y185.77 Z-1.493
N2545 X18.733 Y185.769 Z-1.473
N2550 X18.692 Y185.768 Z-1.441
N2555 X18.66 Y185.767 Z-1.4
N2560 X18.64 Z-1.352
N2565 X18.633 Z-1.3
N2570 G0 Z5
N2575 X18.643 Y185.367
N2580 G1 Z1 F600
N2585 Z-2.8
N2590 X18.65 Z-2.852
N2595 X18.67 Z-2.9
N2600 X18.702 Y185.368 Z-2.941
N2605 X18.743 Y185.369 Z-2.973
N2610 X18.791 Y185.37 Z-2.993
N2615 X18.843 Y185.372 Z-3
N2620 X19.043 Y185.377 F400
N2625 G3 X19.238 Y185.581 I-0.005 J0.2
N2630 X17.739 Y185.545 I-0.75 J-0.018 F600
N2635 X19.238 Y185.581 I0.75 J0.018
N2640 X19.033 Y185.776 I-0.2 J-0.005
N2645 G1 X18.833 Y185.772
N2650 X18.782 Y185.77 Z-2.993
N2655 X18.733 Y185.769 Z-2.973
N2660 X18.692 Y185.768 Z-2.941
N2665 X18.66 Y185.767 Z-2.9
N2670 X18.64 Z-2.852
N2675 X18.633 Z-2.8
N2680 G0 Z5
N2685 X18.643 Y185.367
N2690 G1 Z-0.5 F600
N2695 Z-3.8
N2700 X18.65 Z-3.852
N2705 X18.67 Z-3.9
N2710 X18.702 Y185.368 Z-3.941
N2715 X18.743 Y185.369 Z-3.973
N2720 X18.791 Y185.37 Z-3.993
N2725 X18.843 Y185.372 Z-4
N2730 X19.043 Y185.377 F400
N2735 G3 X19.238 Y185.581 I-0.005 J0.2
N2740 X17.739 Y185.545 I-0.75 J-0.018 F600
N2745 X19.238 Y185.581 I0.75 J0.018
N2750 X19.033 Y185.776 I-0.2 J-0.005
N2755 G1 X18.833 Y185.772
N2760 X18.782 Y185.77 Z-3.993
N2765 X18.733 Y185.769 Z-3.973
N2770 X18.692 Y185.768 Z-3.941
N2775 X18.66 Y185.767 Z-3.9
N2780 X18.64 Z-3.852
N2785 X18.633 Z-3.8
N2790 G0 Z5
N2795 X78.643 Y185.367
N2800 G1 Z2.5 F600
N2805 Z-1.3
N2810 X78.65 Z-1.352
N2815 X78.67 Z-1.4
N2820 X78.702 Y185.368 Z-1.441
N2825 X78.743 Y185.369 Z-1.473
N2830 X78.791 Y185.37 Z-1.493
N2835 X78.843 Y185.372 Z-1.5
N2840 X79.043 Y185.377 F400
N2845 G3 X79.238 Y185.581 I-0.005 J0.2
N2850 X77.739 Y185.545 I-0.75 J-0.018 F600
N2855 X79.238 Y185.581 I0.75 J0.018
N2860 X79.033 Y185.776 I-0.2 J-0.005
N2865 G1 X78.833 Y185.772
N2870 X78.782 Y185.77 Z-1.493
N2875 X78.733 Y185.769 Z-1.473
N2880 X78.692 Y185.768 Z-1.441
N2885 X78.66 Y185.767 Z-1.4
N2890 X78.64 Z-1.352
N2895 X78.633 Z-1.3
N2900 G0 Z5
N2905 X78.643 Y185.367
N2910 G1 Z1 F600
N2915 Z-2.8
N2920 X78.65 Z-2.852
N2925 X78.67 Z-2.9
N2930 X78.702 Y185.368 Z-2.941
N2935 X78.743 Y185.369 Z-2.973
N2940 X78.791 Y185.37 Z-2.993
N2945 X78.843 Y185.372 Z-3
N2950 X79.043 Y185.377 F400
N2955 G3 X79.238 Y185.581 I-0.005 J0.2
N2960 X77.739 Y185.545 I-0.75 J-0.018 F600
N2965 X79.238 Y185.581 I0.75 J0.018
N2970 X79.033 Y185.776 I-0.2 J-0.005
N2975 G1 X78.833 Y185.772
N2980 X78.782 Y185.77 Z-2.993
N2985 X78.733 Y185.769 Z-2.973
N2990 X78.692 Y185.768 Z-2.941
N2995 X78.66 Y185.767 Z-2.9
N3000 X78.64 Z-2.852
N3005 X78.633 Z-2.8
N3010 G0 Z5
N3015 X78.643 Y185.367
N3020 G1 Z-0.5 F600
N3025 Z-3.8
N3030 X78.65 Z-3.852
N3035 X78.67 Z-3.9
N3040 X78.702 Y185.368 Z-3.941
N3045 X78.743 Y185.369 Z-3.973
N3050 X78.791 Y185.37 Z-3.993
N3055 X78.843 Y185.372 Z-4
N3060 X79.043 Y185.377 F400
N3065 G3 X79.238 Y185.581 I-0.005 J0.2
N3070 X77.739 Y185.545 I-0.75 J-0.018 F600
N3075 X79.238 Y185.581 I0.75 J0.018
N3080 X79.033 Y185.776 I-0.2 J-0.005
N3085 G1 X78.833 Y185.772
N3090 X78.782 Y185.77 Z-3.993
N3095 X78.733 Y185.769 Z-3.973
N3100 X78.692 Y185.768 Z-3.941
N3105 X78.66 Y185.767 Z-3.9
N3110 X78.64 Z-3.852
N3115 X78.633 Z-3.8
N3120 G0 Z15
N3125 M9
N3130 G28
N3135 M30
%
