%
(1001)
(T2 D=4 CR=0 - ZMIN=-9.1 - flat end mill)
N10 G90 G94
N15 G17
N20 G21
N25 M9
N30 G28

(2D ??28)
N35 T2 M6
N40 S10000 M3
N45 G54
N50 M8
N55 G0 X21.45 Y92.832
N60 G43 Z15
N65 Z5
N70 G1 Z1.5 F300
N75 Z-0.1
N80 G18 G3 X21.05 Z-0.5 I-0.4
N85 G1 X20.65
N90 G17 G3 X20.25 Y92.432 J-0.4
N95 G1 Y86.932
N100 G3 X20.65 Y86.532 I0.4
N105 G1 X21.05
N110 G18 G2 X21.45 Z-0.1 K0.4
N115 G0 Z5
N120 Y92.832
N125 G1 Z1 F300
N130 Z-0.6
N135 G3 X21.05 Z-1 I-0.4
N140 G1 X20.65
N145 G17 G3 X20.25 Y92.432 J-0.4
N150 G1 Y86.932
N155 G3 X20.65 Y86.532 I0.4
N160 G1 X21.05
N165 G18 G2 X21.45 Z-0.6 K0.4
N170 G0 Z5
N175 Y92.832
N180 G1 Z0.5 F300
N185 Z-1.1
N190 G3 X21.05 Z-1.5 I-0.4
N195 G1 X20.65
N200 G17 G3 X20.25 Y92.432 J-0.4
N205 G1 Y86.932
N210 G3 X20.65 Y86.532 I0.4
N215 G1 X21.05
N220 G18 G2 X21.45 Z-1.1 K0.4
N225 G0 Z5
N230 Y92.832
N235 G1 Z0 F300
N240 Z-1.6
N245 G3 X21.05 Z-2 I-0.4
N250 G1 X20.65
N255 G17 G3 X20.25 Y92.432 J-0.4
N260 G1 Y86.932
N265 G3 X20.65 Y86.532 I0.4
N270 G1 X21.05
N275 G18 G2 X21.45 Z-1.6 K0.4
N280 G0 Z5
N285 Y92.832
N290 G1 Z-0.5 F300
N295 Z-2.1
N300 G3 X21.05 Z-2.5 I-0.4
N305 G1 X20.65
N310 G17 G3 X20.25 Y92.432 J-0.4
N315 G1 Y86.932
N320 G3 X20.65 Y86.532 I0.4
N325 G1 X21.05
N330 G18 G2 X21.45 Z-2.1 K0.4
N335 G0 Z5
N340 Y92.832
N345 G1 Z-1 F300
N350 Z-2.6
N355 G3 X21.05 Z-3 I-0.4
N360 G1 X20.65
N365 G17 G3 X20.25 Y92.432 J-0.4
N370 G1 Y86.932
N375 G3 X20.65 Y86.532 I0.4
N380 G1 X21.05
N385 G18 G2 X21.45 Z-2.6 K0.4
N390 G0 Z5
N395 Y92.832
N400 G1 Z-1.5 F300
N405 Z-3.1
N410 G3 X21.05 Z-3.5 I-0.4
N415 G1 X20.65
N420 G17 G3 X20.25 Y92.432 J-0.4
N425 G1 Y86.932
N430 G3 X20.65 Y86.532 I0.4
N435 G1 X21.05
N440 G18 G2 X21.45 Z-3.1 K0.4
N445 G0 Z5
N450 Y92.832
N455 G1 Z-2 F300
N460 Z-3.6
N465 G3 X21.05 Z-4 I-0.4
N470 G1 X20.65
N475 G17 G3 X20.25 Y92.432 J-0.4
N480 G1 Y86.932
N485 G3 X20.65 Y86.532 I0.4
N490 G1 X21.05
N495 G18 G2 X21.45 Z-3.6 K0.4
N500 G0 Z5
N505 Y92.832
N510 G1 Z-2.5 F300
N515 Z-4.1
N520 G3 X21.05 Z-4.5 I-0.4
N525 G1 X20.65
N530 G17 G3 X20.25 Y92.432 J-0.4
N535 G1 Y86.932
N540 G3 X20.65 Y86.532 I0.4
N545 G1 X21.05
N550 G18 G2 X21.45 Z-4.1 K0.4
N555 G0 Z5
N560 Y92.832
N565 G1 Z-3 F300
N570 Z-4.6
N575 G3 X21.05 Z-5 I-0.4
N580 G1 X20.65
N585 G17 G3 X20.25 Y92.432 J-0.4
N590 G1 Y86.932
N595 G3 X20.65 Y86.532 I0.4
N600 G1 X21.05
N605 G18 G2 X21.45 Z-4.6 K0.4
N610 G0 Z5
N615 Y92.832
N620 G1 Z-3.5 F300
N625 Z-5.1
N630 G3 X21.05 Z-5.5 I-0.4
N635 G1 X20.65
N640 G17 G3 X20.25 Y92.432 J-0.4
N645 G1 Y86.932
N650 G3 X20.65 Y86.532 I0.4
N655 G1 X21.05
N660 G18 G2 X21.45 Z-5.1 K0.4
N665 G0 Z5
N670 Y92.832
N675 G1 Z-4 F300
N680 Z-5.6
N685 G3 X21.05 Z-6 I-0.4
N690 G1 X20.65
N695 G17 G3 X20.25 Y92.432 J-0.4
N700 G1 Y86.932
N705 G3 X20.65 Y86.532 I0.4
N710 G1 X21.05
N715 G18 G2 X21.45 Z-5.6 K0.4
N720 G0 Z5
N725 Y92.832
N730 G1 Z-4.5 F300
N735 Z-6.1
N740 G3 X21.05 Z-6.5 I-0.4
N745 G1 X20.65
N750 G17 G3 X20.25 Y92.432 J-0.4
N755 G1 Y86.932
N760 G3 X20.65 Y86.532 I0.4
N765 G1 X21.05
N770 G18 G2 X21.45 Z-6.1 K0.4
N775 G0 Z5
N780 Y92.832
N785 G1 Z-5 F300
N790 Z-6.6
N795 G3 X21.05 Z-7 I-0.4
N800 G1 X20.65
N805 G17 G3 X20.25 Y92.432 J-0.4
N810 G1 Y86.932
N815 G3 X20.65 Y86.532 I0.4
N820 G1 X21.05
N825 G18 G2 X21.45 Z-6.6 K0.4
N830 G0 Z5
N835 Y92.832
N840 G1 Z-5.5 F300
N845 Z-7.1
N850 G3 X21.05 Z-7.5 I-0.4
N855 G1 X20.65
N860 G17 G3 X20.25 Y92.432 J-0.4
N865 G1 Y86.932
N870 G3 X20.65 Y86.532 I0.4
N875 G1 X21.05
N880 G18 G2 X21.45 Z-7.1 K0.4
N885 G0 Z5
N890 Y92.832
N895 G1 Z-6 F300
N900 Z-7.6
N905 G3 X21.05 Z-8 I-0.4
N910 G1 X20.65
N915 G17 G3 X20.25 Y92.432 J-0.4
N920 G1 Y86.932
N925 G3 X20.65 Y86.532 I0.4
N930 G1 X21.05
N935 G18 G2 X21.45 Z-7.6 K0.4
N940 G0 Z5
N945 Y92.832
N950 G1 Z-6.5 F300
N955 Z-8.1
N960 G3 X21.05 Z-8.5 I-0.4
N965 G1 X20.65
N970 G17 G3 X20.25 Y92.432 J-0.4
N975 G1 Y86.932
N980 G3 X20.65 Y86.532 I0.4
N985 G1 X21.05
N990 G18 G2 X21.45 Z-8.1 K0.4
N995 G0 Z5
N1000 Y92.832
N1005 G1 Z-7 F300
N1010 Z-8.4
N1015 G3 X21.05 Z-8.8 I-0.4
N1020 G1 X20.65
N1025 G17 G3 X20.25 Y92.432 J-0.4
N1030 G1 Y86.932
N1035 G3 X20.65 Y86.532 I0.4
N1040 G1 X21.05
N1045 G18 G2 X21.45 Z-8.4 K0.4
N1050 G0 Z5
N1055 Y92.832
N1060 G1 Z-7.3 F300
N1065 Z-8.7
N1070 G3 X21.05 Z-9.1 I-0.4
N1075 G1 X20.65
N1080 G17 G3 X20.25 Y92.432 J-0.4
N1085 G1 Y86.932
N1090 G3 X20.65 Y86.532 I0.4
N1095 G1 X21.05
N1100 G18 G2 X21.45 Z-8.7 K0.4
N1105 G0 Z5
N1110 X7.55
N1115 G1 Z1.5 F300
N1120 Z-0.1
N1125 G2 X7.95 Z-0.5 I0.4
N1130 G1 X8.35
N1135 G17 G3 X8.75 Y86.932 J0.4
N1140 G1 Y92.432
N1145 G3 X8.35 Y92.832 I-0.4
N1150 G1 X7.95
N1155 G18 G3 X7.55 Z-0.1 K0.4
N1160 G0 Z5
N1165 Y86.532
N1170 G1 Z1 F300
N1175 Z-0.6
N1180 G2 X7.95 Z-1 I0.4
N1185 G1 X8.35
N1190 G17 G3 X8.75 Y86.932 J0.4
N1195 G1 Y92.432
N1200 G3 X8.35 Y92.832 I-0.4
N1205 G1 X7.95
N1210 G18 G3 X7.55 Z-0.6 K0.4
N1215 G0 Z5
N1220 Y86.532
N1225 G1 Z0.5 F300
N1230 Z-1.1
N1235 G2 X7.95 Z-1.5 I0.4
N1240 G1 X8.35
N1245 G17 G3 X8.75 Y86.932 J0.4
N1250 G1 Y92.432
N1255 G3 X8.35 Y92.832 I-0.4
N1260 G1 X7.95
N1265 G18 G3 X7.55 Z-1.1 K0.4
N1270 G0 Z5
N1275 Y86.532
N1280 G1 Z0 F300
N1285 Z-1.6
N1290 G2 X7.95 Z-2 I0.4
N1295 G1 X8.35
N1300 G17 G3 X8.75 Y86.932 J0.4
N1305 G1 Y92.432
N1310 G3 X8.35 Y92.832 I-0.4
N1315 G1 X7.95
N1320 G18 G3 X7.55 Z-1.6 K0.4
N1325 G0 Z5
N1330 Y86.532
N1335 G1 Z-0.5 F300
N1340 Z-2.1
N1345 G2 X7.95 Z-2.5 I0.4
N1350 G1 X8.35
N1355 G17 G3 X8.75 Y86.932 J0.4
N1360 G1 Y92.432
N1365 G3 X8.35 Y92.832 I-0.4
N1370 G1 X7.95
N1375 G18 G3 X7.55 Z-2.1 K0.4
N1380 G0 Z5
N1385 Y86.532
N1390 G1 Z-1 F300
N1395 Z-2.6
N1400 G2 X7.95 Z-3 I0.4
N1405 G1 X8.35
N1410 G17 G3 X8.75 Y86.932 J0.4
N1415 G1 Y92.432
N1420 G3 X8.35 Y92.832 I-0.4
N1425 G1 X7.95
N1430 G18 G3 X7.55 Z-2.6 K0.4
N1435 G0 Z5
N1440 Y86.532
N1445 G1 Z-1.5 F300
N1450 Z-3.1
N1455 G2 X7.95 Z-3.5 I0.4
N1460 G1 X8.35
N1465 G17 G3 X8.75 Y86.932 J0.4
N1470 G1 Y92.432
N1475 G3 X8.35 Y92.832 I-0.4
N1480 G1 X7.95
N1485 G18 G3 X7.55 Z-3.1 K0.4
N1490 G0 Z5
N1495 Y86.532
N1500 G1 Z-2 F300
N1505 Z-3.6
N1510 G2 X7.95 Z-4 I0.4
N1515 G1 X8.35
N1520 G17 G3 X8.75 Y86.932 J0.4
N1525 G1 Y92.432
N1530 G3 X8.35 Y92.832 I-0.4
N1535 G1 X7.95
N1540 G18 G3 X7.55 Z-3.6 K0.4
N1545 G0 Z5
N1550 Y86.532
N1555 G1 Z-2.5 F300
N1560 Z-4.1
N1565 G2 X7.95 Z-4.5 I0.4
N1570 G1 X8.35
N1575 G17 G3 X8.75 Y86.932 J0.4
N1580 G1 Y92.432
N1585 G3 X8.35 Y92.832 I-0.4
N1590 G1 X7.95
N1595 G18 G3 X7.55 Z-4.1 K0.4
N1600 G0 Z5
N1605 Y86.532
N1610 G1 Z-3 F300
N1615 Z-4.6
N1620 G2 X7.95 Z-5 I0.4
N1625 G1 X8.35
N1630 G17 G3 X8.75 Y86.932 J0.4
N1635 G1 Y92.432
N1640 G3 X8.35 Y92.832 I-0.4
N1645 G1 X7.95
N1650 G18 G3 X7.55 Z-4.6 K0.4
N1655 G0 Z5
N1660 Y86.532
N1665 G1 Z-3.5 F300
N1670 Z-5.1
N1675 G2 X7.95 Z-5.5 I0.4
N1680 G1 X8.35
N1685 G17 G3 X8.75 Y86.932 J0.4
N1690 G1 Y92.432
N1695 G3 X8.35 Y92.832 I-0.4
N1700 G1 X7.95
N1705 G18 G3 X7.55 Z-5.1 K0.4
N1710 G0 Z5
N1715 Y86.532
N1720 G1 Z-4 F300
N1725 Z-5.6
N1730 G2 X7.95 Z-6 I0.4
N1735 G1 X8.35
N1740 G17 G3 X8.75 Y86.932 J0.4
N1745 G1 Y92.432
N1750 G3 X8.35 Y92.832 I-0.4
N1755 G1 X7.95
N1760 G18 G3 X7.55 Z-5.6 K0.4
N1765 G0 Z5
N1770 Y86.532
N1775 G1 Z-4.5 F300
N1780 Z-6.1
N1785 G2 X7.95 Z-6.5 I0.4
N1790 G1 X8.35
N1795 G17 G3 X8.75 Y86.932 J0.4
N1800 G1 Y92.432
N1805 G3 X8.35 Y92.832 I-0.4
N1810 G1 X7.95
N1815 G18 G3 X7.55 Z-6.1 K0.4
N1820 G0 Z5
N1825 Y86.532
N1830 G1 Z-5 F300
N1835 Z-6.6
N1840 G2 X7.95 Z-7 I0.4
N1845 G1 X8.35
N1850 G17 G3 X8.75 Y86.932 J0.4
N1855 G1 Y92.432
N1860 G3 X8.35 Y92.832 I-0.4
N1865 G1 X7.95
N1870 G18 G3 X7.55 Z-6.6 K0.4
N1875 G0 Z5
N1880 Y86.532
N1885 G1 Z-5.5 F300
N1890 Z-7.1
N1895 G2 X7.95 Z-7.5 I0.4
N1900 G1 X8.35
N1905 G17 G3 X8.75 Y86.932 J0.4
N1910 G1 Y92.432
N1915 G3 X8.35 Y92.832 I-0.4
N1920 G1 X7.95
N1925 G18 G3 X7.55 Z-7.1 K0.4
N1930 G0 Z5
N1935 Y86.532
N1940 G1 Z-6 F300
N1945 Z-7.6
N1950 G2 X7.95 Z-8 I0.4
N1955 G1 X8.35
N1960 G17 G3 X8.75 Y86.932 J0.4
N1965 G1 Y92.432
N1970 G3 X8.35 Y92.832 I-0.4
N1975 G1 X7.95
N1980 G18 G3 X7.55 Z-7.6 K0.4
N1985 G0 Z5
N1990 Y86.532
N1995 G1 Z-6.5 F300
N2000 Z-8.1
N2005 G2 X7.95 Z-8.5 I0.4
N2010 G1 X8.35
N2015 G17 G3 X8.75 Y86.932 J0.4
N2020 G1 Y92.432
N2025 G3 X8.35 Y92.832 I-0.4
N2030 G1 X7.95
N2035 G18 G3 X7.55 Z-8.1 K0.4
N2040 G0 Z5
N2045 Y86.532
N2050 G1 Z-7 F300
N2055 Z-8.4
N2060 G2 X7.95 Z-8.8 I0.4
N2065 G1 X8.35
N2070 G17 G3 X8.75 Y86.932 J0.4
N2075 G1 Y92.432
N2080 G3 X8.35 Y92.832 I-0.4
N2085 G1 X7.95
N2090 G18 G3 X7.55 Z-8.4 K0.4
N2095 G0 Z5
N2100 Y86.532
N2105 G1 Z-7.3 F300
N2110 Z-8.7
N2115 G2 X7.95 Z-9.1 I0.4
N2120 G1 X8.35
N2125 G17 G3 X8.75 Y86.932 J0.4
N2130 G1 Y92.432
N2135 G3 X8.35 Y92.832 I-0.4
N2140 G1 X7.95
N2145 G18 G3 X7.55 Z-8.7 K0.4
N2150 G0 Z15
N2155 G17

(2D ????15)
N2160 G0 X9.347 Y89.166
N2165 Z15
N2170 Z5
N2175 G1 Z-0.14 F300
N2180 X9.353 Y89.164 Z-0.21
N2185 X9.374 Y89.161 Z-0.278
N2190 X9.406 Y89.156 Z-0.34
N2195 X9.451 Y89.149 Z-0.395
N2200 X9.505 Y89.141 Z-0.439
N2205 X9.566 Y89.131 Z-0.473
N2210 X9.633 Y89.12 Z-0.493
N2215 X9.702 Y89.109 Z-0.5
N2220 X10.79 Y88.937
N2225 X10.853 Y88.932
N2230 X16.25
N2235 X18.143
N2240 G3 X18.343 Y89.131 J0.2
N2245 G1 X18.347 Y90.231
N2250 G3 X18.147 Y90.432 I-0.2 J0.001
N2255 G1 X12.75
N2260 X10.857
N2265 X10.81 Y90.426
N2270 X10.765 Y90.41
N2275 X10.726 Y90.383
N2280 X10.694 Y90.348
N2285 X9.951 Y89.306
N2290 G3 X10.098 Y88.991 I0.163 J-0.116
N2295 G1 X10.176 Y88.985 Z-0.508
N2300 X10.251 Y88.979 Z-0.531
N2305 X10.321 Y88.973 Z-0.568
N2310 X10.381 Y88.968 Z-0.619
N2315 X10.431 Y88.965 Z-0.68
N2320 X10.467 Y88.962 Z-0.75
N2325 X10.504 Y88.959 Z-0.82
N2330 X10.554 Y88.955 Z-0.881
N2335 X10.614 Y88.95 Z-0.932
N2340 X10.683 Y88.945 Z-0.969
N2345 X10.759 Y88.939 Z-0.992
N2350 X10.837 Y88.933 Z-1
N2355 X10.853 Y88.932
N2360 X16.25
N2365 X18.143
N2370 G3 X18.343 Y89.131 J0.2
N2375 G1 X18.347 Y90.231
N2380 G3 X18.147 Y90.432 I-0.2 J0.001
N2385 G1 X12.75
N2390 X10.857
N2395 X10.81 Y90.426
N2400 X10.765 Y90.41
N2405 X10.726 Y90.383
N2410 X10.694 Y90.348
N2415 X9.951 Y89.306
N2420 G3 X10.098 Y88.991 I0.163 J-0.116
N2425 G1 X10.176 Y88.985 Z-1.008
N2430 X10.251 Y88.979 Z-1.031
N2435 X10.321 Y88.973 Z-1.068
N2440 X10.381 Y88.968 Z-1.119
N2445 X10.431 Y88.965 Z-1.18
N2450 X10.467 Y88.962 Z-1.25
N2455 X10.504 Y88.959 Z-1.32
N2460 X10.554 Y88.955 Z-1.381
N2465 X10.614 Y88.95 Z-1.432
N2470 X10.683 Y88.945 Z-1.469
N2475 X10.759 Y88.939 Z-1.492
N2480 X10.837 Y88.933 Z-1.5
N2485 X10.853 Y88.932
N2490 X16.25
N2495 X18.143
N2500 G3 X18.343 Y89.131 J0.2
N2505 G1 X18.347 Y90.231
N2510 G3 X18.147 Y90.432 I-0.2 J0.001
N2515 G1 X12.75
N2520 X10.857
N2525 X10.81 Y90.426
N2530 X10.765 Y90.41
N2535 X10.726 Y90.383
N2540 X10.694 Y90.348
N2545 X9.951 Y89.306
N2550 G3 X10.098 Y88.991 I0.163 J-0.116
N2555 G1 X10.176 Y88.985 Z-1.508
N2560 X10.251 Y88.979 Z-1.531
N2565 X10.321 Y88.973 Z-1.568
N2570 X10.381 Y88.968 Z-1.619
N2575 X10.431 Y88.965 Z-1.68
N2580 X10.467 Y88.962 Z-1.75
N2585 X10.504 Y88.959 Z-1.82
N2590 X10.554 Y88.955 Z-1.881
N2595 X10.614 Y88.95 Z-1.932
N2600 X10.683 Y88.945 Z-1.969
N2605 X10.759 Y88.939 Z-1.992
N2610 X10.837 Y88.933 Z-2
N2615 X10.853 Y88.932
N2620 X16.25
N2625 X18.143
N2630 G3 X18.343 Y89.131 J0.2
N2635 G1 X18.347 Y90.231
N2640 G3 X18.147 Y90.432 I-0.2 J0.001
N2645 G1 X12.75
N2650 X10.857
N2655 X10.81 Y90.426
N2660 X10.765 Y90.41
N2665 X10.726 Y90.383
N2670 X10.694 Y90.348
N2675 X9.951 Y89.306
N2680 G3 X10.098 Y88.991 I0.163 J-0.116
N2685 G1 X10.176 Y88.985 Z-2.008
N2690 X10.251 Y88.979 Z-2.031
N2695 X10.321 Y88.973 Z-2.068
N2700 X10.381 Y88.968 Z-2.119
N2705 X10.431 Y88.965 Z-2.18
N2710 X10.467 Y88.962 Z-2.25
N2715 X10.504 Y88.959 Z-2.32
N2720 X10.554 Y88.955 Z-2.381
N2725 X10.614 Y88.95 Z-2.432
N2730 X10.683 Y88.945 Z-2.469
N2735 X10.759 Y88.939 Z-2.492
N2740 X10.837 Y88.933 Z-2.5
N2745 X10.853 Y88.932
N2750 X16.25
N2755 X18.143
N2760 G3 X18.343 Y89.131 J0.2
N2765 G1 X18.347 Y90.231
N2770 G3 X18.147 Y90.432 I-0.2 J0.001
N2775 G1 X12.75
N2780 X10.857
N2785 X10.81 Y90.426
N2790 X10.765 Y90.41
N2795 X10.726 Y90.383
N2800 X10.694 Y90.348
N2805 X9.951 Y89.306
N2810 G3 X10.098 Y88.991 I0.163 J-0.116
N2815 G1 X10.176 Y88.985 Z-2.508
N2820 X10.251 Y88.979 Z-2.531
N2825 X10.321 Y88.973 Z-2.568
N2830 X10.381 Y88.968 Z-2.619
N2835 X10.431 Y88.965 Z-2.68
N2840 X10.467 Y88.962 Z-2.75
N2845 X10.504 Y88.959 Z-2.82
N2850 X10.554 Y88.955 Z-2.881
N2855 X10.614 Y88.95 Z-2.932
N2860 X10.683 Y88.945 Z-2.969
N2865 X10.759 Y88.939 Z-2.992
N2870 X10.837 Y88.933 Z-3
N2875 X10.853 Y88.932
N2880 X16.25
N2885 X18.143
N2890 G3 X18.343 Y89.131 J0.2
N2895 G1 X18.347 Y90.231
N2900 G3 X18.147 Y90.432 I-0.2 J0.001
N2905 G1 X12.75
N2910 X10.857
N2915 X10.81 Y90.426
N2920 X10.765 Y90.41
N2925 X10.726 Y90.383
N2930 X10.694 Y90.348
N2935 X9.951 Y89.306
N2940 G3 X10.098 Y88.991 I0.163 J-0.116
N2945 G1 X10.176 Y88.985 Z-3.008
N2950 X10.251 Y88.979 Z-3.031
N2955 X10.321 Y88.973 Z-3.068
N2960 X10.381 Y88.968 Z-3.119
N2965 X10.431 Y88.965 Z-3.18
N2970 X10.467 Y88.962 Z-3.25
N2975 X10.504 Y88.959 Z-3.32
N2980 X10.554 Y88.955 Z-3.381
N2985 X10.614 Y88.95 Z-3.432
N2990 X10.683 Y88.945 Z-3.469
N2995 X10.759 Y88.939 Z-3.492
N3000 X10.837 Y88.933 Z-3.5
N3005 X10.853 Y88.932
N3010 X16.25
N3015 X18.143
N3020 G3 X18.343 Y89.131 J0.2
N3025 G1 X18.347 Y90.231
N3030 G3 X18.147 Y90.432 I-0.2 J0.001
N3035 G1 X12.75
N3040 X10.857
N3045 X10.81 Y90.426
N3050 X10.765 Y90.41
N3055 X10.726 Y90.383
N3060 X10.694 Y90.348
N3065 X9.951 Y89.306
N3070 G3 X10.098 Y88.991 I0.163 J-0.116
N3075 G1 X10.176 Y88.985 Z-3.508
N3080 X10.251 Y88.979 Z-3.531
N3085 X10.321 Y88.973 Z-3.568
N3090 X10.381 Y88.968 Z-3.619
N3095 X10.431 Y88.965 Z-3.68
N3100 X10.467 Y88.962 Z-3.75
N3105 X10.504 Y88.959 Z-3.82
N3110 X10.554 Y88.955 Z-3.881
N3115 X10.614 Y88.95 Z-3.932
N3120 X10.683 Y88.945 Z-3.969
N3125 X10.759 Y88.939 Z-3.992
N3130 X10.837 Y88.933 Z-4
N3135 X10.853 Y88.932
N3140 X16.25
N3145 X18.143
N3150 G3 X18.343 Y89.131 J0.2
N3155 G1 X18.347 Y90.231
N3160 G3 X18.147 Y90.432 I-0.2 J0.001
N3165 G1 X12.75
N3170 X10.857
N3175 X10.81 Y90.426
N3180 X10.765 Y90.41
N3185 X10.726 Y90.383
N3190 X10.694 Y90.348
N3195 X9.951 Y89.306
N3200 G3 X10.098 Y88.991 I0.163 J-0.116
N3205 G1 X10.176 Y88.985 Z-4.008
N3210 X10.251 Y88.979 Z-4.031
N3215 X10.321 Y88.973 Z-4.068
N3220 X10.381 Y88.968 Z-4.119
N3225 X10.431 Y88.965 Z-4.18
N3230 X10.467 Y88.962 Z-4.25
N3235 X10.504 Y88.959 Z-4.32
N3240 X10.554 Y88.955 Z-4.381
N3245 X10.614 Y88.95 Z-4.432
N3250 X10.683 Y88.945 Z-4.469
N3255 X10.759 Y88.939 Z-4.492
N3260 X10.837 Y88.933 Z-4.5
N3265 X10.853 Y88.932
N3270 X16.25
N3275 X18.143
N3280 G3 X18.343 Y89.131 J0.2
N3285 G1 X18.347 Y90.231
N3290 G3 X18.147 Y90.432 I-0.2 J0.001
N3295 G1 X12.75
N3300 X10.857
N3305 X10.81 Y90.426
N3310 X10.765 Y90.41
N3315 X10.726 Y90.383
N3320 X10.694 Y90.348
N3325 X9.951 Y89.306
N3330 G3 X10.098 Y88.991 I0.163 J-0.116
N3335 G1 X10.176 Y88.985 Z-4.508
N3340 X10.251 Y88.979 Z-4.531
N3345 X10.321 Y88.973 Z-4.568
N3350 X10.381 Y88.968 Z-4.619
N3355 X10.431 Y88.965 Z-4.68
N3360 X10.467 Y88.962 Z-4.75
N3365 X10.504 Y88.959 Z-4.82
N3370 X10.554 Y88.955 Z-4.881
N3375 X10.614 Y88.95 Z-4.932
N3380 X10.683 Y88.945 Z-4.969
N3385 X10.759 Y88.939 Z-4.992
N3390 X10.837 Y88.933 Z-5
N3395 X10.853 Y88.932
N3400 X16.25
N3405 X18.143
N3410 G3 X18.343 Y89.131 J0.2
N3415 G1 X18.347 Y90.231
N3420 G3 X18.147 Y90.432 I-0.2 J0.001
N3425 G1 X12.75
N3430 X10.857
N3435 X10.81 Y90.426
N3440 X10.765 Y90.41
N3445 X10.726 Y90.383
N3450 X10.694 Y90.348
N3455 X9.951 Y89.306
N3460 G3 X10.098 Y88.991 I0.163 J-0.116
N3465 G1 X10.176 Y88.985 Z-5.008
N3470 X10.251 Y88.979 Z-5.031
N3475 X10.321 Y88.973 Z-5.068
N3480 X10.381 Y88.968 Z-5.119
N3485 X10.431 Y88.965 Z-5.18
N3490 X10.467 Y88.962 Z-5.25
N3495 X10.504 Y88.959 Z-5.32
N3500 X10.554 Y88.955 Z-5.381
N3505 X10.614 Y88.95 Z-5.432
N3510 X10.683 Y88.945 Z-5.469
N3515 X10.759 Y88.939 Z-5.492
N3520 X10.837 Y88.933 Z-5.5
N3525 X10.853 Y88.932
N3530 X16.25
N3535 X18.143
N3540 G3 X18.343 Y89.131 J0.2
N3545 G1 X18.347 Y90.231
N3550 G3 X18.147 Y90.432 I-0.2 J0.001
N3555 G1 X12.75
N3560 X10.857
N3565 X10.81 Y90.426
N3570 X10.765 Y90.41
N3575 X10.726 Y90.383
N3580 X10.694 Y90.348
N3585 X9.951 Y89.306
N3590 G3 X10.098 Y88.991 I0.163 J-0.116
N3595 G1 X10.176 Y88.985 Z-5.508
N3600 X10.251 Y88.979 Z-5.531
N3605 X10.321 Y88.973 Z-5.568
N3610 X10.381 Y88.968 Z-5.619
N3615 X10.431 Y88.965 Z-5.68
N3620 X10.467 Y88.962 Z-5.75
N3625 X10.504 Y88.959 Z-5.82
N3630 X10.554 Y88.955 Z-5.881
N3635 X10.614 Y88.95 Z-5.932
N3640 X10.683 Y88.945 Z-5.969
N3645 X10.759 Y88.939 Z-5.992
N3650 X10.837 Y88.933 Z-6
N3655 X10.853 Y88.932
N3660 X16.25
N3665 X18.143
N3670 G3 X18.343 Y89.131 J0.2
N3675 G1 X18.347 Y90.231
N3680 G3 X18.147 Y90.432 I-0.2 J0.001
N3685 G1 X12.75
N3690 X10.857
N3695 X10.81 Y90.426
N3700 X10.765 Y90.41
N3705 X10.726 Y90.383
N3710 X10.694 Y90.348
N3715 X9.951 Y89.306
N3720 G3 X10.098 Y88.991 I0.163 J-0.116
N3725 G1 X10.176 Y88.985 Z-6.008
N3730 X10.251 Y88.979 Z-6.031
N3735 X10.321 Y88.973 Z-6.068
N3740 X10.381 Y88.968 Z-6.119
N3745 X10.431 Y88.965 Z-6.18
N3750 X10.467 Y88.962 Z-6.25
N3755 X10.504 Y88.959 Z-6.32
N3760 X10.554 Y88.955 Z-6.381
N3765 X10.614 Y88.95 Z-6.432
N3770 X10.683 Y88.945 Z-6.469
N3775 X10.759 Y88.939 Z-6.492
N3780 X10.837 Y88.933 Z-6.5
N3785 X10.853 Y88.932
N3790 X16.25
N3795 X18.143
N3800 G3 X18.343 Y89.131 J0.2
N3805 G1 X18.347 Y90.231
N3810 G3 X18.147 Y90.432 I-0.2 J0.001
N3815 G1 X12.75
N3820 X10.857
N3825 X10.81 Y90.426
N3830 X10.765 Y90.41
N3835 X10.726 Y90.383
N3840 X10.694 Y90.348
N3845 X9.951 Y89.306
N3850 G3 X10.098 Y88.991 I0.163 J-0.116
N3855 G1 X10.176 Y88.985 Z-6.508
N3860 X10.251 Y88.979 Z-6.531
N3865 X10.321 Y88.973 Z-6.568
N3870 X10.381 Y88.968 Z-6.619
N3875 X10.431 Y88.965 Z-6.68
N3880 X10.467 Y88.962 Z-6.75
N3885 X10.504 Y88.959 Z-6.82
N3890 X10.554 Y88.955 Z-6.881
N3895 X10.614 Y88.95 Z-6.932
N3900 X10.683 Y88.945 Z-6.969
N3905 X10.759 Y88.939 Z-6.992
N3910 X10.837 Y88.933 Z-7
N3915 X10.853 Y88.932
N3920 X16.25
N3925 X18.143
N3930 G3 X18.343 Y89.131 J0.2
N3935 G1 X18.347 Y90.231
N3940 G3 X18.147 Y90.432 I-0.2 J0.001
N3945 G1 X12.75
N3950 X10.857
N3955 X10.81 Y90.426
N3960 X10.765 Y90.41
N3965 X10.726 Y90.383
N3970 X10.694 Y90.348
N3975 X9.951 Y89.306
N3980 G3 X10.098 Y88.991 I0.163 J-0.116
N3985 G1 X10.176 Y88.985 Z-7.008
N3990 X10.251 Y88.979 Z-7.031
N3995 X10.321 Y88.973 Z-7.068
N4000 X10.381 Y88.968 Z-7.119
N4005 X10.431 Y88.965 Z-7.18
N4010 X10.467 Y88.962 Z-7.25
N4015 X10.504 Y88.959 Z-7.32
N4020 X10.554 Y88.955 Z-7.381
N4025 X10.614 Y88.95 Z-7.432
N4030 X10.683 Y88.945 Z-7.469
N4035 X10.759 Y88.939 Z-7.492
N4040 X10.837 Y88.933 Z-7.5
N4045 X10.853 Y88.932
N4050 X16.25
N4055 X18.143
N4060 G3 X18.343 Y89.131 J0.2
N4065 G1 X18.347 Y90.231
N4070 G3 X18.147 Y90.432 I-0.2 J0.001
N4075 G1 X12.75
N4080 X10.857
N4085 X10.81 Y90.426
N4090 X10.765 Y90.41
N4095 X10.726 Y90.383
N4100 X10.694 Y90.348
N4105 X9.951 Y89.306
N4110 G3 X10.098 Y88.991 I0.163 J-0.116
N4115 G1 X10.176 Y88.985 Z-7.508
N4120 X10.251 Y88.979 Z-7.531
N4125 X10.321 Y88.973 Z-7.568
N4130 X10.381 Y88.968 Z-7.619
N4135 X10.431 Y88.965 Z-7.68
N4140 X10.467 Y88.962 Z-7.75
N4145 X10.504 Y88.959 Z-7.82
N4150 X10.554 Y88.955 Z-7.881
N4155 X10.614 Y88.95 Z-7.932
N4160 X10.683 Y88.945 Z-7.969
N4165 X10.759 Y88.939 Z-7.992
N4170 X10.837 Y88.933 Z-8
N4175 X10.853 Y88.932
N4180 X16.25
N4185 X18.143
N4190 G3 X18.343 Y89.131 J0.2
N4195 G1 X18.347 Y90.231
N4200 G3 X18.147 Y90.432 I-0.2 J0.001
N4205 G1 X12.75
N4210 X10.857
N4215 X10.81 Y90.426
N4220 X10.765 Y90.41
N4225 X10.726 Y90.383
N4230 X10.694 Y90.348
N4235 X9.951 Y89.306
N4240 G3 X10.098 Y88.991 I0.163 J-0.116
N4245 G1 X10.176 Y88.985 Z-8.008
N4250 X10.251 Y88.979 Z-8.031
N4255 X10.321 Y88.973 Z-8.068
N4260 X10.381 Y88.968 Z-8.119
N4265 X10.431 Y88.965 Z-8.18
N4270 X10.467 Y88.962 Z-8.25
N4275 X10.504 Y88.959 Z-8.32
N4280 X10.554 Y88.955 Z-8.381
N4285 X10.614 Y88.95 Z-8.432
N4290 X10.683 Y88.945 Z-8.469
N4295 X10.759 Y88.939 Z-8.492
N4300 X10.837 Y88.933 Z-8.5
N4305 X10.853 Y88.932
N4310 X16.25
N4315 X18.143
N4320 G3 X18.343 Y89.131 J0.2
N4325 G1 X18.347 Y90.231
N4330 G3 X18.147 Y90.432 I-0.2 J0.001
N4335 G1 X12.75
N4340 X10.857
N4345 X10.806 Y90.425
N4350 X10.758 Y90.406
N4355 X10.717 Y90.375
N4360 X10.685 Y90.334
N4365 X10.058 Y89.283
N4370 G3 X10.214 Y88.982 I0.172 J-0.102
N4375 G1 X10.286 Y88.976 Z-8.506
N4380 X10.354 Y88.971 Z-8.525
N4385 X10.419 Y88.966 Z-8.556
N4390 X10.476 Y88.961 Z-8.598
N4395 X10.526 Y88.957 Z-8.65
N4400 X10.575 Y88.953 Z-8.702
N4405 X10.633 Y88.949 Z-8.744
N4410 X10.697 Y88.944 Z-8.775
N4415 X10.766 Y88.938 Z-8.794
N4420 X10.837 Y88.933 Z-8.8
N4425 X10.853 Y88.932
N4430 X16.25
N4435 X18.143
N4440 G3 X18.343 Y89.131 J0.2
N4445 G1 X18.347 Y90.231
N4450 G3 X18.147 Y90.432 I-0.2 J0.001
N4455 G1 X12.75
N4460 X10.857
N4465 X10.806 Y90.425
N4470 X10.758 Y90.406
N4475 X10.717 Y90.375
N4480 X10.685 Y90.334
N4485 X10.058 Y89.283
N4490 G3 X10.214 Y88.982 I0.172 J-0.102
N4495 G1 X10.286 Y88.976 Z-8.806
N4500 X10.354 Y88.971 Z-8.825
N4505 X10.419 Y88.966 Z-8.856
N4510 X10.476 Y88.961 Z-8.898
N4515 X10.526 Y88.957 Z-8.95
N4520 X10.575 Y88.953 Z-9.002
N4525 X10.633 Y88.949 Z-9.044
N4530 X10.697 Y88.944 Z-9.075
N4535 X10.766 Y88.938 Z-9.094
N4540 X10.837 Y88.933 Z-9.1
N4545 X10.853 Y88.932
N4550 X16.25
N4555 X18.143
N4560 G3 X18.343 Y89.131 J0.2
N4565 G1 X18.347 Y90.231
N4570 G3 X18.147 Y90.432 I-0.2 J0.001
N4575 G1 X12.75
N4580 X10.857
N4585 X10.794 Y90.427
N4590 X9.76 Y90.263
N4595 X9.683 Y90.251 Z-9.092
N4600 X9.609 Y90.239 Z-9.07
N4605 X9.541 Y90.229 Z-9.033
N4610 X9.481 Y90.219 Z-8.983
N4615 X9.432 Y90.211 Z-8.922
N4620 X9.395 Y90.205 Z-8.853
N4625 X9.373 Y90.202 Z-8.778
N4630 X9.365 Y90.201 Z-8.7
N4635 G0 Z15

(2D ??24)
N4640 X19.45 Y128.264
N4645 Z15
N4650 Z5
N4655 G1 Z2 F300
N4660 Z-0.6
N4665 G18 G3 X19.05 Z-1 I-0.4
N4670 G1 X18.65
N4675 G17 G3 X18.25 Y127.864 J-0.4
N4680 G1 Y0
N4685 G2 X16.25 Y-2 I-2
N4690 G1 X12.75
N4695 G2 X10.75 Y0 J2
N4700 G1 Y2
N4705 X0
N4710 G2 X-2 Y4 J2
N4715 G1 Y7
N4720 G2 X0 Y9 I2
N4725 G1 X1
N4730 Y11.932
N4735 G2 X3 Y13.932 I2
N4740 G1 X10.75
N4745 Y113.932
N4750 X3
N4755 G2 X1 Y115.932 J2
N4760 G1 Y118.864
N4765 X0
N4770 G2 X-2 Y120.864 J2
N4775 G1 Y123.864
N4780 G2 X0 Y125.864 I2
N4785 G1 X10.75
N4790 Y127.864
N4795 G2 X12.75 Y129.864 I2
N4800 G1 X16.25
N4805 G2 X18.25 Y127.864 J-2
N4810 G3 X18.65 Y127.464 I0.4
N4815 G1 X19.05
N4820 G18 G2 X19.45 Z-0.6 K0.4
N4825 G0 Z5
N4830 Y128.264
N4835 G1 Z1 F300
N4840 Z-1.6
N4845 G3 X19.05 Z-2 I-0.4
N4850 G1 X18.65
N4855 G17 G3 X18.25 Y127.864 J-0.4
N4860 G1 Y0
N4865 G2 X16.25 Y-2 I-2
N4870 G1 X12.75
N4875 G2 X10.75 Y0 J2
N4880 G1 Y2
N4885 X0
N4890 G2 X-2 Y4 J2
N4895 G1 Y7
N4900 G2 X0 Y9 I2
N4905 G1 X1
N4910 Y11.932
N4915 G2 X3 Y13.932 I2
N4920 G1 X10.75
N4925 Y113.932
N4930 X3
N4935 G2 X1 Y115.932 J2
N4940 G1 Y118.864
N4945 X0
N4950 G2 X-2 Y120.864 J2
N4955 G1 Y123.864
N4960 G2 X0 Y125.864 I2
N4965 G1 X10.75
N4970 Y127.864
N4975 G2 X12.75 Y129.864 I2
N4980 G1 X16.25
N4985 G2 X18.25 Y127.864 J-2
N4990 G3 X18.65 Y127.464 I0.4
N4995 G1 X19.05
N5000 G18 G2 X19.45 Z-1.6 K0.4
N5005 G0 Z5
N5010 Y128.264
N5015 G1 Z0 F300
N5020 Z-2.6
N5025 G3 X19.05 Z-3 I-0.4
N5030 G1 X18.65
N5035 G17 G3 X18.25 Y127.864 J-0.4
N5040 G1 Y0
N5045 G2 X16.25 Y-2 I-2
N5050 G1 X12.75
N5055 G2 X10.75 Y0 J2
N5060 G1 Y2
N5065 X0
N5070 G2 X-2 Y4 J2
N5075 G1 Y7
N5080 G2 X0 Y9 I2
N5085 G1 X1
N5090 Y11.932
N5095 G2 X3 Y13.932 I2
N5100 G1 X10.75
N5105 Y113.932
N5110 X3
N5115 G2 X1 Y115.932 J2
N5120 G1 Y118.864
N5125 X0
N5130 G2 X-2 Y120.864 J2
N5135 G1 Y123.864
N5140 G2 X0 Y125.864 I2
N5145 G1 X10.75
N5150 Y127.864
N5155 G2 X12.75 Y129.864 I2
N5160 G1 X16.25
N5165 G2 X18.25 Y127.864 J-2
N5170 G3 X18.65 Y127.464 I0.4
N5175 G1 X19.05
N5180 G18 G2 X19.45 Z-2.6 K0.4
N5185 G0 Z5
N5190 Y128.264
N5195 G1 Z-1 F300
N5200 Z-3.6
N5205 G3 X19.05 Z-4 I-0.4
N5210 G1 X18.65
N5215 G17 G3 X18.25 Y127.864 J-0.4
N5220 G1 Y0
N5225 G2 X16.25 Y-2 I-2
N5230 G1 X12.75
N5235 G2 X10.75 Y0 J2
N5240 G1 Y2
N5245 X0
N5250 G2 X-2 Y4 J2
N5255 G1 Y7
N5260 G2 X0 Y9 I2
N5265 G1 X1
N5270 Y11.932
N5275 G2 X3 Y13.932 I2
N5280 G1 X10.75
N5285 Y113.932
N5290 X3
N5295 G2 X1 Y115.932 J2
N5300 G1 Y118.864
N5305 X0
N5310 G2 X-2 Y120.864 J2
N5315 G1 Y123.864
N5320 G2 X0 Y125.864 I2
N5325 G1 X10.75
N5330 Y127.864
N5335 G2 X12.75 Y129.864 I2
N5340 G1 X16.25
N5345 G2 X18.25 Y127.864 J-2
N5350 G3 X18.65 Y127.464 I0.4
N5355 G1 X19.05
N5360 G18 G2 X19.45 Z-3.6 K0.4
N5365 G0 Z5
N5370 Y128.264
N5375 G1 Z-2 F300
N5380 Z-4.6
N5385 G3 X19.05 Z-5 I-0.4
N5390 G1 X18.65
N5395 G17 G3 X18.25 Y127.864 J-0.4
N5400 G1 Y0
N5405 G2 X16.25 Y-2 I-2
N5410 G1 X12.75
N5415 G2 X10.75 Y0 J2
N5420 G1 Y2
N5425 X0
N5430 G2 X-2 Y4 J2
N5435 G1 Y7
N5440 G2 X0 Y9 I2
N5445 G1 X1
N5450 Y11.932
N5455 G2 X3 Y13.932 I2
N5460 G1 X10.75
N5465 Y113.932
N5470 X3
N5475 G2 X1 Y115.932 J2
N5480 G1 Y118.864
N5485 X0
N5490 G2 X-2 Y120.864 J2
N5495 G1 Y123.864
N5500 G2 X0 Y125.864 I2
N5505 G1 X10.75
N5510 Y127.864
N5515 G2 X12.75 Y129.864 I2
N5520 G1 X16.25
N5525 G2 X18.25 Y127.864 J-2
N5530 G3 X18.65 Y127.464 I0.4
N5535 G1 X19.05
N5540 G18 G2 X19.45 Z-4.6 K0.4
N5545 G0 Z5
N5550 Y128.264
N5555 G1 Z-3 F300
N5560 Z-5.6
N5565 G3 X19.05 Z-6 I-0.4
N5570 G1 X18.65
N5575 G17 G3 X18.25 Y127.864 J-0.4
N5580 G1 Y0
N5585 G2 X16.25 Y-2 I-2
N5590 G1 X12.75
N5595 G2 X10.75 Y0 J2
N5600 G1 Y2
N5605 X0
N5610 G2 X-2 Y4 J2
N5615 G1 Y7
N5620 G2 X0 Y9 I2
N5625 G1 X1
N5630 Y11.932
N5635 G2 X3 Y13.932 I2
N5640 G1 X10.75
N5645 Y113.932
N5650 X3
N5655 G2 X1 Y115.932 J2
N5660 G1 Y118.864
N5665 X0
N5670 G2 X-2 Y120.864 J2
N5675 G1 Y123.864
N5680 G2 X0 Y125.864 I2
N5685 G1 X10.75
N5690 Y127.864
N5695 G2 X12.75 Y129.864 I2
N5700 G1 X16.25
N5705 G2 X18.25 Y127.864 J-2
N5710 G3 X18.65 Y127.464 I0.4
N5715 G1 X19.05
N5720 G18 G2 X19.45 Z-5.6 K0.4
N5725 G0 Z5
N5730 Y128.264
N5735 G1 Z-4 F300
N5740 Z-6.6
N5745 G3 X19.05 Z-7 I-0.4
N5750 G1 X18.65
N5755 G17 G3 X18.25 Y127.864 J-0.4
N5760 G1 Y0
N5765 G2 X16.25 Y-2 I-2
N5770 G1 X12.75
N5775 G2 X10.75 Y0 J2
N5780 G1 Y2
N5785 X0
N5790 G2 X-2 Y4 J2
N5795 G1 Y7
N5800 G2 X0 Y9 I2
N5805 G1 X1
N5810 Y11.932
N5815 G2 X3 Y13.932 I2
N5820 G1 X10.75
N5825 Y113.932
N5830 X3
N5835 G2 X1 Y115.932 J2
N5840 G1 Y118.864
N5845 X0
N5850 G2 X-2 Y120.864 J2
N5855 G1 Y123.864
N5860 G2 X0 Y125.864 I2
N5865 G1 X10.75
N5870 Y127.864
N5875 G2 X12.75 Y129.864 I2
N5880 G1 X16.25
N5885 G2 X18.25 Y127.864 J-2
N5890 G3 X18.65 Y127.464 I0.4
N5895 G1 X19.05
N5900 G18 G2 X19.45 Z-6.6 K0.4
N5905 G0 Z5
N5910 Y128.264
N5915 G1 Z-5 F300
N5920 Z-7.6
N5925 G3 X19.05 Z-8 I-0.4
N5930 G1 X18.65
N5935 G17 G3 X18.25 Y127.864 J-0.4
N5940 G1 Y0
N5945 G2 X16.25 Y-2 I-2
N5950 G1 X12.75
N5955 G2 X10.75 Y0 J2
N5960 G1 Y2
N5965 X0
N5970 G2 X-2 Y4 J2
N5975 G1 Y7
N5980 G2 X0 Y9 I2
N5985 G1 X1
N5990 Y11.932
N5995 G2 X3 Y13.932 I2
N6000 G1 X10.75
N6005 Y113.932
N6010 X3
N6015 G2 X1 Y115.932 J2
N6020 G1 Y118.864
N6025 X0
N6030 G2 X-2 Y120.864 J2
N6035 G1 Y123.864
N6040 G2 X0 Y125.864 I2
N6045 G1 X10.75
N6050 Y127.864
N6055 G2 X12.75 Y129.864 I2
N6060 G1 X16.25
N6065 G2 X18.25 Y127.864 J-2
N6070 G3 X18.65 Y127.464 I0.4
N6075 G1 X19.05
N6080 G18 G2 X19.45 Z-7.6 K0.4
N6085 G0 Z5
N6090 Y128.264
N6095 G1 Z-6 F300
N6100 Z-8.15
N6105 G3 X19.05 Z-8.55 I-0.4
N6110 G1 X18.65
N6115 G17 G3 X18.25 Y127.864 J-0.4
N6120 G1 Y0
N6125 G2 X16.25 Y-2 I-2
N6130 G1 X12.75
N6135 G2 X10.75 Y0 J2
N6140 G1 Y2
N6145 X0
N6150 G2 X-2 Y4 J2
N6155 G1 Y7
N6160 G2 X0 Y9 I2
N6165 G1 X1
N6170 Y11.932
N6175 G2 X3 Y13.932 I2
N6180 G1 X10.75
N6185 Y113.932
N6190 X3
N6195 G2 X1 Y115.932 J2
N6200 G1 Y118.864
N6205 X0
N6210 G2 X-2 Y120.864 J2
N6215 G1 Y123.864
N6220 G2 X0 Y125.864 I2
N6225 G1 X10.75
N6230 Y127.864
N6235 G2 X12.75 Y129.864 I2
N6240 G1 X16.25
N6245 G2 X18.25 Y127.864 J-2
N6250 G3 X18.65 Y127.464 I0.4
N6255 G1 X19.05
N6260 G18 G2 X19.45 Z-8.15 K0.4
N6265 G0 Z5
N6270 Y128.264
N6275 G1 Z-6.55 F300
N6280 Z-8.7
N6285 G3 X19.05 Z-9.1 I-0.4
N6290 G1 X18.65
N6295 G17 G3 X18.25 Y127.864 J-0.4
N6300 G1 Y0
N6305 G2 X16.25 Y-2 I-2
N6310 G1 X12.75
N6315 G2 X10.75 Y0 J2
N6320 G1 Y2
N6325 X0
N6330 G2 X-2 Y4 J2
N6335 G1 Y7
N6340 G2 X0 Y9 I2
N6345 G1 X1
N6350 Y11.932
N6355 G2 X3 Y13.932 I2
N6360 G1 X10.75
N6365 Y113.932
N6370 X3
N6375 G2 X1 Y115.932 J2
N6380 G1 Y118.864
N6385 X0
N6390 G2 X-2 Y120.864 J2
N6395 G1 Y123.864
N6400 G2 X0 Y125.864 I2
N6405 G1 X10.75
N6410 Y127.864
N6415 G2 X12.75 Y129.864 I2
N6420 G1 X16.25
N6425 G2 X18.25 Y127.864 J-2
N6430 G3 X18.65 Y127.464 I0.4
N6435 G1 X19.05
N6440 G18 G2 X19.45 Z-8.7 K0.4
N6445 G0 Z15
N6450 G17
N6455 M9
N6460 G28
N6465 M30
%
