%
(1001)
(T1 D=2 CR=0 - ZMIN=-4 - flat end mill)
N10 G90 G94
N15 G17
N20 G21
N25 M9
N30 G28

(2D ??17)
N35 T1 M6
(0)
N40 S23873 M3
N45 G54
N50 M8
N55 G0 X8.65 Y7.282
N60 G43 Z15
N65 Z5
N70 G1 Z3 F600
N75 Z-1.8
N80 G18 G2 X8.85 Z-2 I0.2
N85 G1 X9.05 F400
N90 G17 G3 X9.25 Y7.482 J0.2
N95 X7.75 I-0.75 F600
N100 X9.25 I0.75
N105 X9.05 Y7.682 I-0.2
N110 G1 X8.85
N115 G18 G3 X8.65 Z-1.8 K0.2
N120 G0 Z5
N125 Y7.282
N130 G1 Z1 F600
N135 Z-3.8
N140 G2 X8.85 Z-4 I0.2
N145 G1 X9.05 F400
N150 G17 G3 X9.25 Y7.482 J0.2
N155 X7.75 I-0.75 F600
N160 X9.25 I0.75
N165 X9.05 Y7.682 I-0.2
N170 G1 X8.85
N175 G18 G3 X8.65 Z-3.8 K0.2
N180 G0 Z5
N185 Y120.182
N190 G1 Z3 F600
N195 Z-1.8
N200 G2 X8.85 Z-2 I0.2
N205 G1 X9.05 F400
N210 G17 G3 X9.25 Y120.382 J0.2
N215 X7.75 I-0.75 F600
N220 X9.25 I0.75
N225 X9.05 Y120.582 I-0.2
N230 G1 X8.85
N235 G18 G3 X8.65 Z-1.8 K0.2
N240 G0 Z5
N245 Y120.182
N250 G1 Z1 F600
N255 Z-3.8
N260 G2 X8.85 Z-4 I0.2
N265 G1 X9.05 F400
N270 G17 G3 X9.25 Y120.382 J0.2
N275 X7.75 I-0.75 F600
N280 X9.25 I0.75
N285 X9.05 Y120.582 I-0.2
N290 G1 X8.85
N295 G18 G3 X8.65 Z-3.8 K0.2
N300 G0 Z15
N305 G17
N310 M9
N315 G28
N320 M30
%
