%
(1001)
(T1 D=2 CR=0 - ZMIN=-4.1 - flat end mill)
N10 G90 G94
N15 G17
N20 G21
N25 M9
N30 G28

(2D ????4)
N35 T1 M6
(0)
N40 S23873 M3
N45 G54
N50 M8
N55 G0 X19.259 Y31.896
N60 G43 Z5
N65 G1 Z2.7 F400
N70 X19.285 Y31.894 Z2.602 F600
N75 X19.355 Y31.89 Z2.529
N80 X19.452 Y31.894 Z2.5
N85 G3 X19.288 Y33.786 Z2.396 I-0.082 J0.946
N90 X19.452 Y31.894 Z2.292 I0.082 J-0.946
N95 X19.288 Y33.786 Z2.187 I-0.082 J0.946
N100 X19.452 Y31.894 Z2.083 I0.082 J-0.946
N105 X19.288 Y33.786 Z1.979 I-0.082 J0.946
N110 X19.452 Y31.894 Z1.875 I0.082 J-0.946
N115 X19.288 Y33.786 Z1.77 I-0.082 J0.946
N120 X19.452 Y31.894 Z1.666 I0.082 J-0.946
N125 X19.288 Y33.786 Z1.562 I-0.082 J0.946
N130 X19.452 Y31.894 Z1.458 I0.082 J-0.946
N135 X19.288 Y33.786 Z1.354 I-0.082 J0.946
N140 X19.452 Y31.894 Z1.249 I0.082 J-0.946
N145 X19.288 Y33.786 Z1.145 I-0.082 J0.946
N150 X19.452 Y31.894 Z1.041 I0.082 J-0.946
N155 X19.288 Y33.786 Z0.937 I-0.082 J0.946
N160 X19.452 Y31.894 Z0.832 I0.082 J-0.946
N165 X19.288 Y33.786 Z0.728 I-0.082 J0.946
N170 X19.452 Y31.894 Z0.624 I0.082 J-0.946
N175 X19.288 Y33.786 Z0.52 I-0.082 J0.946
N180 X19.452 Y31.894 Z0.416 I0.082 J-0.946
N185 X19.288 Y33.786 Z0.311 I-0.082 J0.946
N190 X19.452 Y31.894 Z0.207 I0.082 J-0.946
N195 X19.288 Y33.786 Z0.103 I-0.082 J0.946
N200 X19.452 Y31.894 Z-0.001 I0.082 J-0.946
N205 X19.288 Y33.786 Z-0.106 I-0.082 J0.946
N210 X19.452 Y31.894 Z-0.21 I0.082 J-0.946
N215 X19.288 Y33.786 Z-0.314 I-0.082 J0.946
N220 X19.452 Y31.894 Z-0.418 I0.082 J-0.946
N225 X19.288 Y33.786 Z-0.522 I-0.082 J0.946
N230 X19.452 Y31.894 Z-0.627 I0.082 J-0.946
N235 X19.288 Y33.786 Z-0.731 I-0.082 J0.946
N240 X19.452 Y31.894 Z-0.835 I0.082 J-0.946
N245 X19.288 Y33.786 Z-0.939 I-0.082 J0.946
N250 X19.452 Y31.894 Z-1.044 I0.082 J-0.946
N255 X19.288 Y33.786 Z-1.148 I-0.082 J0.946
N260 X19.452 Y31.894 Z-1.252 I0.082 J-0.946
N265 X19.288 Y33.786 Z-1.356 I-0.082 J0.946
N270 X19.452 Y31.894 Z-1.46 I0.082 J-0.946
N275 X19.288 Y33.786 Z-1.565 I-0.082 J0.946
N280 X19.452 Y31.894 Z-1.669 I0.082 J-0.946
N285 X19.288 Y33.786 Z-1.773 I-0.082 J0.946
N290 X19.452 Y31.894 Z-1.877 I0.082 J-0.946
N295 X19.288 Y33.786 Z-1.982 I-0.082 J0.946
N300 X18.8 Y33.6 Z-2 I0.082 J-0.946
N305 X21.2 Y30.4 I1.2 J-1.6
N310 X18.8 Y33.6 I-1.2 J1.6
N315 X21.2 Y30.4 Z-2.219 I1.2 J-1.6
N320 X18.8 Y33.6 Z-2.439 I-1.2 J1.6
N325 X18.003 Y32.103 Z-2.5 I1.2 J-1.6
N330 X21.997 Y31.897 I1.997 J-0.103
N335 X18.003 Y32.103 I-1.997 J0.103
N340 G1 X18.006 Y32.053 Z-2.487
N345 X18.022 Y32.006 Z-2.473
N350 X18.041 Y31.974 Z-2.437
N355 X18.065 Y31.947 Z-2.4
N360 X18.086 Y31.93 Z-2.3
N365 G0 Z5

(2D ??3)
N370 Z15
N375 X20.15 Y31.8
N380 Z5
N385 G1 Z3 F600
N390 Z-1.8
N395 G18 G2 X20.35 Z-2 I0.2
N400 G1 X20.55 F400
N405 G17 G3 X20.75 Y32 J0.2
N410 X19.25 I-0.75 F600
N415 X20.75 I0.75
N420 X20.55 Y32.2 I-0.2
N425 G1 X20.35
N430 G18 G3 X20.15 Z-1.8 K0.2
N435 G0 Z5
N440 Y31.8
N445 G1 Z1 F600
N450 Z-2.85
N455 G2 X20.35 Z-3.05 I0.2
N460 G1 X20.55 F400
N465 G17 G3 X20.75 Y32 J0.2
N470 X19.25 I-0.75 F600
N475 X20.75 I0.75
N480 X20.55 Y32.2 I-0.2
N485 G1 X20.35
N490 G18 G3 X20.15 Z-2.85 K0.2
N495 G0 Z5
N500 Y31.8
N505 G1 Z-0.05 F600
N510 Z-3.9
N515 G2 X20.35 Z-4.1 I0.2
N520 G1 X20.55 F400
N525 G17 G3 X20.75 Y32 J0.2
N530 X19.25 I-0.75 F600
N535 X20.75 I0.75
N540 X20.55 Y32.2 I-0.2
N545 G1 X20.35
N550 G18 G3 X20.15 Z-3.9 K0.2
N555 G0 Z15
N560 G17

(2D ??4)
N565 G0 X17.235 Y38.135
N570 Z15
N575 Z5
N580 G1 Z3 F600
N585 Z-1.8
N590 X17.236 Y38.128 Z-1.852
N595 X17.239 Y38.108 Z-1.9
N600 X17.243 Y38.077 Z-1.941
N605 X17.248 Y38.036 Z-1.973
N610 X17.255 Y37.988 Z-1.993
N615 X17.262 Y37.937 Z-2
N620 X17.289 Y37.739 F400
N625 G3 X17.514 Y37.567 I0.198 J0.027
N630 G2 X17.941 Y37.6 I0.486 J-3.567 F600
N635 G1 X17.951
N640 X22.049
N645 X22.059
N650 G2 X25.6 Y34 I-0.059 J-3.6
N655 G1 Y3
N660 G2 X22 Y-0.6 I-3.6
N665 G1 X3
N670 G2 X-0.6 Y3 J3.6
N675 G1 Y23.997
N680 G2 X2.941 Y27.6 I3.6 J0.004
N685 G1 X2.951
N690 X12
N695 G3 X14.4 Y30 J2.4
N700 G1 Y33.997
N705 G2 X17.514 Y37.567 I3.6 J0.004
N710 G3 X17.685 Y37.793 I-0.027 J0.198
N715 G1 X17.658 Y37.991
N720 X17.651 Y38.042 Z-1.993
N725 X17.645 Y38.09 Z-1.973
N730 X17.639 Y38.131 Z-1.941
N735 X17.635 Y38.162 Z-1.9
N740 X17.632 Y38.182 Z-1.852
N745 X17.631 Y38.189 Z-1.8
N750 G0 Z5
N755 X17.235 Y38.135
N760 G1 Z1 F600
N765 Z-2.85
N770 X17.236 Y38.128 Z-2.902
N775 X17.239 Y38.108 Z-2.95
N780 X17.243 Y38.077 Z-2.991
N785 X17.248 Y38.036 Z-3.023
N790 X17.255 Y37.988 Z-3.043
N795 X17.262 Y37.937 Z-3.05
N800 X17.289 Y37.739 F400
N805 G3 X17.514 Y37.567 I0.198 J0.027
N810 G2 X17.941 Y37.6 I0.486 J-3.567 F600
N815 G1 X17.951
N820 X22.049
N825 X22.059
N830 G2 X25.6 Y34 I-0.059 J-3.6
N835 G1 Y3
N840 G2 X22 Y-0.6 I-3.6
N845 G1 X3
N850 G2 X-0.6 Y3 J3.6
N855 G1 Y23.997
N860 G2 X2.941 Y27.6 I3.6 J0.004
N865 G1 X2.951
N870 X12
N875 G3 X14.4 Y30 J2.4
N880 G1 Y33.997
N885 G2 X17.514 Y37.567 I3.6 J0.004
N890 G3 X17.685 Y37.793 I-0.027 J0.198
N895 G1 X17.658 Y37.991
N900 X17.651 Y38.042 Z-3.043
N905 X17.645 Y38.09 Z-3.023
N910 X17.639 Y38.131 Z-2.991
N915 X17.635 Y38.162 Z-2.95
N920 X17.632 Y38.182 Z-2.902
N925 X17.631 Y38.189 Z-2.85
N930 G0 Z5
N935 X17.235 Y38.135
N940 G1 Z-0.05 F600
N945 Z-3.9
N950 X17.236 Y38.128 Z-3.952
N955 X17.239 Y38.108 Z-4
N960 X17.243 Y38.077 Z-4.041
N965 X17.248 Y38.036 Z-4.073
N970 X17.255 Y37.988 Z-4.093
N975 X17.262 Y37.937 Z-4.1
N980 X17.289 Y37.739 F400
N985 G3 X17.514 Y37.567 I0.198 J0.027
N990 G2 X17.941 Y37.6 I0.486 J-3.567 F600
N995 G1 X17.951
N1000 X22.049
N1005 X22.059
N1010 G2 X25.6 Y34 I-0.059 J-3.6
N1015 G1 Y3
N1020 G2 X22 Y-0.6 I-3.6
N1025 G1 X3
N1030 G2 X-0.6 Y3 J3.6
N1035 G1 Y23.997
N1040 G2 X2.941 Y27.6 I3.6 J0.004
N1045 G1 X2.951
N1050 X12
N1055 G3 X14.4 Y30 J2.4
N1060 G1 Y33.997
N1065 G2 X17.514 Y37.567 I3.6 J0.004
N1070 G3 X17.685 Y37.793 I-0.027 J0.198
N1075 G1 X17.658 Y37.991
N1080 X17.651 Y38.042 Z-4.093
N1085 X17.645 Y38.09 Z-4.073
N1090 X17.639 Y38.131 Z-4.041
N1095 X17.635 Y38.162 Z-4
N1100 X17.632 Y38.182 Z-3.952
N1105 X17.631 Y38.189 Z-3.9
N1110 G0 Z15
N1115 M9
N1120 G28
N1125 M30
%
