%
(1001)
(T1 D=2 CR=0 - ZMIN=-4.1 - flat end mill)
N10 G90 G94
N15 G17
N20 G21
N25 M9
N30 G28

(2D ????7)
N35 T1 M6
(0)
N40 S23873 M3
N45 G54
N50 M8
N55 G0 X22.397 Y108.38
N60 G43 Z15
N65 Z5
N70 G1 Z3 F400
N75 Z-1.8
N80 Y108.373 Z-1.852
N85 Y108.353 Z-1.9
N90 Y108.321 Z-1.941
N95 Y108.28 Z-1.973
N100 Y108.232 Z-1.993
N105 Y108.18 Z-2
N110 Y108.16
N115 X22.406 Y97.5 F600
N120 G3 X41.177 I9.386
N125 G1 X41.186 Y108.152
N130 X41.179 Y108.205
N135 X41.158 Y108.254
N140 X41.125 Y108.296
N145 X41.082 Y108.328
N150 X41.032 Y108.347
N155 X21.037 Y113.01
N160 G3 X20.792 Y112.815 I-0.045 J-0.195
N165 G1 Y97.5
N170 G3 X42.792 I11
N175 G1 Y112.811
N180 X42.789 Y112.842
N185 X42.633 Y113.83
N190 X42.625 Y113.881 Z-1.993
N195 X42.617 Y113.928 Z-1.973
N200 X42.611 Y113.969 Z-1.941
N205 X42.606 Y114.001 Z-1.9
N210 X42.603 Y114.02 Z-1.852
N215 X42.602 Y114.027 Z-1.8
N220 G0 Z15

(2D ??9)
N225 X16.442 Y88.8
N230 Z15
N235 Z5
N240 G1 Z3 F600
N245 Z-1.8
N250 G18 G2 X16.642 Z-2 I0.2
N255 G1 X16.842 F400
N260 G17 G3 X17.042 Y89 J0.2
N265 X15.542 I-0.75 F600
N270 X17.042 I0.75
N275 X16.842 Y89.2 I-0.2
N280 G1 X16.642
N285 G18 G3 X16.442 Z-1.8 K0.2
N290 G0 Z5
N295 Y88.8
N300 G1 Z1 F600
N305 Z-2.85
N310 G2 X16.642 Z-3.05 I0.2
N315 G1 X16.842 F400
N320 G17 G3 X17.042 Y89 J0.2
N325 X15.542 I-0.75 F600
N330 X17.042 I0.75
N335 X16.842 Y89.2 I-0.2
N340 G1 X16.642
N345 G18 G3 X16.442 Z-2.85 K0.2
N350 G0 Z5
N355 Y88.8
N360 G1 Z-0.05 F600
N365 Z-3.9
N370 G2 X16.642 Z-4.1 I0.2
N375 G1 X16.842 F400
N380 G17 G3 X17.042 Y89 J0.2
N385 X15.542 I-0.75 F600
N390 X17.042 I0.75
N395 X16.842 Y89.2 I-0.2
N400 G1 X16.642
N405 G18 G3 X16.442 Z-3.9 K0.2
N410 G0 Z5
N415 X19.442 Y56.25
N420 G1 Z3 F600
N425 Z-1.8
N430 G2 X19.642 Z-2 I0.2
N435 G1 X19.842 F400
N440 G17 G3 X20.042 Y56.45 J0.2
N445 X18.542 I-0.75 F600
N450 X20.042 I0.75
N455 X19.842 Y56.65 I-0.2
N460 G1 X19.642
N465 G18 G3 X19.442 Z-1.8 K0.2
N470 G0 Z5
N475 Y56.25
N480 G1 Z1 F600
N485 Z-2.85
N490 G2 X19.642 Z-3.05 I0.2
N495 G1 X19.842 F400
N500 G17 G3 X20.042 Y56.45 J0.2
N505 X18.542 I-0.75 F600
N510 X20.042 I0.75
N515 X19.842 Y56.65 I-0.2
N520 G1 X19.642
N525 G18 G3 X19.442 Z-2.85 K0.2
N530 G0 Z5
N535 Y56.25
N540 G1 Z-0.05 F600
N545 Z-3.9
N550 G2 X19.642 Z-4.1 I0.2
N555 G1 X19.842 F400
N560 G17 G3 X20.042 Y56.45 J0.2
N565 X18.542 I-0.75 F600
N570 X20.042 I0.75
N575 X19.842 Y56.65 I-0.2
N580 G1 X19.642
N585 G18 G3 X19.442 Z-3.9 K0.2
N590 G0 Z5
N595 X56.442 Y54.8
N600 G1 Z3 F600
N605 Z-1.8
N610 G2 X56.642 Z-2 I0.2
N615 G1 X56.842 F400
N620 G17 G3 X57.042 Y55 J0.2
N625 X55.542 I-0.75 F600
N630 X57.042 I0.75
N635 X56.842 Y55.2 I-0.2
N640 G1 X56.642
N645 G18 G3 X56.442 Z-1.8 K0.2
N650 G0 Z5
N655 Y54.8
N660 G1 Z1 F600
N665 Z-2.85
N670 G2 X56.642 Z-3.05 I0.2
N675 G1 X56.842 F400
N680 G17 G3 X57.042 Y55 J0.2
N685 X55.542 I-0.75 F600
N690 X57.042 I0.75
N695 X56.842 Y55.2 I-0.2
N700 G1 X56.642
N705 G18 G3 X56.442 Z-2.85 K0.2
N710 G0 Z5
N715 Y54.8
N720 G1 Z-0.05 F600
N725 Z-3.9
N730 G2 X56.642 Z-4.1 I0.2
N735 G1 X56.842 F400
N740 G17 G3 X57.042 Y55 J0.2
N745 X55.542 I-0.75 F600
N750 X57.042 I0.75
N755 X56.842 Y55.2 I-0.2
N760 G1 X56.642
N765 G18 G3 X56.442 Z-3.9 K0.2
N770 G0 Z5
N775 Y64.8
N780 G1 Z3 F600
N785 Z-1.8
N790 G2 X56.642 Z-2 I0.2
N795 G1 X56.842 F400
N800 G17 G3 X57.042 Y65 J0.2
N805 X55.542 I-0.75 F600
N810 X57.042 I0.75
N815 X56.842 Y65.2 I-0.2
N820 G1 X56.642
N825 G18 G3 X56.442 Z-1.8 K0.2
N830 G0 Z5
N835 Y64.8
N840 G1 Z1 F600
N845 Z-2.85
N850 G2 X56.642 Z-3.05 I0.2
N855 G1 X56.842 F400
N860 G17 G3 X57.042 Y65 J0.2
N865 X55.542 I-0.75 F600
N870 X57.042 I0.75
N875 X56.842 Y65.2 I-0.2
N880 G1 X56.642
N885 G18 G3 X56.442 Z-2.85 K0.2
N890 G0 Z5
N895 Y64.8
N900 G1 Z-0.05 F600
N905 Z-3.9
N910 G2 X56.642 Z-4.1 I0.2
N915 G1 X56.842 F400
N920 G17 G3 X57.042 Y65 J0.2
N925 X55.542 I-0.75 F600
N930 X57.042 I0.75
N935 X56.842 Y65.2 I-0.2
N940 G1 X56.642
N945 G18 G3 X56.442 Z-3.9 K0.2
N950 G0 Z5
N955 Y41.8
N960 G1 Z3 F600
N965 Z-1.8
N970 G2 X56.642 Z-2 I0.2
N975 G1 X56.842 F400
N980 G17 G3 X57.042 Y42 J0.2
N985 X55.542 I-0.75 F600
N990 X57.042 I0.75
N995 X56.842 Y42.2 I-0.2
N1000 G1 X56.642
N1005 G18 G3 X56.442 Z-1.8 K0.2
N1010 G0 Z5
N1015 Y41.8
N1020 G1 Z1 F600
N1025 Z-2.85
N1030 G2 X56.642 Z-3.05 I0.2
N1035 G1 X56.842 F400
N1040 G17 G3 X57.042 Y42 J0.2
N1045 X55.542 I-0.75 F600
N1050 X57.042 I0.75
N1055 X56.842 Y42.2 I-0.2
N1060 G1 X56.642
N1065 G18 G3 X56.442 Z-2.85 K0.2
N1070 G0 Z5
N1075 Y41.8
N1080 G1 Z-0.05 F600
N1085 Z-3.9
N1090 G2 X56.642 Z-4.1 I0.2
N1095 G1 X56.842 F400
N1100 G17 G3 X57.042 Y42 J0.2
N1105 X55.542 I-0.75 F600
N1110 X57.042 I0.75
N1115 X56.842 Y42.2 I-0.2
N1120 G1 X56.642
N1125 G18 G3 X56.442 Z-3.9 K0.2
N1130 G0 Z5
N1135 X18.638 Y143.808
N1140 G1 Z3 F600
N1145 Z-1.8
N1150 G2 X18.838 Z-2 I0.2
N1155 G1 X19.038 F400
N1160 G17 G3 X19.238 Y144.008 J0.2
N1165 X17.738 I-0.75 F600
N1170 X19.238 I0.75
N1175 X19.038 Y144.208 I-0.2
N1180 G1 X18.838
N1185 G18 G3 X18.638 Z-1.8 K0.2
N1190 G0 Z5
N1195 Y143.808
N1200 G1 Z1 F600
N1205 Z-2.85
N1210 G2 X18.838 Z-3.05 I0.2
N1215 G1 X19.038 F400
N1220 G17 G3 X19.238 Y144.008 J0.2
N1225 X17.738 I-0.75 F600
N1230 X19.238 I0.75
N1235 X19.038 Y144.208 I-0.2
N1240 G1 X18.838
N1245 G18 G3 X18.638 Z-2.85 K0.2
N1250 G0 Z5
N1255 Y143.808
N1260 G1 Z-0.05 F600
N1265 Z-3.9
N1270 G2 X18.838 Z-4.1 I0.2
N1275 G1 X19.038 F400
N1280 G17 G3 X19.238 Y144.008 J0.2
N1285 X17.738 I-0.75 F600
N1290 X19.238 I0.75
N1295 X19.038 Y144.208 I-0.2
N1300 G1 X18.838
N1305 G18 G3 X18.638 Z-3.9 K0.2
N1310 G0 Z15
N1315 G17

(2D ??10)
N1320 G0 X39.692 Y97.3
N1325 Z15
N1330 Z5
N1335 G1 Z3 F600
N1340 Z-1.8
N1345 G18 G2 X39.892 Z-2 I0.2
N1350 G1 X40.092 F400
N1355 G17 G3 X40.292 Y97.5 J0.2
N1360 G1 Y106.669 F600
N1365 G2 X40.5 Y107.28 I1
N1370 G3 X23.083 Y120.72 I-8.708 J6.72
N1375 Y107.28 I8.708 J-6.72
N1380 G2 X23.292 Y106.669 I-0.792 J-0.611
N1385 G1 Y97.5
N1390 G3 X40.292 I8.5
N1395 X40.092 Y97.7 I-0.2
N1400 G1 X39.892
N1405 G18 G3 X39.692 Z-1.8 K0.2
N1410 G0 Z5
N1415 Y97.3
N1420 G1 Z1 F600
N1425 Z-2.85
N1430 G2 X39.892 Z-3.05 I0.2
N1435 G1 X40.092 F400
N1440 G17 G3 X40.292 Y97.5 J0.2
N1445 G1 Y106.669 F600
N1450 G2 X40.5 Y107.28 I1
N1455 G3 X23.083 Y120.72 I-8.708 J6.72
N1460 Y107.28 I8.708 J-6.72
N1465 G2 X23.292 Y106.669 I-0.792 J-0.611
N1470 G1 Y97.5
N1475 G3 X40.292 I8.5
N1480 X40.092 Y97.7 I-0.2
N1485 G1 X39.892
N1490 G18 G3 X39.692 Z-2.85 K0.2
N1495 G0 Z5
N1500 Y97.3
N1505 G1 Z-0.05 F600
N1510 Z-3.9
N1515 G2 X39.892 Z-4.1 I0.2
N1520 G1 X40.092 F400
N1525 G17 G3 X40.292 Y97.5 J0.2
N1530 G1 Y106.669 F600
N1535 G2 X40.5 Y107.28 I1
N1540 G3 X23.083 Y120.72 I-8.708 J6.72
N1545 Y107.28 I8.708 J-6.72
N1550 G2 X23.292 Y106.669 I-0.792 J-0.611
N1555 G1 Y97.5
N1560 G3 X40.292 I8.5
N1565 X40.092 Y97.7 I-0.2
N1570 G1 X39.892
N1575 G18 G3 X39.692 Z-3.9 K0.2
N1580 G0 Z5
N1585 X45.727 Y135.465
N1590 G1 Z3 F600
N1595 Z-1.8
N1600 X45.721 Y135.463 Z-1.852
N1605 X45.701 Y135.458 Z-1.9
N1610 X45.671 Y135.45 Z-1.941
N1615 X45.631 Y135.439 Z-1.973
N1620 X45.584 Y135.427 Z-1.993
N1625 X45.534 Y135.413 Z-2
N1630 X45.341 Y135.361 F400
N1635 G17 G3 X45.2 Y135.116 I0.052 J-0.193
N1640 G1 X65.758 Y58.393 F600
N1645 G2 X65.792 Y58.134 I-0.966 J-0.259
N1650 G1 Y0
N1655 G2 X64.792 Y-1 I-1
N1660 G1 X10.792
N1665 G2 X9.792 Y0 J1
N1670 G1 Y85.666
N1675 X-0.199 Y122.953
N1680 G2 X10.944 Y149.499 I22.699 J6.083
N1685 X16.417 Y151.735 I11.555 J-20.463
N1690 X45.199 Y135.118 I6.083 J-22.699
N1695 G1 X45.2 Y135.116
N1700 G3 X45.445 Y134.975 I0.193 J0.052
N1705 G1 X45.638 Y135.027
N1710 X45.688 Y135.04 Z-1.993
N1715 X45.734 Y135.053 Z-1.973
N1720 X45.774 Y135.063 Z-1.941
N1725 X45.805 Y135.072 Z-1.9
N1730 X45.824 Y135.077 Z-1.852
N1735 X45.831 Y135.079 Z-1.8
N1740 G0 Z5
N1745 X45.727 Y135.465
N1750 G1 Z1 F600
N1755 Z-2.85
N1760 X45.721 Y135.463 Z-2.902
N1765 X45.701 Y135.458 Z-2.95
N1770 X45.671 Y135.45 Z-2.991
N1775 X45.631 Y135.439 Z-3.023
N1780 X45.584 Y135.427 Z-3.043
N1785 X45.534 Y135.413 Z-3.05
N1790 X45.341 Y135.361 F400
N1795 G3 X45.2 Y135.116 I0.052 J-0.193
N1800 G1 X65.758 Y58.393 F600
N1805 G2 X65.792 Y58.134 I-0.966 J-0.259
N1810 G1 Y0
N1815 G2 X64.792 Y-1 I-1
N1820 G1 X10.792
N1825 G2 X9.792 Y0 J1
N1830 G1 Y85.666
N1835 X-0.199 Y122.953
N1840 G2 X10.944 Y149.499 I22.699 J6.083
N1845 X16.417 Y151.735 I11.555 J-20.463
N1850 X45.199 Y135.118 I6.083 J-22.699
N1855 G1 X45.2 Y135.116
N1860 G3 X45.445 Y134.975 I0.193 J0.052
N1865 G1 X45.638 Y135.027
N1870 X45.688 Y135.04 Z-3.043
N1875 X45.734 Y135.053 Z-3.023
N1880 X45.774 Y135.063 Z-2.991
N1885 X45.805 Y135.072 Z-2.95
N1890 X45.824 Y135.077 Z-2.902
N1895 X45.831 Y135.079 Z-2.85
N1900 G0 Z5
N1905 X45.727 Y135.465
N1910 G1 Z-0.05 F600
N1915 Z-3.9
N1920 X45.721 Y135.463 Z-3.952
N1925 X45.701 Y135.458 Z-4
N1930 X45.671 Y135.45 Z-4.041
N1935 X45.631 Y135.439 Z-4.073
N1940 X45.584 Y135.427 Z-4.093
N1945 X45.534 Y135.413 Z-4.1
N1950 X45.341 Y135.361 F400
N1955 G3 X45.2 Y135.116 I0.052 J-0.193
N1960 G1 X65.758 Y58.393 F600
N1965 G2 X65.792 Y58.134 I-0.966 J-0.259
N1970 G1 Y0
N1975 G2 X64.792 Y-1 I-1
N1980 G1 X10.792
N1985 G2 X9.792 Y0 J1
N1990 G1 Y85.666
N1995 X-0.199 Y122.953
N2000 G2 X10.944 Y149.499 I22.699 J6.083
N2005 X16.417 Y151.735 I11.555 J-20.463
N2010 X45.199 Y135.118 I6.083 J-22.699
N2015 G1 X45.2 Y135.116
N2020 G3 X45.445 Y134.975 I0.193 J0.052
N2025 G1 X45.638 Y135.027
N2030 X45.688 Y135.04 Z-4.093
N2035 X45.734 Y135.053 Z-4.073
N2040 X45.774 Y135.063 Z-4.041
N2045 X45.805 Y135.072 Z-4
N2050 X45.824 Y135.077 Z-3.952
N2055 X45.831 Y135.079 Z-3.9
N2060 G0 Z15
N2065 M9
N2070 G28
N2075 M30
%
