%
(1001)
(T1 D=2 CR=0 - ZMIN=-9.2 - flat end mill)
N10 G90 G94
N15 G17
N20 G21
N25 M9
N30 G28

(2D ??22)
N35 T1 M6
(0)
N40 S23873 M3
N45 G54
N50 M8
N55 G0 X13.994 Y120.607
N60 G43 Z15
N65 Z5
N70 G1 Z1.5 F300
N75 Z-0.3
N80 X13.987 Y120.606 Z-0.352
N85 X13.968 Y120.6 Z-0.4
N90 X13.937 Y120.592 Z-0.441
N95 X13.897 Y120.581 Z-0.473
N100 X13.851 Y120.569 Z-0.493
N105 X13.801 Y120.556 Z-0.5
N110 X13.607 Y120.504
N115 G3 X13.466 Y120.259 I0.052 J-0.193
N120 G1 X13.966 Y118.393
N125 G2 X14 Y118.134 I-0.966 J-0.259
N130 G1 Y1.866
N135 G2 X13.966 Y1.607 I-1
N140 G1 X13.466 Y-0.259
N145 G2 X12.5 Y-1 I-0.966 J0.259
N150 G1 X0
N155 G2 X-1 Y0 J1
N160 G1 Y22
N165 G2 X0 Y23 I1
N170 G1 X8.5
N175 Y97
N180 X0
N185 G2 X-1 Y98 J1
N190 G1 Y120
N195 G2 X0 Y121 I1
N200 G1 X12.5
N205 G2 X13.466 Y120.259 J-1
N210 G3 X13.711 Y120.117 I0.193 J0.052
N215 G1 X13.904 Y120.169
N220 X13.954 Y120.183 Z-0.493
N225 X14.001 Y120.195 Z-0.473
N230 X14.041 Y120.206 Z-0.441
N235 X14.071 Y120.214 Z-0.4
N240 X14.091 Y120.219 Z-0.352
N245 X14.097 Y120.221 Z-0.3
N250 G0 Z5
N255 X13.994 Y120.607
N260 G1 Z1 F300
N265 Z-0.8
N270 X13.987 Y120.606 Z-0.852
N275 X13.968 Y120.6 Z-0.9
N280 X13.937 Y120.592 Z-0.941
N285 X13.897 Y120.581 Z-0.973
N290 X13.851 Y120.569 Z-0.993
N295 X13.801 Y120.556 Z-1
N300 X13.607 Y120.504
N305 G3 X13.466 Y120.259 I0.052 J-0.193
N310 G1 X13.966 Y118.393
N315 G2 X14 Y118.134 I-0.966 J-0.259
N320 G1 Y1.866
N325 G2 X13.966 Y1.607 I-1
N330 G1 X13.466 Y-0.259
N335 G2 X12.5 Y-1 I-0.966 J0.259
N340 G1 X0
N345 G2 X-1 Y0 J1
N350 G1 Y22
N355 G2 X0 Y23 I1
N360 G1 X8.5
N365 Y97
N370 X0
N375 G2 X-1 Y98 J1
N380 G1 Y120
N385 G2 X0 Y121 I1
N390 G1 X12.5
N395 G2 X13.466 Y120.259 J-1
N400 G3 X13.711 Y120.117 I0.193 J0.052
N405 G1 X13.904 Y120.169
N410 X13.954 Y120.183 Z-0.993
N415 X14.001 Y120.195 Z-0.973
N420 X14.041 Y120.206 Z-0.941
N425 X14.071 Y120.214 Z-0.9
N430 X14.091 Y120.219 Z-0.852
N435 X14.097 Y120.221 Z-0.8
N440 G0 Z5
N445 X13.994 Y120.607
N450 G1 Z0.5 F300
N455 Z-1.3
N460 X13.987 Y120.606 Z-1.352
N465 X13.968 Y120.6 Z-1.4
N470 X13.937 Y120.592 Z-1.441
N475 X13.897 Y120.581 Z-1.473
N480 X13.851 Y120.569 Z-1.493
N485 X13.801 Y120.556 Z-1.5
N490 X13.607 Y120.504
N495 G3 X13.466 Y120.259 I0.052 J-0.193
N500 G1 X13.966 Y118.393
N505 G2 X14 Y118.134 I-0.966 J-0.259
N510 G1 Y1.866
N515 G2 X13.966 Y1.607 I-1
N520 G1 X13.466 Y-0.259
N525 G2 X12.5 Y-1 I-0.966 J0.259
N530 G1 X0
N535 G2 X-1 Y0 J1
N540 G1 Y22
N545 G2 X0 Y23 I1
N550 G1 X8.5
N555 Y97
N560 X0
N565 G2 X-1 Y98 J1
N570 G1 Y120
N575 G2 X0 Y121 I1
N580 G1 X12.5
N585 G2 X13.466 Y120.259 J-1
N590 G3 X13.711 Y120.117 I0.193 J0.052
N595 G1 X13.904 Y120.169
N600 X13.954 Y120.183 Z-1.493
N605 X14.001 Y120.195 Z-1.473
N610 X14.041 Y120.206 Z-1.441
N615 X14.071 Y120.214 Z-1.4
N620 X14.091 Y120.219 Z-1.352
N625 X14.097 Y120.221 Z-1.3
N630 G0 Z5
N635 X13.994 Y120.607
N640 G1 Z0 F300
N645 Z-1.8
N650 X13.987 Y120.606 Z-1.852
N655 X13.968 Y120.6 Z-1.9
N660 X13.937 Y120.592 Z-1.941
N665 X13.897 Y120.581 Z-1.973
N670 X13.851 Y120.569 Z-1.993
N675 X13.801 Y120.556 Z-2
N680 X13.607 Y120.504
N685 G3 X13.466 Y120.259 I0.052 J-0.193
N690 G1 X13.966 Y118.393
N695 G2 X14 Y118.134 I-0.966 J-0.259
N700 G1 Y1.866
N705 G2 X13.966 Y1.607 I-1
N710 G1 X13.466 Y-0.259
N715 G2 X12.5 Y-1 I-0.966 J0.259
N720 G1 X0
N725 G2 X-1 Y0 J1
N730 G1 Y22
N735 G2 X0 Y23 I1
N740 G1 X8.5
N745 Y97
N750 X0
N755 G2 X-1 Y98 J1
N760 G1 Y120
N765 G2 X0 Y121 I1
N770 G1 X12.5
N775 G2 X13.466 Y120.259 J-1
N780 G3 X13.711 Y120.117 I0.193 J0.052
N785 G1 X13.904 Y120.169
N790 X13.954 Y120.183 Z-1.993
N795 X14.001 Y120.195 Z-1.973
N800 X14.041 Y120.206 Z-1.941
N805 X14.071 Y120.214 Z-1.9
N810 X14.091 Y120.219 Z-1.852
N815 X14.097 Y120.221 Z-1.8
N820 G0 Z5
N825 X13.994 Y120.607
N830 G1 Z-0.5 F300
N835 Z-2.3
N840 X13.987 Y120.606 Z-2.352
N845 X13.968 Y120.6 Z-2.4
N850 X13.937 Y120.592 Z-2.441
N855 X13.897 Y120.581 Z-2.473
N860 X13.851 Y120.569 Z-2.493
N865 X13.801 Y120.556 Z-2.5
N870 X13.607 Y120.504
N875 G3 X13.466 Y120.259 I0.052 J-0.193
N880 G1 X13.966 Y118.393
N885 G2 X14 Y118.134 I-0.966 J-0.259
N890 G1 Y1.866
N895 G2 X13.966 Y1.607 I-1
N900 G1 X13.466 Y-0.259
N905 G2 X12.5 Y-1 I-0.966 J0.259
N910 G1 X0
N915 G2 X-1 Y0 J1
N920 G1 Y22
N925 G2 X0 Y23 I1
N930 G1 X8.5
N935 Y97
N940 X0
N945 G2 X-1 Y98 J1
N950 G1 Y120
N955 G2 X0 Y121 I1
N960 G1 X12.5
N965 G2 X13.466 Y120.259 J-1
N970 G3 X13.711 Y120.117 I0.193 J0.052
N975 G1 X13.904 Y120.169
N980 X13.954 Y120.183 Z-2.493
N985 X14.001 Y120.195 Z-2.473
N990 X14.041 Y120.206 Z-2.441
N995 X14.071 Y120.214 Z-2.4
N1000 X14.091 Y120.219 Z-2.352
N1005 X14.097 Y120.221 Z-2.3
N1010 G0 Z5
N1015 X13.994 Y120.607
N1020 G1 Z-1 F300
N1025 Z-2.8
N1030 X13.987 Y120.606 Z-2.852
N1035 X13.968 Y120.6 Z-2.9
N1040 X13.937 Y120.592 Z-2.941
N1045 X13.897 Y120.581 Z-2.973
N1050 X13.851 Y120.569 Z-2.993
N1055 X13.801 Y120.556 Z-3
N1060 X13.607 Y120.504
N1065 G3 X13.466 Y120.259 I0.052 J-0.193
N1070 G1 X13.966 Y118.393
N1075 G2 X14 Y118.134 I-0.966 J-0.259
N1080 G1 Y1.866
N1085 G2 X13.966 Y1.607 I-1
N1090 G1 X13.466 Y-0.259
N1095 G2 X12.5 Y-1 I-0.966 J0.259
N1100 G1 X0
N1105 G2 X-1 Y0 J1
N1110 G1 Y22
N1115 G2 X0 Y23 I1
N1120 G1 X8.5
N1125 Y97
N1130 X0
N1135 G2 X-1 Y98 J1
N1140 G1 Y120
N1145 G2 X0 Y121 I1
N1150 G1 X12.5
N1155 G2 X13.466 Y120.259 J-1
N1160 G3 X13.711 Y120.117 I0.193 J0.052
N1165 G1 X13.904 Y120.169
N1170 X13.954 Y120.183 Z-2.993
N1175 X14.001 Y120.195 Z-2.973
N1180 X14.041 Y120.206 Z-2.941
N1185 X14.071 Y120.214 Z-2.9
N1190 X14.091 Y120.219 Z-2.852
N1195 X14.097 Y120.221 Z-2.8
N1200 G0 Z5
N1205 X13.994 Y120.607
N1210 G1 Z-1.5 F300
N1215 Z-3.3
N1220 X13.987 Y120.606 Z-3.352
N1225 X13.968 Y120.6 Z-3.4
N1230 X13.937 Y120.592 Z-3.441
N1235 X13.897 Y120.581 Z-3.473
N1240 X13.851 Y120.569 Z-3.493
N1245 X13.801 Y120.556 Z-3.5
N1250 X13.607 Y120.504
N1255 G3 X13.466 Y120.259 I0.052 J-0.193
N1260 G1 X13.966 Y118.393
N1265 G2 X14 Y118.134 I-0.966 J-0.259
N1270 G1 Y1.866
N1275 G2 X13.966 Y1.607 I-1
N1280 G1 X13.466 Y-0.259
N1285 G2 X12.5 Y-1 I-0.966 J0.259
N1290 G1 X0
N1295 G2 X-1 Y0 J1
N1300 G1 Y22
N1305 G2 X0 Y23 I1
N1310 G1 X8.5
N1315 Y97
N1320 X0
N1325 G2 X-1 Y98 J1
N1330 G1 Y120
N1335 G2 X0 Y121 I1
N1340 G1 X12.5
N1345 G2 X13.466 Y120.259 J-1
N1350 G3 X13.711 Y120.117 I0.193 J0.052
N1355 G1 X13.904 Y120.169
N1360 X13.954 Y120.183 Z-3.493
N1365 X14.001 Y120.195 Z-3.473
N1370 X14.041 Y120.206 Z-3.441
N1375 X14.071 Y120.214 Z-3.4
N1380 X14.091 Y120.219 Z-3.352
N1385 X14.097 Y120.221 Z-3.3
N1390 G0 Z5
N1395 X13.994 Y120.607
N1400 G1 Z-2 F300
N1405 Z-3.8
N1410 X13.987 Y120.606 Z-3.852
N1415 X13.968 Y120.6 Z-3.9
N1420 X13.937 Y120.592 Z-3.941
N1425 X13.897 Y120.581 Z-3.973
N1430 X13.851 Y120.569 Z-3.993
N1435 X13.801 Y120.556 Z-4
N1440 X13.607 Y120.504
N1445 G3 X13.466 Y120.259 I0.052 J-0.193
N1450 G1 X13.966 Y118.393
N1455 G2 X14 Y118.134 I-0.966 J-0.259
N1460 G1 Y1.866
N1465 G2 X13.966 Y1.607 I-1
N1470 G1 X13.466 Y-0.259
N1475 G2 X12.5 Y-1 I-0.966 J0.259
N1480 G1 X0
N1485 G2 X-1 Y0 J1
N1490 G1 Y22
N1495 G2 X0 Y23 I1
N1500 G1 X8.5
N1505 Y97
N1510 X0
N1515 G2 X-1 Y98 J1
N1520 G1 Y120
N1525 G2 X0 Y121 I1
N1530 G1 X12.5
N1535 G2 X13.466 Y120.259 J-1
N1540 G3 X13.711 Y120.117 I0.193 J0.052
N1545 G1 X13.904 Y120.169
N1550 X13.954 Y120.183 Z-3.993
N1555 X14.001 Y120.195 Z-3.973
N1560 X14.041 Y120.206 Z-3.941
N1565 X14.071 Y120.214 Z-3.9
N1570 X14.091 Y120.219 Z-3.852
N1575 X14.097 Y120.221 Z-3.8
N1580 G0 Z5
N1585 X13.994 Y120.607
N1590 G1 Z-2.5 F300
N1595 Z-4.3
N1600 X13.987 Y120.606 Z-4.352
N1605 X13.968 Y120.6 Z-4.4
N1610 X13.937 Y120.592 Z-4.441
N1615 X13.897 Y120.581 Z-4.473
N1620 X13.851 Y120.569 Z-4.493
N1625 X13.801 Y120.556 Z-4.5
N1630 X13.607 Y120.504
N1635 G3 X13.466 Y120.259 I0.052 J-0.193
N1640 G1 X13.966 Y118.393
N1645 G2 X14 Y118.134 I-0.966 J-0.259
N1650 G1 Y1.866
N1655 G2 X13.966 Y1.607 I-1
N1660 G1 X13.466 Y-0.259
N1665 G2 X12.5 Y-1 I-0.966 J0.259
N1670 G1 X0
N1675 G2 X-1 Y0 J1
N1680 G1 Y22
N1685 G2 X0 Y23 I1
N1690 G1 X8.5
N1695 Y97
N1700 X0
N1705 G2 X-1 Y98 J1
N1710 G1 Y120
N1715 G2 X0 Y121 I1
N1720 G1 X12.5
N1725 G2 X13.466 Y120.259 J-1
N1730 G3 X13.711 Y120.117 I0.193 J0.052
N1735 G1 X13.904 Y120.169
N1740 X13.954 Y120.183 Z-4.493
N1745 X14.001 Y120.195 Z-4.473
N1750 X14.041 Y120.206 Z-4.441
N1755 X14.071 Y120.214 Z-4.4
N1760 X14.091 Y120.219 Z-4.352
N1765 X14.097 Y120.221 Z-4.3
N1770 G0 Z5
N1775 X13.994 Y120.607
N1780 G1 Z-3 F300
N1785 Z-4.8
N1790 X13.987 Y120.606 Z-4.852
N1795 X13.968 Y120.6 Z-4.9
N1800 X13.937 Y120.592 Z-4.941
N1805 X13.897 Y120.581 Z-4.973
N1810 X13.851 Y120.569 Z-4.993
N1815 X13.801 Y120.556 Z-5
N1820 X13.607 Y120.504
N1825 G3 X13.466 Y120.259 I0.052 J-0.193
N1830 G1 X13.966 Y118.393
N1835 G2 X14 Y118.134 I-0.966 J-0.259
N1840 G1 Y1.866
N1845 G2 X13.966 Y1.607 I-1
N1850 G1 X13.466 Y-0.259
N1855 G2 X12.5 Y-1 I-0.966 J0.259
N1860 G1 X0
N1865 G2 X-1 Y0 J1
N1870 G1 Y22
N1875 G2 X0 Y23 I1
N1880 G1 X8.5
N1885 Y97
N1890 X0
N1895 G2 X-1 Y98 J1
N1900 G1 Y120
N1905 G2 X0 Y121 I1
N1910 G1 X12.5
N1915 G2 X13.466 Y120.259 J-1
N1920 G3 X13.711 Y120.117 I0.193 J0.052
N1925 G1 X13.904 Y120.169
N1930 X13.954 Y120.183 Z-4.993
N1935 X14.001 Y120.195 Z-4.973
N1940 X14.041 Y120.206 Z-4.941
N1945 X14.071 Y120.214 Z-4.9
N1950 X14.091 Y120.219 Z-4.852
N1955 X14.097 Y120.221 Z-4.8
N1960 G0 Z5
N1965 X13.994 Y120.607
N1970 G1 Z-3.5 F300
N1975 Z-5.3
N1980 X13.987 Y120.606 Z-5.352
N1985 X13.968 Y120.6 Z-5.4
N1990 X13.937 Y120.592 Z-5.441
N1995 X13.897 Y120.581 Z-5.473
N2000 X13.851 Y120.569 Z-5.493
N2005 X13.801 Y120.556 Z-5.5
N2010 X13.607 Y120.504
N2015 G3 X13.466 Y120.259 I0.052 J-0.193
N2020 G1 X13.966 Y118.393
N2025 G2 X14 Y118.134 I-0.966 J-0.259
N2030 G1 Y1.866
N2035 G2 X13.966 Y1.607 I-1
N2040 G1 X13.466 Y-0.259
N2045 G2 X12.5 Y-1 I-0.966 J0.259
N2050 G1 X0
N2055 G2 X-1 Y0 J1
N2060 G1 Y22
N2065 G2 X0 Y23 I1
N2070 G1 X8.5
N2075 Y97
N2080 X0
N2085 G2 X-1 Y98 J1
N2090 G1 Y120
N2095 G2 X0 Y121 I1
N2100 G1 X12.5
N2105 G2 X13.466 Y120.259 J-1
N2110 G3 X13.711 Y120.117 I0.193 J0.052
N2115 G1 X13.904 Y120.169
N2120 X13.954 Y120.183 Z-5.493
N2125 X14.001 Y120.195 Z-5.473
N2130 X14.041 Y120.206 Z-5.441
N2135 X14.071 Y120.214 Z-5.4
N2140 X14.091 Y120.219 Z-5.352
N2145 X14.097 Y120.221 Z-5.3
N2150 G0 Z5
N2155 X13.994 Y120.607
N2160 G1 Z-4 F300
N2165 Z-5.8
N2170 X13.987 Y120.606 Z-5.852
N2175 X13.968 Y120.6 Z-5.9
N2180 X13.937 Y120.592 Z-5.941
N2185 X13.897 Y120.581 Z-5.973
N2190 X13.851 Y120.569 Z-5.993
N2195 X13.801 Y120.556 Z-6
N2200 X13.607 Y120.504
N2205 G3 X13.466 Y120.259 I0.052 J-0.193
N2210 G1 X13.966 Y118.393
N2215 G2 X14 Y118.134 I-0.966 J-0.259
N2220 G1 Y1.866
N2225 G2 X13.966 Y1.607 I-1
N2230 G1 X13.466 Y-0.259
N2235 G2 X12.5 Y-1 I-0.966 J0.259
N2240 G1 X0
N2245 G2 X-1 Y0 J1
N2250 G1 Y22
N2255 G2 X0 Y23 I1
N2260 G1 X8.5
N2265 Y97
N2270 X0
N2275 G2 X-1 Y98 J1
N2280 G1 Y120
N2285 G2 X0 Y121 I1
N2290 G1 X12.5
N2295 G2 X13.466 Y120.259 J-1
N2300 G3 X13.711 Y120.117 I0.193 J0.052
N2305 G1 X13.904 Y120.169
N2310 X13.954 Y120.183 Z-5.993
N2315 X14.001 Y120.195 Z-5.973
N2320 X14.041 Y120.206 Z-5.941
N2325 X14.071 Y120.214 Z-5.9
N2330 X14.091 Y120.219 Z-5.852
N2335 X14.097 Y120.221 Z-5.8
N2340 G0 Z5
N2345 X13.994 Y120.607
N2350 G1 Z-4.5 F300
N2355 Z-6.3
N2360 X13.987 Y120.606 Z-6.352
N2365 X13.968 Y120.6 Z-6.4
N2370 X13.937 Y120.592 Z-6.441
N2375 X13.897 Y120.581 Z-6.473
N2380 X13.851 Y120.569 Z-6.493
N2385 X13.801 Y120.556 Z-6.5
N2390 X13.607 Y120.504
N2395 G3 X13.466 Y120.259 I0.052 J-0.193
N2400 G1 X13.966 Y118.393
N2405 G2 X14 Y118.134 I-0.966 J-0.259
N2410 G1 Y1.866
N2415 G2 X13.966 Y1.607 I-1
N2420 G1 X13.466 Y-0.259
N2425 G2 X12.5 Y-1 I-0.966 J0.259
N2430 G1 X0
N2435 G2 X-1 Y0 J1
N2440 G1 Y22
N2445 G2 X0 Y23 I1
N2450 G1 X8.5
N2455 Y97
N2460 X0
N2465 G2 X-1 Y98 J1
N2470 G1 Y120
N2475 G2 X0 Y121 I1
N2480 G1 X12.5
N2485 G2 X13.466 Y120.259 J-1
N2490 G3 X13.711 Y120.117 I0.193 J0.052
N2495 G1 X13.904 Y120.169
N2500 X13.954 Y120.183 Z-6.493
N2505 X14.001 Y120.195 Z-6.473
N2510 X14.041 Y120.206 Z-6.441
N2515 X14.071 Y120.214 Z-6.4
N2520 X14.091 Y120.219 Z-6.352
N2525 X14.097 Y120.221 Z-6.3
N2530 G0 Z5
N2535 X13.994 Y120.607
N2540 G1 Z-5 F300
N2545 Z-6.8
N2550 X13.987 Y120.606 Z-6.852
N2555 X13.968 Y120.6 Z-6.9
N2560 X13.937 Y120.592 Z-6.941
N2565 X13.897 Y120.581 Z-6.973
N2570 X13.851 Y120.569 Z-6.993
N2575 X13.801 Y120.556 Z-7
N2580 X13.607 Y120.504
N2585 G3 X13.466 Y120.259 I0.052 J-0.193
N2590 G1 X13.966 Y118.393
N2595 G2 X14 Y118.134 I-0.966 J-0.259
N2600 G1 Y1.866
N2605 G2 X13.966 Y1.607 I-1
N2610 G1 X13.466 Y-0.259
N2615 G2 X12.5 Y-1 I-0.966 J0.259
N2620 G1 X0
N2625 G2 X-1 Y0 J1
N2630 G1 Y22
N2635 G2 X0 Y23 I1
N2640 G1 X8.5
N2645 Y97
N2650 X0
N2655 G2 X-1 Y98 J1
N2660 G1 Y120
N2665 G2 X0 Y121 I1
N2670 G1 X12.5
N2675 G2 X13.466 Y120.259 J-1
N2680 G3 X13.711 Y120.117 I0.193 J0.052
N2685 G1 X13.904 Y120.169
N2690 X13.954 Y120.183 Z-6.993
N2695 X14.001 Y120.195 Z-6.973
N2700 X14.041 Y120.206 Z-6.941
N2705 X14.071 Y120.214 Z-6.9
N2710 X14.091 Y120.219 Z-6.852
N2715 X14.097 Y120.221 Z-6.8
N2720 G0 Z5
N2725 X13.994 Y120.607
N2730 G1 Z-5.5 F300
N2735 Z-7.3
N2740 X13.987 Y120.606 Z-7.352
N2745 X13.968 Y120.6 Z-7.4
N2750 X13.937 Y120.592 Z-7.441
N2755 X13.897 Y120.581 Z-7.473
N2760 X13.851 Y120.569 Z-7.493
N2765 X13.801 Y120.556 Z-7.5
N2770 X13.607 Y120.504
N2775 G3 X13.466 Y120.259 I0.052 J-0.193
N2780 G1 X13.966 Y118.393
N2785 G2 X14 Y118.134 I-0.966 J-0.259
N2790 G1 Y1.866
N2795 G2 X13.966 Y1.607 I-1
N2800 G1 X13.466 Y-0.259
N2805 G2 X12.5 Y-1 I-0.966 J0.259
N2810 G1 X0
N2815 G2 X-1 Y0 J1
N2820 G1 Y22
N2825 G2 X0 Y23 I1
N2830 G1 X8.5
N2835 Y97
N2840 X0
N2845 G2 X-1 Y98 J1
N2850 G1 Y120
N2855 G2 X0 Y121 I1
N2860 G1 X12.5
N2865 G2 X13.466 Y120.259 J-1
N2870 G3 X13.711 Y120.117 I0.193 J0.052
N2875 G1 X13.904 Y120.169
N2880 X13.954 Y120.183 Z-7.493
N2885 X14.001 Y120.195 Z-7.473
N2890 X14.041 Y120.206 Z-7.441
N2895 X14.071 Y120.214 Z-7.4
N2900 X14.091 Y120.219 Z-7.352
N2905 X14.097 Y120.221 Z-7.3
N2910 G0 Z5
N2915 X13.994 Y120.607
N2920 G1 Z-6 F300
N2925 Z-7.8
N2930 X13.987 Y120.606 Z-7.852
N2935 X13.968 Y120.6 Z-7.9
N2940 X13.937 Y120.592 Z-7.941
N2945 X13.897 Y120.581 Z-7.973
N2950 X13.851 Y120.569 Z-7.993
N2955 X13.801 Y120.556 Z-8
N2960 X13.607 Y120.504
N2965 G3 X13.466 Y120.259 I0.052 J-0.193
N2970 G1 X13.966 Y118.393
N2975 G2 X14 Y118.134 I-0.966 J-0.259
N2980 G1 Y1.866
N2985 G2 X13.966 Y1.607 I-1
N2990 G1 X13.466 Y-0.259
N2995 G2 X12.5 Y-1 I-0.966 J0.259
N3000 G1 X0
N3005 G2 X-1 Y0 J1
N3010 G1 Y22
N3015 G2 X0 Y23 I1
N3020 G1 X8.5
N3025 Y97
N3030 X0
N3035 G2 X-1 Y98 J1
N3040 G1 Y120
N3045 G2 X0 Y121 I1
N3050 G1 X12.5
N3055 G2 X13.466 Y120.259 J-1
N3060 G3 X13.711 Y120.117 I0.193 J0.052
N3065 G1 X13.904 Y120.169
N3070 X13.954 Y120.183 Z-7.993
N3075 X14.001 Y120.195 Z-7.973
N3080 X14.041 Y120.206 Z-7.941
N3085 X14.071 Y120.214 Z-7.9
N3090 X14.091 Y120.219 Z-7.852
N3095 X14.097 Y120.221 Z-7.8
N3100 G0 Z5
N3105 X13.994 Y120.607
N3110 G1 Z-6.5 F300
N3115 Z-8.3
N3120 X13.987 Y120.606 Z-8.352
N3125 X13.968 Y120.6 Z-8.4
N3130 X13.937 Y120.592 Z-8.441
N3135 X13.897 Y120.581 Z-8.473
N3140 X13.851 Y120.569 Z-8.493
N3145 X13.801 Y120.556 Z-8.5
N3150 X13.607 Y120.504
N3155 G3 X13.466 Y120.259 I0.052 J-0.193
N3160 G1 X13.966 Y118.393
N3165 G2 X14 Y118.134 I-0.966 J-0.259
N3170 G1 Y1.866
N3175 G2 X13.966 Y1.607 I-1
N3180 G1 X13.466 Y-0.259
N3185 G2 X12.5 Y-1 I-0.966 J0.259
N3190 G1 X0
N3195 G2 X-1 Y0 J1
N3200 G1 Y22
N3205 G2 X0 Y23 I1
N3210 G1 X8.5
N3215 Y97
N3220 X0
N3225 G2 X-1 Y98 J1
N3230 G1 Y120
N3235 G2 X0 Y121 I1
N3240 G1 X12.5
N3245 G2 X13.466 Y120.259 J-1
N3250 G3 X13.711 Y120.117 I0.193 J0.052
N3255 G1 X13.904 Y120.169
N3260 X13.954 Y120.183 Z-8.493
N3265 X14.001 Y120.195 Z-8.473
N3270 X14.041 Y120.206 Z-8.441
N3275 X14.071 Y120.214 Z-8.4
N3280 X14.091 Y120.219 Z-8.352
N3285 X14.097 Y120.221 Z-8.3
N3290 G0 Z5
N3295 X13.994 Y120.607
N3300 G1 Z-7 F300
N3305 Z-8.8
N3310 X13.987 Y120.606 Z-8.852
N3315 X13.968 Y120.6 Z-8.9
N3320 X13.937 Y120.592 Z-8.941
N3325 X13.897 Y120.581 Z-8.973
N3330 X13.851 Y120.569 Z-8.993
N3335 X13.801 Y120.556 Z-9
N3340 X13.607 Y120.504
N3345 G3 X13.466 Y120.259 I0.052 J-0.193
N3350 G1 X13.966 Y118.393
N3355 G2 X14 Y118.134 I-0.966 J-0.259
N3360 G1 Y1.866
N3365 G2 X13.966 Y1.607 I-1
N3370 G1 X13.466 Y-0.259
N3375 G2 X12.5 Y-1 I-0.966 J0.259
N3380 G1 X0
N3385 G2 X-1 Y0 J1
N3390 G1 Y22
N3395 G2 X0 Y23 I1
N3400 G1 X8.5
N3405 Y97
N3410 X0
N3415 G2 X-1 Y98 J1
N3420 G1 Y120
N3425 G2 X0 Y121 I1
N3430 G1 X12.5
N3435 G2 X13.466 Y120.259 J-1
N3440 G3 X13.711 Y120.117 I0.193 J0.052
N3445 G1 X13.904 Y120.169
N3450 X13.954 Y120.183 Z-8.993
N3455 X14.001 Y120.195 Z-8.973
N3460 X14.041 Y120.206 Z-8.941
N3465 X14.071 Y120.214 Z-8.9
N3470 X14.091 Y120.219 Z-8.852
N3475 X14.097 Y120.221 Z-8.8
N3480 G0 Z5
N3485 X13.994 Y120.607
N3490 G1 Z-7.5 F300
N3495 Z-9
N3500 X13.987 Y120.606 Z-9.052
N3505 X13.968 Y120.6 Z-9.1
N3510 X13.937 Y120.592 Z-9.141
N3515 X13.897 Y120.581 Z-9.173
N3520 X13.851 Y120.569 Z-9.193
N3525 X13.801 Y120.556 Z-9.2
N3530 X13.607 Y120.504
N3535 G3 X13.466 Y120.259 I0.052 J-0.193
N3540 G1 X13.966 Y118.393
N3545 G2 X14 Y118.134 I-0.966 J-0.259
N3550 G1 Y1.866
N3555 G2 X13.966 Y1.607 I-1
N3560 G1 X13.466 Y-0.259
N3565 G2 X12.5 Y-1 I-0.966 J0.259
N3570 G1 X0
N3575 G2 X-1 Y0 J1
N3580 G1 Y22
N3585 G2 X0 Y23 I1
N3590 G1 X8.5
N3595 Y97
N3600 X0
N3605 G2 X-1 Y98 J1
N3610 G1 Y120
N3615 G2 X0 Y121 I1
N3620 G1 X12.5
N3625 G2 X13.466 Y120.259 J-1
N3630 G3 X13.711 Y120.117 I0.193 J0.052
N3635 G1 X13.904 Y120.169
N3640 X13.954 Y120.183 Z-9.193
N3645 X14.001 Y120.195 Z-9.173
N3650 X14.041 Y120.206 Z-9.141
N3655 X14.071 Y120.214 Z-9.1
N3660 X14.091 Y120.219 Z-9.052
N3665 X14.097 Y120.221 Z-9
N3670 G0 Z15
N3675 M9
N3680 G28
N3685 M30
%
