%
(1001)
(T2 D=4 CR=0 - ZMIN=-9.111 - flat end mill)
N10 G90 G94
N15 G17
N20 G21
N25 M9
N30 G28

(2D ??40)
N35 T2 M6
N40 S10000 M3
N45 G54
N50 M8
N55 G0 X-3.2 Y-0.4
N60 G43 Z15
N65 Z5
N70 G1 Z1.5 F300
N75 Z-0.1
N80 G18 G2 X-2.8 Z-0.5 I0.4
N85 G1 X-2.4 F150
N90 G17 G3 X-2 Y0 J0.4
N95 G1 Y127.864 F300
N100 G2 X0 Y129.864 I2
N105 G1 X3.5
N110 G2 X5.5 Y127.864 J-2
N115 G1 Y125.864
N120 X16.25
N125 G2 X18.25 Y123.864 J-2
N130 G1 Y120.864
N135 G2 X16.25 Y118.864 I-2
N140 G1 X15.25
N145 Y116.932
N150 G2 X13.25 Y114.932 I-2
N155 G1 X5.5
N160 Y12.932
N165 X13.25
N170 G2 X15.25 Y10.932 J-2
N175 G1 Y9
N180 X16.25
N185 G2 X18.25 Y7 J-2
N190 G1 Y4
N195 G2 X16.25 Y2 I-2
N200 G1 X5.5
N205 Y0
N210 G2 X3.5 Y-2 I-2
N215 G1 X0
N220 G2 X-2 Y0 J2
N225 G3 X-2.4 Y0.4 I-0.4
N230 G1 X-2.8
N235 G18 G3 X-3.2 Z-0.1 K0.4
N240 G0 Z5
N245 Y-0.4
N250 G1 Z1 F300
N255 Z-0.6
N260 G2 X-2.8 Z-1 I0.4
N265 G1 X-2.4 F150
N270 G17 G3 X-2 Y0 J0.4
N275 G1 Y127.864 F300
N280 G2 X0 Y129.864 I2
N285 G1 X3.5
N290 G2 X5.5 Y127.864 J-2
N295 G1 Y125.864
N300 X16.25
N305 G2 X18.25 Y123.864 J-2
N310 G1 Y120.864
N315 G2 X16.25 Y118.864 I-2
N320 G1 X15.25
N325 Y116.932
N330 G2 X13.25 Y114.932 I-2
N335 G1 X5.5
N340 Y12.932
N345 X13.25
N350 G2 X15.25 Y10.932 J-2
N355 G1 Y9
N360 X16.25
N365 G2 X18.25 Y7 J-2
N370 G1 Y4
N375 G2 X16.25 Y2 I-2
N380 G1 X5.5
N385 Y0
N390 G2 X3.5 Y-2 I-2
N395 G1 X0
N400 G2 X-2 Y0 J2
N405 G3 X-2.4 Y0.4 I-0.4
N410 G1 X-2.8
N415 G18 G3 X-3.2 Z-0.6 K0.4
N420 G0 Z5
N425 Y-0.4
N430 G1 Z0.5 F300
N435 Z-1.1
N440 G2 X-2.8 Z-1.5 I0.4
N445 G1 X-2.4 F150
N450 G17 G3 X-2 Y0 J0.4
N455 G1 Y127.864 F300
N460 G2 X0 Y129.864 I2
N465 G1 X3.5
N470 G2 X5.5 Y127.864 J-2
N475 G1 Y125.864
N480 X16.25
N485 G2 X18.25 Y123.864 J-2
N490 G1 Y120.864
N495 G2 X16.25 Y118.864 I-2
N500 G1 X15.25
N505 Y116.932
N510 G2 X13.25 Y114.932 I-2
N515 G1 X5.5
N520 Y12.932
N525 X13.25
N530 G2 X15.25 Y10.932 J-2
N535 G1 Y9
N540 X16.25
N545 G2 X18.25 Y7 J-2
N550 G1 Y4
N555 G2 X16.25 Y2 I-2
N560 G1 X5.5
N565 Y0
N570 G2 X3.5 Y-2 I-2
N575 G1 X0
N580 G2 X-2 Y0 J2
N585 G3 X-2.4 Y0.4 I-0.4
N590 G1 X-2.8
N595 G18 G3 X-3.2 Z-1.1 K0.4
N600 G0 Z5
N605 Y-0.4
N610 G1 Z0 F300
N615 Z-1.6
N620 G2 X-2.8 Z-2 I0.4
N625 G1 X-2.4 F150
N630 G17 G3 X-2 Y0 J0.4
N635 G1 Y127.864 F300
N640 G2 X0 Y129.864 I2
N645 G1 X3.5
N650 G2 X5.5 Y127.864 J-2
N655 G1 Y125.864
N660 X16.25
N665 G2 X18.25 Y123.864 J-2
N670 G1 Y120.864
N675 G2 X16.25 Y118.864 I-2
N680 G1 X15.25
N685 Y116.932
N690 G2 X13.25 Y114.932 I-2
N695 G1 X5.5
N700 Y12.932
N705 X13.25
N710 G2 X15.25 Y10.932 J-2
N715 G1 Y9
N720 X16.25
N725 G2 X18.25 Y7 J-2
N730 G1 Y4
N735 G2 X16.25 Y2 I-2
N740 G1 X5.5
N745 Y0
N750 G2 X3.5 Y-2 I-2
N755 G1 X0
N760 G2 X-2 Y0 J2
N765 G3 X-2.4 Y0.4 I-0.4
N770 G1 X-2.8
N775 G18 G3 X-3.2 Z-1.6 K0.4
N780 G0 Z5
N785 Y-0.4
N790 G1 Z-0.5 F300
N795 Z-2.1
N800 G2 X-2.8 Z-2.5 I0.4
N805 G1 X-2.4 F150
N810 G17 G3 X-2 Y0 J0.4
N815 G1 Y127.864 F300
N820 G2 X0 Y129.864 I2
N825 G1 X3.5
N830 G2 X5.5 Y127.864 J-2
N835 G1 Y125.864
N840 X16.25
N845 G2 X18.25 Y123.864 J-2
N850 G1 Y120.864
N855 G2 X16.25 Y118.864 I-2
N860 G1 X15.25
N865 Y116.932
N870 G2 X13.25 Y114.932 I-2
N875 G1 X5.5
N880 Y12.932
N885 X13.25
N890 G2 X15.25 Y10.932 J-2
N895 G1 Y9
N900 X16.25
N905 G2 X18.25 Y7 J-2
N910 G1 Y4
N915 G2 X16.25 Y2 I-2
N920 G1 X5.5
N925 Y0
N930 G2 X3.5 Y-2 I-2
N935 G1 X0
N940 G2 X-2 Y0 J2
N945 G3 X-2.4 Y0.4 I-0.4
N950 G1 X-2.8
N955 G18 G3 X-3.2 Z-2.1 K0.4
N960 G0 Z5
N965 Y-0.4
N970 G1 Z-1 F300
N975 Z-2.6
N980 G2 X-2.8 Z-3 I0.4
N985 G1 X-2.4 F150
N990 G17 G3 X-2 Y0 J0.4
N995 G1 Y127.864 F300
N1000 G2 X0 Y129.864 I2
N1005 G1 X3.5
N1010 G2 X5.5 Y127.864 J-2
N1015 G1 Y125.864
N1020 X16.25
N1025 G2 X18.25 Y123.864 J-2
N1030 G1 Y120.864
N1035 G2 X16.25 Y118.864 I-2
N1040 G1 X15.25
N1045 Y116.932
N1050 G2 X13.25 Y114.932 I-2
N1055 G1 X5.5
N1060 Y12.932
N1065 X13.25
N1070 G2 X15.25 Y10.932 J-2
N1075 G1 Y9
N1080 X16.25
N1085 G2 X18.25 Y7 J-2
N1090 G1 Y4
N1095 G2 X16.25 Y2 I-2
N1100 G1 X5.5
N1105 Y0
N1110 G2 X3.5 Y-2 I-2
N1115 G1 X0
N1120 G2 X-2 Y0 J2
N1125 G3 X-2.4 Y0.4 I-0.4
N1130 G1 X-2.8
N1135 G18 G3 X-3.2 Z-2.6 K0.4
N1140 G0 Z5
N1145 Y-0.4
N1150 G1 Z-1.5 F300
N1155 Z-3.1
N1160 G2 X-2.8 Z-3.5 I0.4
N1165 G1 X-2.4 F150
N1170 G17 G3 X-2 Y0 J0.4
N1175 G1 Y127.864 F300
N1180 G2 X0 Y129.864 I2
N1185 G1 X3.5
N1190 G2 X5.5 Y127.864 J-2
N1195 G1 Y125.864
N1200 X16.25
N1205 G2 X18.25 Y123.864 J-2
N1210 G1 Y120.864
N1215 G2 X16.25 Y118.864 I-2
N1220 G1 X15.25
N1225 Y116.932
N1230 G2 X13.25 Y114.932 I-2
N1235 G1 X5.5
N1240 Y12.932
N1245 X13.25
N1250 G2 X15.25 Y10.932 J-2
N1255 G1 Y9
N1260 X16.25
N1265 G2 X18.25 Y7 J-2
N1270 G1 Y4
N1275 G2 X16.25 Y2 I-2
N1280 G1 X5.5
N1285 Y0
N1290 G2 X3.5 Y-2 I-2
N1295 G1 X0
N1300 G2 X-2 Y0 J2
N1305 G3 X-2.4 Y0.4 I-0.4
N1310 G1 X-2.8
N1315 G18 G3 X-3.2 Z-3.1 K0.4
N1320 G0 Z5
N1325 Y-0.4
N1330 G1 Z-2 F300
N1335 Z-3.6
N1340 G2 X-2.8 Z-4 I0.4
N1345 G1 X-2.4 F150
N1350 G17 G3 X-2 Y0 J0.4
N1355 G1 Y127.864 F300
N1360 G2 X0 Y129.864 I2
N1365 G1 X3.5
N1370 G2 X5.5 Y127.864 J-2
N1375 G1 Y125.864
N1380 X16.25
N1385 G2 X18.25 Y123.864 J-2
N1390 G1 Y120.864
N1395 G2 X16.25 Y118.864 I-2
N1400 G1 X15.25
N1405 Y116.932
N1410 G2 X13.25 Y114.932 I-2
N1415 G1 X5.5
N1420 Y12.932
N1425 X13.25
N1430 G2 X15.25 Y10.932 J-2
N1435 G1 Y9
N1440 X16.25
N1445 G2 X18.25 Y7 J-2
N1450 G1 Y4
N1455 G2 X16.25 Y2 I-2
N1460 G1 X5.5
N1465 Y0
N1470 G2 X3.5 Y-2 I-2
N1475 G1 X0
N1480 G2 X-2 Y0 J2
N1485 G3 X-2.4 Y0.4 I-0.4
N1490 G1 X-2.8
N1495 G18 G3 X-3.2 Z-3.6 K0.4
N1500 G0 Z5
N1505 Y-0.4
N1510 G1 Z-2.5 F300
N1515 Z-4.1
N1520 G2 X-2.8 Z-4.5 I0.4
N1525 G1 X-2.4 F150
N1530 G17 G3 X-2 Y0 J0.4
N1535 G1 Y127.864 F300
N1540 G2 X0 Y129.864 I2
N1545 G1 X3.5
N1550 G2 X5.5 Y127.864 J-2
N1555 G1 Y125.864
N1560 X16.25
N1565 G2 X18.25 Y123.864 J-2
N1570 G1 Y120.864
N1575 G2 X16.25 Y118.864 I-2
N1580 G1 X15.25
N1585 Y116.932
N1590 G2 X13.25 Y114.932 I-2
N1595 G1 X5.5
N1600 Y12.932
N1605 X13.25
N1610 G2 X15.25 Y10.932 J-2
N1615 G1 Y9
N1620 X16.25
N1625 G2 X18.25 Y7 J-2
N1630 G1 Y4
N1635 G2 X16.25 Y2 I-2
N1640 G1 X5.5
N1645 Y0
N1650 G2 X3.5 Y-2 I-2
N1655 G1 X0
N1660 G2 X-2 Y0 J2
N1665 G3 X-2.4 Y0.4 I-0.4
N1670 G1 X-2.8
N1675 G18 G3 X-3.2 Z-4.1 K0.4
N1680 G0 Z5
N1685 Y-0.4
N1690 G1 Z-3 F300
N1695 Z-4.6
N1700 G2 X-2.8 Z-5 I0.4
N1705 G1 X-2.4 F150
N1710 G17 G3 X-2 Y0 J0.4
N1715 G1 Y127.864 F300
N1720 G2 X0 Y129.864 I2
N1725 G1 X3.5
N1730 G2 X5.5 Y127.864 J-2
N1735 G1 Y125.864
N1740 X16.25
N1745 G2 X18.25 Y123.864 J-2
N1750 G1 Y120.864
N1755 G2 X16.25 Y118.864 I-2
N1760 G1 X15.25
N1765 Y116.932
N1770 G2 X13.25 Y114.932 I-2
N1775 G1 X5.5
N1780 Y12.932
N1785 X13.25
N1790 G2 X15.25 Y10.932 J-2
N1795 G1 Y9
N1800 X16.25
N1805 G2 X18.25 Y7 J-2
N1810 G1 Y4
N1815 G2 X16.25 Y2 I-2
N1820 G1 X5.5
N1825 Y0
N1830 G2 X3.5 Y-2 I-2
N1835 G1 X0
N1840 G2 X-2 Y0 J2
N1845 G3 X-2.4 Y0.4 I-0.4
N1850 G1 X-2.8
N1855 G18 G3 X-3.2 Z-4.6 K0.4
N1860 G0 Z5
N1865 Y-0.4
N1870 G1 Z-3.5 F300
N1875 Z-5.1
N1880 G2 X-2.8 Z-5.5 I0.4
N1885 G1 X-2.4 F150
N1890 G17 G3 X-2 Y0 J0.4
N1895 G1 Y127.864 F300
N1900 G2 X0 Y129.864 I2
N1905 G1 X3.5
N1910 G2 X5.5 Y127.864 J-2
N1915 G1 Y125.864
N1920 X16.25
N1925 G2 X18.25 Y123.864 J-2
N1930 G1 Y120.864
N1935 G2 X16.25 Y118.864 I-2
N1940 G1 X15.25
N1945 Y116.932
N1950 G2 X13.25 Y114.932 I-2
N1955 G1 X5.5
N1960 Y12.932
N1965 X13.25
N1970 G2 X15.25 Y10.932 J-2
N1975 G1 Y9
N1980 X16.25
N1985 G2 X18.25 Y7 J-2
N1990 G1 Y4
N1995 G2 X16.25 Y2 I-2
N2000 G1 X5.5
N2005 Y0
N2010 G2 X3.5 Y-2 I-2
N2015 G1 X0
N2020 G2 X-2 Y0 J2
N2025 G3 X-2.4 Y0.4 I-0.4
N2030 G1 X-2.8
N2035 G18 G3 X-3.2 Z-5.1 K0.4
N2040 G0 Z5
N2045 Y-0.4
N2050 G1 Z-4 F300
N2055 Z-5.6
N2060 G2 X-2.8 Z-6 I0.4
N2065 G1 X-2.4 F150
N2070 G17 G3 X-2 Y0 J0.4
N2075 G1 Y127.864 F300
N2080 G2 X0 Y129.864 I2
N2085 G1 X3.5
N2090 G2 X5.5 Y127.864 J-2
N2095 G1 Y125.864
N2100 X16.25
N2105 G2 X18.25 Y123.864 J-2
N2110 G1 Y120.864
N2115 G2 X16.25 Y118.864 I-2
N2120 G1 X15.25
N2125 Y116.932
N2130 G2 X13.25 Y114.932 I-2
N2135 G1 X5.5
N2140 Y12.932
N2145 X13.25
N2150 G2 X15.25 Y10.932 J-2
N2155 G1 Y9
N2160 X16.25
N2165 G2 X18.25 Y7 J-2
N2170 G1 Y4
N2175 G2 X16.25 Y2 I-2
N2180 G1 X5.5
N2185 Y0
N2190 G2 X3.5 Y-2 I-2
N2195 G1 X0
N2200 G2 X-2 Y0 J2
N2205 G3 X-2.4 Y0.4 I-0.4
N2210 G1 X-2.8
N2215 G18 G3 X-3.2 Z-5.6 K0.4
N2220 G0 Z5
N2225 Y-0.4
N2230 G1 Z-4.5 F300
N2235 Z-6.1
N2240 G2 X-2.8 Z-6.5 I0.4
N2245 G1 X-2.4 F150
N2250 G17 G3 X-2 Y0 J0.4
N2255 G1 Y127.864 F300
N2260 G2 X0 Y129.864 I2
N2265 G1 X3.5
N2270 G2 X5.5 Y127.864 J-2
N2275 G1 Y125.864
N2280 X16.25
N2285 G2 X18.25 Y123.864 J-2
N2290 G1 Y120.864
N2295 G2 X16.25 Y118.864 I-2
N2300 G1 X15.25
N2305 Y116.932
N2310 G2 X13.25 Y114.932 I-2
N2315 G1 X5.5
N2320 Y12.932
N2325 X13.25
N2330 G2 X15.25 Y10.932 J-2
N2335 G1 Y9
N2340 X16.25
N2345 G2 X18.25 Y7 J-2
N2350 G1 Y4
N2355 G2 X16.25 Y2 I-2
N2360 G1 X5.5
N2365 Y0
N2370 G2 X3.5 Y-2 I-2
N2375 G1 X0
N2380 G2 X-2 Y0 J2
N2385 G3 X-2.4 Y0.4 I-0.4
N2390 G1 X-2.8
N2395 G18 G3 X-3.2 Z-6.1 K0.4
N2400 G0 Z5
N2405 Y-0.4
N2410 G1 Z-5 F300
N2415 Z-6.6
N2420 G2 X-2.8 Z-7 I0.4
N2425 G1 X-2.4 F150
N2430 G17 G3 X-2 Y0 J0.4
N2435 G1 Y127.864 F300
N2440 G2 X0 Y129.864 I2
N2445 G1 X3.5
N2450 G2 X5.5 Y127.864 J-2
N2455 G1 Y125.864
N2460 X16.25
N2465 G2 X18.25 Y123.864 J-2
N2470 G1 Y120.864
N2475 G2 X16.25 Y118.864 I-2
N2480 G1 X15.25
N2485 Y116.932
N2490 G2 X13.25 Y114.932 I-2
N2495 G1 X5.5
N2500 Y12.932
N2505 X13.25
N2510 G2 X15.25 Y10.932 J-2
N2515 G1 Y9
N2520 X16.25
N2525 G2 X18.25 Y7 J-2
N2530 G1 Y4
N2535 G2 X16.25 Y2 I-2
N2540 G1 X5.5
N2545 Y0
N2550 G2 X3.5 Y-2 I-2
N2555 G1 X0
N2560 G2 X-2 Y0 J2
N2565 G3 X-2.4 Y0.4 I-0.4
N2570 G1 X-2.8
N2575 G18 G3 X-3.2 Z-6.6 K0.4
N2580 G0 Z5
N2585 Y-0.4
N2590 G1 Z-5.5 F300
N2595 Z-7.1
N2600 G2 X-2.8 Z-7.5 I0.4
N2605 G1 X-2.4 F150
N2610 G17 G3 X-2 Y0 J0.4
N2615 G1 Y127.864 F300
N2620 G2 X0 Y129.864 I2
N2625 G1 X3.5
N2630 G2 X5.5 Y127.864 J-2
N2635 G1 Y125.864
N2640 X16.25
N2645 G2 X18.25 Y123.864 J-2
N2650 G1 Y120.864
N2655 G2 X16.25 Y118.864 I-2
N2660 G1 X15.25
N2665 Y116.932
N2670 G2 X13.25 Y114.932 I-2
N2675 G1 X5.5
N2680 Y12.932
N2685 X13.25
N2690 G2 X15.25 Y10.932 J-2
N2695 G1 Y9
N2700 X16.25
N2705 G2 X18.25 Y7 J-2
N2710 G1 Y4
N2715 G2 X16.25 Y2 I-2
N2720 G1 X5.5
N2725 Y0
N2730 G2 X3.5 Y-2 I-2
N2735 G1 X0
N2740 G2 X-2 Y0 J2
N2745 G3 X-2.4 Y0.4 I-0.4
N2750 G1 X-2.8
N2755 G18 G3 X-3.2 Z-7.1 K0.4
N2760 G0 Z5
N2765 Y-0.4
N2770 G1 Z-6 F300
N2775 Z-7.6
N2780 G2 X-2.8 Z-8 I0.4
N2785 G1 X-2.4 F150
N2790 G17 G3 X-2 Y0 J0.4
N2795 G1 Y127.864 F300
N2800 G2 X0 Y129.864 I2
N2805 G1 X3.5
N2810 G2 X5.5 Y127.864 J-2
N2815 G1 Y125.864
N2820 X16.25
N2825 G2 X18.25 Y123.864 J-2
N2830 G1 Y120.864
N2835 G2 X16.25 Y118.864 I-2
N2840 G1 X15.25
N2845 Y116.932
N2850 G2 X13.25 Y114.932 I-2
N2855 G1 X5.5
N2860 Y12.932
N2865 X13.25
N2870 G2 X15.25 Y10.932 J-2
N2875 G1 Y9
N2880 X16.25
N2885 G2 X18.25 Y7 J-2
N2890 G1 Y4
N2895 G2 X16.25 Y2 I-2
N2900 G1 X5.5
N2905 Y0
N2910 G2 X3.5 Y-2 I-2
N2915 G1 X0
N2920 G2 X-2 Y0 J2
N2925 G3 X-2.4 Y0.4 I-0.4
N2930 G1 X-2.8
N2935 G18 G3 X-3.2 Z-7.6 K0.4
N2940 G0 Z5
N2945 Y-0.4
N2950 G1 Z-6.5 F300
N2955 Z-8.1
N2960 G2 X-2.8 Z-8.5 I0.4
N2965 G1 X-2.4 F150
N2970 G17 G3 X-2 Y0 J0.4
N2975 G1 Y127.864 F300
N2980 G2 X0 Y129.864 I2
N2985 G1 X3.5
N2990 G2 X5.5 Y127.864 J-2
N2995 G1 Y125.864
N3000 X16.25
N3005 G2 X18.25 Y123.864 J-2
N3010 G1 Y120.864
N3015 G2 X16.25 Y118.864 I-2
N3020 G1 X15.25
N3025 Y116.932
N3030 G2 X13.25 Y114.932 I-2
N3035 G1 X5.5
N3040 Y12.932
N3045 X13.25
N3050 G2 X15.25 Y10.932 J-2
N3055 G1 Y9
N3060 X16.25
N3065 G2 X18.25 Y7 J-2
N3070 G1 Y4
N3075 G2 X16.25 Y2 I-2
N3080 G1 X5.5
N3085 Y0
N3090 G2 X3.5 Y-2 I-2
N3095 G1 X0
N3100 G2 X-2 Y0 J2
N3105 G3 X-2.4 Y0.4 I-0.4
N3110 G1 X-2.8
N3115 G18 G3 X-3.2 Z-8.1 K0.4
N3120 G0 Z5
N3125 Y-0.4
N3130 G1 Z-7 F300
N3135 Z-8.4
N3140 G2 X-2.8 Z-8.8 I0.4
N3145 G1 X-2.4 F150
N3150 G17 G3 X-2 Y0 J0.4
N3155 G1 Y127.864 F300
N3160 G2 X0 Y129.864 I2
N3165 G1 X3.5
N3170 G2 X5.5 Y127.864 J-2
N3175 G1 Y125.864
N3180 X16.25
N3185 G2 X18.25 Y123.864 J-2
N3190 G1 Y120.864
N3195 G2 X16.25 Y118.864 I-2
N3200 G1 X15.25
N3205 Y116.932
N3210 G2 X13.25 Y114.932 I-2
N3215 G1 X5.5
N3220 Y12.932
N3225 X13.25
N3230 G2 X15.25 Y10.932 J-2
N3235 G1 Y9
N3240 X16.25
N3245 G2 X18.25 Y7 J-2
N3250 G1 Y4
N3255 G2 X16.25 Y2 I-2
N3260 G1 X5.5
N3265 Y0
N3270 G2 X3.5 Y-2 I-2
N3275 G1 X0
N3280 G2 X-2 Y0 J2
N3285 G3 X-2.4 Y0.4 I-0.4
N3290 G1 X-2.8
N3295 G18 G3 X-3.2 Z-8.4 K0.4
N3300 G0 Z5
N3305 Y-0.4
N3310 G1 Z-7.3 F300
N3315 Z-8.7
N3320 G2 X-2.8 Z-9.1 I0.4
N3325 G1 X-2.4 F150
N3330 G17 G3 X-2 Y0 J0.4
N3335 G1 Y127.864 F300
N3340 G2 X0 Y129.864 I2
N3345 G1 X3.5
N3350 G2 X5.5 Y127.864 J-2
N3355 G1 Y125.864
N3360 X16.25
N3365 G2 X18.25 Y123.864 J-2
N3370 G1 Y120.864
N3375 G2 X16.25 Y118.864 I-2
N3380 G1 X15.25
N3385 Y116.932
N3390 G2 X13.25 Y114.932 I-2
N3395 G1 X5.5
N3400 Y12.932
N3405 X13.25
N3410 G2 X15.25 Y10.932 J-2
N3415 G1 Y9
N3420 X16.25
N3425 G2 X18.25 Y7 J-2
N3430 G1 Y4
N3435 G2 X16.25 Y2 I-2
N3440 G1 X5.5
N3445 Y0
N3450 G2 X3.5 Y-2 I-2
N3455 G1 X0
N3460 G2 X-2 Y0 J2
N3465 G3 X-2.4 Y0.4 I-0.4
N3470 G1 X-2.8
N3475 G18 G3 X-3.2 Z-8.7 K0.4
N3480 G0 Z15
N3485 X18.3 Y78.532
N3490 Z5
N3495 G1 Z1.5 F300
N3500 Z-0.1
N3505 G2 X18.7 Z-0.5 I0.4
N3510 G1 X19.1 F150
N3515 G17 G3 X19.5 Y78.932 J0.4
N3520 G1 Y93.932 F300
N3525 G2 X21.5 Y95.932 I2
N3530 G1 X25
N3535 G2 X27 Y93.932 J-2
N3540 G1 Y41.932
N3545 G2 X25 Y39.932 I-2
N3550 G1 X21.5
N3555 G2 X19.5 Y41.932 J2
N3560 G1 Y78.932
N3565 G3 X19.1 Y79.332 I-0.4
N3570 G1 X18.7
N3575 G18 G3 X18.3 Z-0.1 K0.4
N3580 G0 Z5
N3585 X18.329 Y100.843
N3590 G1 Z1.5 F300
N3595 Z-0.1
N3600 X18.337 Z-0.178
N3605 X18.36 Y100.844 Z-0.253
N3610 X18.397 Y100.847 Z-0.322
N3615 X18.446 Y100.85 Z-0.383
N3620 X18.507 Y100.853 Z-0.433
N3625 X18.576 Y100.857 Z-0.47
N3630 X18.651 Y100.862 Z-0.492
N3635 X18.729 Y100.866 Z-0.5
N3640 X19.128 Y100.89 F150
N3645 G17 G3 X19.504 Y101.313 I-0.024 J0.399
N3650 G1 X19.5 Y101.432 F300
N3655 Y129.932
N3660 X11.75
N3665 G2 X9.75 Y131.932 J2
N3670 G1 Y133.864
N3675 X8.75
N3680 G2 X6.75 Y135.864 J2
N3685 G1 Y138.864
N3690 G2 X8.75 Y140.864 I2
N3695 G1 X19.5
N3700 Y142.864
N3705 G2 X21.5 Y144.864 I2
N3710 G1 X25
N3715 G2 X27 Y142.864 J-2
N3720 G1 Y101.432
N3725 G2 X25 Y99.432 I-2
N3730 G1 X21.5
N3735 G2 X19.504 Y101.313 J2
N3740 G3 X19.08 Y101.689 I-0.399 J-0.024
N3745 G1 X18.681 Y101.665
N3750 X18.603 Y101.66 Z-0.492
N3755 X18.528 Y101.656 Z-0.47
N3760 X18.459 Y101.652 Z-0.433
N3765 X18.399 Y101.648 Z-0.383
N3770 X18.349 Y101.645 Z-0.322
N3775 X18.312 Y101.643 Z-0.253
N3780 X18.29 Y101.642 Z-0.178
N3785 X18.282 Y101.641 Z-0.1
N3790 G0 Z5
N3795 X18.329 Y100.843
N3800 G1 Z1 F300
N3805 Z-0.6
N3810 X18.337 Z-0.678
N3815 X18.36 Y100.844 Z-0.753
N3820 X18.397 Y100.847 Z-0.822
N3825 X18.446 Y100.85 Z-0.883
N3830 X18.507 Y100.853 Z-0.933
N3835 X18.576 Y100.857 Z-0.97
N3840 X18.651 Y100.862 Z-0.992
N3845 X18.729 Y100.866 Z-1
N3850 X19.128 Y100.89 F150
N3855 G3 X19.504 Y101.313 I-0.024 J0.399
N3860 G1 X19.5 Y101.432 F300
N3865 Y129.932
N3870 X11.75
N3875 G2 X9.75 Y131.932 J2
N3880 G1 Y133.864
N3885 X8.75
N3890 G2 X6.75 Y135.864 J2
N3895 G1 Y138.864
N3900 G2 X8.75 Y140.864 I2
N3905 G1 X19.5
N3910 Y142.864
N3915 G2 X21.5 Y144.864 I2
N3920 G1 X25
N3925 G2 X27 Y142.864 J-2
N3930 G1 Y101.432
N3935 G2 X25 Y99.432 I-2
N3940 G1 X21.5
N3945 G2 X19.504 Y101.313 J2
N3950 G3 X19.08 Y101.689 I-0.399 J-0.024
N3955 G1 X18.681 Y101.665
N3960 X18.603 Y101.66 Z-0.992
N3965 X18.528 Y101.656 Z-0.97
N3970 X18.459 Y101.652 Z-0.933
N3975 X18.399 Y101.648 Z-0.883
N3980 X18.349 Y101.645 Z-0.822
N3985 X18.312 Y101.643 Z-0.753
N3990 X18.29 Y101.642 Z-0.678
N3995 X18.282 Y101.641 Z-0.6
N4000 G0 Z5
N4005 X18.3 Y78.532
N4010 G1 Z1 F300
N4015 Z-0.6
N4020 G18 G2 X18.7 Z-1 I0.4
N4025 G1 X19.1 F150
N4030 G17 G3 X19.5 Y78.932 J0.4
N4035 G1 Y93.932 F300
N4040 G2 X21.5 Y95.932 I2
N4045 G1 X25
N4050 G2 X27 Y93.932 J-2
N4055 G1 Y41.932
N4060 G2 X25 Y39.932 I-2
N4065 G1 X21.5
N4070 G2 X19.5 Y41.932 J2
N4075 G1 Y78.932
N4080 G3 X19.1 Y79.332 I-0.4
N4085 G1 X18.7
N4090 G18 G3 X18.3 Z-0.6 K0.4
N4095 G0 Z5
N4100 Y78.532
N4105 G1 Z0.5 F300
N4110 Z-1.1
N4115 G2 X18.7 Z-1.5 I0.4
N4120 G1 X19.1 F150
N4125 G17 G3 X19.5 Y78.932 J0.4
N4130 G1 Y93.932 F300
N4135 G2 X21.5 Y95.932 I2
N4140 G1 X25
N4145 G2 X27 Y93.932 J-2
N4150 G1 Y41.932
N4155 G2 X25 Y39.932 I-2
N4160 G1 X21.5
N4165 G2 X19.5 Y41.932 J2
N4170 G1 Y78.932
N4175 G3 X19.1 Y79.332 I-0.4
N4180 G1 X18.7
N4185 G18 G3 X18.3 Z-1.1 K0.4
N4190 G0 Z5
N4195 X18.329 Y100.843
N4200 G1 Z0.5 F300
N4205 Z-1.1
N4210 X18.337 Z-1.178
N4215 X18.36 Y100.844 Z-1.253
N4220 X18.397 Y100.847 Z-1.322
N4225 X18.446 Y100.85 Z-1.383
N4230 X18.507 Y100.853 Z-1.433
N4235 X18.576 Y100.857 Z-1.47
N4240 X18.651 Y100.862 Z-1.492
N4245 X18.729 Y100.866 Z-1.5
N4250 X19.128 Y100.89 F150
N4255 G17 G3 X19.504 Y101.313 I-0.024 J0.399
N4260 G1 X19.5 Y101.432 F300
N4265 Y129.932
N4270 X11.75
N4275 G2 X9.75 Y131.932 J2
N4280 G1 Y133.864
N4285 X8.75
N4290 G2 X6.75 Y135.864 J2
N4295 G1 Y138.864
N4300 G2 X8.75 Y140.864 I2
N4305 G1 X19.5
N4310 Y142.864
N4315 G2 X21.5 Y144.864 I2
N4320 G1 X25
N4325 G2 X27 Y142.864 J-2
N4330 G1 Y101.432
N4335 G2 X25 Y99.432 I-2
N4340 G1 X21.5
N4345 G2 X19.504 Y101.313 J2
N4350 G3 X19.08 Y101.689 I-0.399 J-0.024
N4355 G1 X18.681 Y101.665
N4360 X18.603 Y101.66 Z-1.492
N4365 X18.528 Y101.656 Z-1.47
N4370 X18.459 Y101.652 Z-1.433
N4375 X18.399 Y101.648 Z-1.383
N4380 X18.349 Y101.645 Z-1.322
N4385 X18.312 Y101.643 Z-1.253
N4390 X18.29 Y101.642 Z-1.178
N4395 X18.282 Y101.641 Z-1.1
N4400 G0 Z5
N4405 X18.329 Y100.843
N4410 G1 Z0 F300
N4415 Z-1.6
N4420 X18.337 Z-1.678
N4425 X18.36 Y100.844 Z-1.753
N4430 X18.397 Y100.847 Z-1.822
N4435 X18.446 Y100.85 Z-1.883
N4440 X18.507 Y100.853 Z-1.933
N4445 X18.576 Y100.857 Z-1.97
N4450 X18.651 Y100.862 Z-1.992
N4455 X18.729 Y100.866 Z-2
N4460 X19.128 Y100.89 F150
N4465 G3 X19.504 Y101.313 I-0.024 J0.399
N4470 G1 X19.5 Y101.432 F300
N4475 Y129.932
N4480 X11.75
N4485 G2 X9.75 Y131.932 J2
N4490 G1 Y133.864
N4495 X8.75
N4500 G2 X6.75 Y135.864 J2
N4505 G1 Y138.864
N4510 G2 X8.75 Y140.864 I2
N4515 G1 X19.5
N4520 Y142.864
N4525 G2 X21.5 Y144.864 I2
N4530 G1 X25
N4535 G2 X27 Y142.864 J-2
N4540 G1 Y101.432
N4545 G2 X25 Y99.432 I-2
N4550 G1 X21.5
N4555 G2 X19.504 Y101.313 J2
N4560 G3 X19.08 Y101.689 I-0.399 J-0.024
N4565 G1 X18.681 Y101.665
N4570 X18.603 Y101.66 Z-1.992
N4575 X18.528 Y101.656 Z-1.97
N4580 X18.459 Y101.652 Z-1.933
N4585 X18.399 Y101.648 Z-1.883
N4590 X18.349 Y101.645 Z-1.822
N4595 X18.312 Y101.643 Z-1.753
N4600 X18.29 Y101.642 Z-1.678
N4605 X18.282 Y101.641 Z-1.6
N4610 G0 Z5
N4615 X18.3 Y78.532
N4620 G1 Z0 F300
N4625 Z-1.6
N4630 G18 G2 X18.7 Z-2 I0.4
N4635 G1 X19.1 F150
N4640 G17 G3 X19.5 Y78.932 J0.4
N4645 G1 Y93.932 F300
N4650 G2 X21.5 Y95.932 I2
N4655 G1 X25
N4660 G2 X27 Y93.932 J-2
N4665 G1 Y41.932
N4670 G2 X25 Y39.932 I-2
N4675 G1 X21.5
N4680 G2 X19.5 Y41.932 J2
N4685 G1 Y78.932
N4690 G3 X19.1 Y79.332 I-0.4
N4695 G1 X18.7
N4700 G18 G3 X18.3 Z-1.6 K0.4
N4705 G0 Z5
N4710 Y78.532
N4715 G1 Z-0.5 F300
N4720 Z-2.1
N4725 G2 X18.7 Z-2.5 I0.4
N4730 G1 X19.1 F150
N4735 G17 G3 X19.5 Y78.932 J0.4
N4740 G1 Y93.932 F300
N4745 G2 X21.5 Y95.932 I2
N4750 G1 X25
N4755 G2 X27 Y93.932 J-2
N4760 G1 Y41.932
N4765 G2 X25 Y39.932 I-2
N4770 G1 X21.5
N4775 G2 X19.5 Y41.932 J2
N4780 G1 Y78.932
N4785 G3 X19.1 Y79.332 I-0.4
N4790 G1 X18.7
N4795 G18 G3 X18.3 Z-2.1 K0.4
N4800 G0 Z5
N4805 X18.329 Y100.843
N4810 G1 Z-0.5 F300
N4815 Z-2.1
N4820 X18.337 Z-2.178
N4825 X18.36 Y100.844 Z-2.253
N4830 X18.397 Y100.847 Z-2.322
N4835 X18.446 Y100.85 Z-2.383
N4840 X18.507 Y100.853 Z-2.433
N4845 X18.576 Y100.857 Z-2.47
N4850 X18.651 Y100.862 Z-2.492
N4855 X18.729 Y100.866 Z-2.5
N4860 X19.128 Y100.89 F150
N4865 G17 G3 X19.504 Y101.313 I-0.024 J0.399
N4870 G1 X19.5 Y101.432 F300
N4875 Y129.932
N4880 X11.75
N4885 G2 X9.75 Y131.932 J2
N4890 G1 Y133.864
N4895 X8.75
N4900 G2 X6.75 Y135.864 J2
N4905 G1 Y138.864
N4910 G2 X8.75 Y140.864 I2
N4915 G1 X19.5
N4920 Y142.864
N4925 G2 X21.5 Y144.864 I2
N4930 G1 X25
N4935 G2 X27 Y142.864 J-2
N4940 G1 Y101.432
N4945 G2 X25 Y99.432 I-2
N4950 G1 X21.5
N4955 G2 X19.504 Y101.313 J2
N4960 G3 X19.08 Y101.689 I-0.399 J-0.024
N4965 G1 X18.681 Y101.665
N4970 X18.603 Y101.66 Z-2.492
N4975 X18.528 Y101.656 Z-2.47
N4980 X18.459 Y101.652 Z-2.433
N4985 X18.399 Y101.648 Z-2.383
N4990 X18.349 Y101.645 Z-2.322
N4995 X18.312 Y101.643 Z-2.253
N5000 X18.29 Y101.642 Z-2.178
N5005 X18.282 Y101.641 Z-2.1
N5010 G0 Z5
N5015 X18.329 Y100.843
N5020 G1 Z-1 F300
N5025 Z-2.6
N5030 X18.337 Z-2.678
N5035 X18.36 Y100.844 Z-2.753
N5040 X18.397 Y100.847 Z-2.822
N5045 X18.446 Y100.85 Z-2.883
N5050 X18.507 Y100.853 Z-2.933
N5055 X18.576 Y100.857 Z-2.97
N5060 X18.651 Y100.862 Z-2.992
N5065 X18.729 Y100.866 Z-3
N5070 X19.128 Y100.89 F150
N5075 G3 X19.504 Y101.313 I-0.024 J0.399
N5080 G1 X19.5 Y101.432 F300
N5085 Y129.932
N5090 X11.75
N5095 G2 X9.75 Y131.932 J2
N5100 G1 Y133.864
N5105 X8.75
N5110 G2 X6.75 Y135.864 J2
N5115 G1 Y138.864
N5120 G2 X8.75 Y140.864 I2
N5125 G1 X19.5
N5130 Y142.864
N5135 G2 X21.5 Y144.864 I2
N5140 G1 X25
N5145 G2 X27 Y142.864 J-2
N5150 G1 Y101.432
N5155 G2 X25 Y99.432 I-2
N5160 G1 X21.5
N5165 G2 X19.504 Y101.313 J2
N5170 G3 X19.08 Y101.689 I-0.399 J-0.024
N5175 G1 X18.681 Y101.665
N5180 X18.603 Y101.66 Z-2.992
N5185 X18.528 Y101.656 Z-2.97
N5190 X18.459 Y101.652 Z-2.933
N5195 X18.399 Y101.648 Z-2.883
N5200 X18.349 Y101.645 Z-2.822
N5205 X18.312 Y101.643 Z-2.753
N5210 X18.29 Y101.642 Z-2.678
N5215 X18.282 Y101.641 Z-2.6
N5220 G0 Z5
N5225 X18.3 Y78.532
N5230 G1 Z-1 F300
N5235 Z-2.6
N5240 G18 G2 X18.7 Z-3 I0.4
N5245 G1 X19.1 F150
N5250 G17 G3 X19.5 Y78.932 J0.4
N5255 G1 Y93.932 F300
N5260 G2 X21.5 Y95.932 I2
N5265 G1 X25
N5270 G2 X27 Y93.932 J-2
N5275 G1 Y41.932
N5280 G2 X25 Y39.932 I-2
N5285 G1 X21.5
N5290 G2 X19.5 Y41.932 J2
N5295 G1 Y78.932
N5300 G3 X19.1 Y79.332 I-0.4
N5305 G1 X18.7
N5310 G18 G3 X18.3 Z-2.6 K0.4
N5315 G0 Z5
N5320 Y78.532
N5325 G1 Z-1.5 F300
N5330 Z-3.1
N5335 G2 X18.7 Z-3.5 I0.4
N5340 G1 X19.1 F150
N5345 G17 G3 X19.5 Y78.932 J0.4
N5350 G1 Y93.932 F300
N5355 G2 X21.5 Y95.932 I2
N5360 G1 X25
N5365 G2 X27 Y93.932 J-2
N5370 G1 Y41.932
N5375 G2 X25 Y39.932 I-2
N5380 G1 X21.5
N5385 G2 X19.5 Y41.932 J2
N5390 G1 Y78.932
N5395 G3 X19.1 Y79.332 I-0.4
N5400 G1 X18.7
N5405 G18 G3 X18.3 Z-3.1 K0.4
N5410 G0 Z5
N5415 X18.329 Y100.843
N5420 G1 Z-1.5 F300
N5425 Z-3.1
N5430 X18.337 Z-3.178
N5435 X18.36 Y100.844 Z-3.253
N5440 X18.397 Y100.847 Z-3.322
N5445 X18.446 Y100.85 Z-3.383
N5450 X18.507 Y100.853 Z-3.433
N5455 X18.576 Y100.857 Z-3.47
N5460 X18.651 Y100.862 Z-3.492
N5465 X18.729 Y100.866 Z-3.5
N5470 X19.128 Y100.89 F150
N5475 G17 G3 X19.504 Y101.313 I-0.024 J0.399
N5480 G1 X19.5 Y101.432 F300
N5485 Y129.932
N5490 X11.75
N5495 G2 X9.75 Y131.932 J2
N5500 G1 Y133.864
N5505 X8.75
N5510 G2 X6.75 Y135.864 J2
N5515 G1 Y138.864
N5520 G2 X8.75 Y140.864 I2
N5525 G1 X19.5
N5530 Y142.864
N5535 G2 X21.5 Y144.864 I2
N5540 G1 X25
N5545 G2 X27 Y142.864 J-2
N5550 G1 Y101.432
N5555 G2 X25 Y99.432 I-2
N5560 G1 X21.5
N5565 G2 X19.504 Y101.313 J2
N5570 G3 X19.08 Y101.689 I-0.399 J-0.024
N5575 G1 X18.681 Y101.665
N5580 X18.603 Y101.66 Z-3.492
N5585 X18.528 Y101.656 Z-3.47
N5590 X18.459 Y101.652 Z-3.433
N5595 X18.399 Y101.648 Z-3.383
N5600 X18.349 Y101.645 Z-3.322
N5605 X18.312 Y101.643 Z-3.253
N5610 X18.29 Y101.642 Z-3.178
N5615 X18.282 Y101.641 Z-3.1
N5620 G0 Z5
N5625 X18.329 Y100.843
N5630 G1 Z-2 F300
N5635 Z-3.6
N5640 X18.337 Z-3.678
N5645 X18.36 Y100.844 Z-3.753
N5650 X18.397 Y100.847 Z-3.822
N5655 X18.446 Y100.85 Z-3.883
N5660 X18.507 Y100.853 Z-3.933
N5665 X18.576 Y100.857 Z-3.97
N5670 X18.651 Y100.862 Z-3.992
N5675 X18.729 Y100.866 Z-4
N5680 X19.128 Y100.89 F150
N5685 G3 X19.504 Y101.313 I-0.024 J0.399
N5690 G1 X19.5 Y101.432 F300
N5695 Y129.932
N5700 X11.75
N5705 G2 X9.75 Y131.932 J2
N5710 G1 Y133.864
N5715 X8.75
N5720 G2 X6.75 Y135.864 J2
N5725 G1 Y138.864
N5730 G2 X8.75 Y140.864 I2
N5735 G1 X19.5
N5740 Y142.864
N5745 G2 X21.5 Y144.864 I2
N5750 G1 X25
N5755 G2 X27 Y142.864 J-2
N5760 G1 Y101.432
N5765 G2 X25 Y99.432 I-2
N5770 G1 X21.5
N5775 G2 X19.504 Y101.313 J2
N5780 G3 X19.08 Y101.689 I-0.399 J-0.024
N5785 G1 X18.681 Y101.665
N5790 X18.603 Y101.66 Z-3.992
N5795 X18.528 Y101.656 Z-3.97
N5800 X18.459 Y101.652 Z-3.933
N5805 X18.399 Y101.648 Z-3.883
N5810 X18.349 Y101.645 Z-3.822
N5815 X18.312 Y101.643 Z-3.753
N5820 X18.29 Y101.642 Z-3.678
N5825 X18.282 Y101.641 Z-3.6
N5830 G0 Z5
N5835 X18.3 Y78.532
N5840 G1 Z-2 F300
N5845 Z-3.6
N5850 G18 G2 X18.7 Z-4 I0.4
N5855 G1 X19.1 F150
N5860 G17 G3 X19.5 Y78.932 J0.4
N5865 G1 Y93.932 F300
N5870 G2 X21.5 Y95.932 I2
N5875 G1 X25
N5880 G2 X27 Y93.932 J-2
N5885 G1 Y41.932
N5890 G2 X25 Y39.932 I-2
N5895 G1 X21.5
N5900 G2 X19.5 Y41.932 J2
N5905 G1 Y78.932
N5910 G3 X19.1 Y79.332 I-0.4
N5915 G1 X18.7
N5920 G18 G3 X18.3 Z-3.6 K0.4
N5925 G0 Z5
N5930 Y78.532
N5935 G1 Z-2.5 F300
N5940 Z-4.1
N5945 G2 X18.7 Z-4.5 I0.4
N5950 G1 X19.1 F150
N5955 G17 G3 X19.5 Y78.932 J0.4
N5960 G1 Y93.932 F300
N5965 G2 X21.5 Y95.932 I2
N5970 G1 X25
N5975 G2 X27 Y93.932 J-2
N5980 G1 Y41.932
N5985 G2 X25 Y39.932 I-2
N5990 G1 X21.5
N5995 G2 X19.5 Y41.932 J2
N6000 G1 Y78.932
N6005 G3 X19.1 Y79.332 I-0.4
N6010 G1 X18.7
N6015 G18 G3 X18.3 Z-4.1 K0.4
N6020 G0 Z5
N6025 X18.329 Y100.843
N6030 G1 Z-2.5 F300
N6035 Z-4.1
N6040 X18.337 Z-4.178
N6045 X18.36 Y100.844 Z-4.253
N6050 X18.397 Y100.847 Z-4.322
N6055 X18.446 Y100.85 Z-4.383
N6060 X18.507 Y100.853 Z-4.433
N6065 X18.576 Y100.857 Z-4.47
N6070 X18.651 Y100.862 Z-4.492
N6075 X18.729 Y100.866 Z-4.5
N6080 X19.128 Y100.89 F150
N6085 G17 G3 X19.504 Y101.313 I-0.024 J0.399
N6090 G1 X19.5 Y101.432 F300
N6095 Y129.932
N6100 X11.75
N6105 G2 X9.75 Y131.932 J2
N6110 G1 Y133.864
N6115 X8.75
N6120 G2 X6.75 Y135.864 J2
N6125 G1 Y138.864
N6130 G2 X8.75 Y140.864 I2
N6135 G1 X19.5
N6140 Y142.864
N6145 G2 X21.5 Y144.864 I2
N6150 G1 X25
N6155 G2 X27 Y142.864 J-2
N6160 G1 Y101.432
N6165 G2 X25 Y99.432 I-2
N6170 G1 X21.5
N6175 G2 X19.504 Y101.313 J2
N6180 G3 X19.08 Y101.689 I-0.399 J-0.024
N6185 G1 X18.681 Y101.665
N6190 X18.603 Y101.66 Z-4.492
N6195 X18.528 Y101.656 Z-4.47
N6200 X18.459 Y101.652 Z-4.433
N6205 X18.399 Y101.648 Z-4.383
N6210 X18.349 Y101.645 Z-4.322
N6215 X18.312 Y101.643 Z-4.253
N6220 X18.29 Y101.642 Z-4.178
N6225 X18.282 Y101.641 Z-4.1
N6230 G0 Z5
N6235 X18.329 Y100.843
N6240 G1 Z-3 F300
N6245 Z-4.6
N6250 X18.337 Z-4.678
N6255 X18.36 Y100.844 Z-4.753
N6260 X18.397 Y100.847 Z-4.822
N6265 X18.446 Y100.85 Z-4.883
N6270 X18.507 Y100.853 Z-4.933
N6275 X18.576 Y100.857 Z-4.97
N6280 X18.651 Y100.862 Z-4.992
N6285 X18.729 Y100.866 Z-5
N6290 X19.128 Y100.89 F150
N6295 G3 X19.504 Y101.313 I-0.024 J0.399
N6300 G1 X19.5 Y101.432 F300
N6305 Y129.932
N6310 X11.75
N6315 G2 X9.75 Y131.932 J2
N6320 G1 Y133.864
N6325 X8.75
N6330 G2 X6.75 Y135.864 J2
N6335 G1 Y138.864
N6340 G2 X8.75 Y140.864 I2
N6345 G1 X19.5
N6350 Y142.864
N6355 G2 X21.5 Y144.864 I2
N6360 G1 X25
N6365 G2 X27 Y142.864 J-2
N6370 G1 Y101.432
N6375 G2 X25 Y99.432 I-2
N6380 G1 X21.5
N6385 G2 X19.504 Y101.313 J2
N6390 G3 X19.08 Y101.689 I-0.399 J-0.024
N6395 G1 X18.681 Y101.665
N6400 X18.603 Y101.66 Z-4.992
N6405 X18.528 Y101.656 Z-4.97
N6410 X18.459 Y101.652 Z-4.933
N6415 X18.399 Y101.648 Z-4.883
N6420 X18.349 Y101.645 Z-4.822
N6425 X18.312 Y101.643 Z-4.753
N6430 X18.29 Y101.642 Z-4.678
N6435 X18.282 Y101.641 Z-4.6
N6440 G0 Z5
N6445 X18.3 Y78.532
N6450 G1 Z-3 F300
N6455 Z-4.6
N6460 G18 G2 X18.7 Z-5 I0.4
N6465 G1 X19.1 F150
N6470 G17 G3 X19.5 Y78.932 J0.4
N6475 G1 Y93.932 F300
N6480 G2 X21.5 Y95.932 I2
N6485 G1 X25
N6490 G2 X27 Y93.932 J-2
N6495 G1 Y41.932
N6500 G2 X25 Y39.932 I-2
N6505 G1 X21.5
N6510 G2 X19.5 Y41.932 J2
N6515 G1 Y78.932
N6520 G3 X19.1 Y79.332 I-0.4
N6525 G1 X18.7
N6530 G18 G3 X18.3 Z-4.6 K0.4
N6535 G0 Z5
N6540 Y78.532
N6545 G1 Z-3.5 F300
N6550 Z-5.1
N6555 G2 X18.7 Z-5.5 I0.4
N6560 G1 X19.1 F150
N6565 G17 G3 X19.5 Y78.932 J0.4
N6570 G1 Y93.932 F300
N6575 G2 X21.5 Y95.932 I2
N6580 G1 X25
N6585 G2 X27 Y93.932 J-2
N6590 G1 Y41.932
N6595 G2 X25 Y39.932 I-2
N6600 G1 X21.5
N6605 G2 X19.5 Y41.932 J2
N6610 G1 Y78.932
N6615 G3 X19.1 Y79.332 I-0.4
N6620 G1 X18.7
N6625 G18 G3 X18.3 Z-5.1 K0.4
N6630 G0 Z5
N6635 X18.329 Y100.843
N6640 G1 Z-3.5 F300
N6645 Z-5.1
N6650 X18.337 Z-5.178
N6655 X18.36 Y100.844 Z-5.253
N6660 X18.397 Y100.847 Z-5.322
N6665 X18.446 Y100.85 Z-5.383
N6670 X18.507 Y100.853 Z-5.433
N6675 X18.576 Y100.857 Z-5.47
N6680 X18.651 Y100.862 Z-5.492
N6685 X18.729 Y100.866 Z-5.5
N6690 X19.128 Y100.89 F150
N6695 G17 G3 X19.504 Y101.313 I-0.024 J0.399
N6700 G1 X19.5 Y101.432 F300
N6705 Y129.932
N6710 X11.75
N6715 G2 X9.75 Y131.932 J2
N6720 G1 Y133.864
N6725 X8.75
N6730 G2 X6.75 Y135.864 J2
N6735 G1 Y138.864
N6740 G2 X8.75 Y140.864 I2
N6745 G1 X19.5
N6750 Y142.864
N6755 G2 X21.5 Y144.864 I2
N6760 G1 X25
N6765 G2 X27 Y142.864 J-2
N6770 G1 Y101.432
N6775 G2 X25 Y99.432 I-2
N6780 G1 X21.5
N6785 G2 X19.504 Y101.313 J2
N6790 G3 X19.08 Y101.689 I-0.399 J-0.024
N6795 G1 X18.681 Y101.665
N6800 X18.603 Y101.66 Z-5.492
N6805 X18.528 Y101.656 Z-5.47
N6810 X18.459 Y101.652 Z-5.433
N6815 X18.399 Y101.648 Z-5.383
N6820 X18.349 Y101.645 Z-5.322
N6825 X18.312 Y101.643 Z-5.253
N6830 X18.29 Y101.642 Z-5.178
N6835 X18.282 Y101.641 Z-5.1
N6840 G0 Z5
N6845 X18.329 Y100.843
N6850 G1 Z-4 F300
N6855 Z-5.6
N6860 X18.337 Z-5.678
N6865 X18.36 Y100.844 Z-5.753
N6870 X18.397 Y100.847 Z-5.822
N6875 X18.446 Y100.85 Z-5.883
N6880 X18.507 Y100.853 Z-5.933
N6885 X18.576 Y100.857 Z-5.97
N6890 X18.651 Y100.862 Z-5.992
N6895 X18.729 Y100.866 Z-6
N6900 X19.128 Y100.89 F150
N6905 G3 X19.504 Y101.313 I-0.024 J0.399
N6910 G1 X19.5 Y101.432 F300
N6915 Y129.932
N6920 X11.75
N6925 G2 X9.75 Y131.932 J2
N6930 G1 Y133.864
N6935 X8.75
N6940 G2 X6.75 Y135.864 J2
N6945 G1 Y138.864
N6950 G2 X8.75 Y140.864 I2
N6955 G1 X19.5
N6960 Y142.864
N6965 G2 X21.5 Y144.864 I2
N6970 G1 X25
N6975 G2 X27 Y142.864 J-2
N6980 G1 Y101.432
N6985 G2 X25 Y99.432 I-2
N6990 G1 X21.5
N6995 G2 X19.504 Y101.313 J2
N7000 G3 X19.08 Y101.689 I-0.399 J-0.024
N7005 G1 X18.681 Y101.665
N7010 X18.603 Y101.66 Z-5.992
N7015 X18.528 Y101.656 Z-5.97
N7020 X18.459 Y101.652 Z-5.933
N7025 X18.399 Y101.648 Z-5.883
N7030 X18.349 Y101.645 Z-5.822
N7035 X18.312 Y101.643 Z-5.753
N7040 X18.29 Y101.642 Z-5.678
N7045 X18.282 Y101.641 Z-5.6
N7050 G0 Z5
N7055 X18.3 Y78.532
N7060 G1 Z-4 F300
N7065 Z-5.6
N7070 G18 G2 X18.7 Z-6 I0.4
N7075 G1 X19.1 F150
N7080 G17 G3 X19.5 Y78.932 J0.4
N7085 G1 Y93.932 F300
N7090 G2 X21.5 Y95.932 I2
N7095 G1 X25
N7100 G2 X27 Y93.932 J-2
N7105 G1 Y41.932
N7110 G2 X25 Y39.932 I-2
N7115 G1 X21.5
N7120 G2 X19.5 Y41.932 J2
N7125 G1 Y78.932
N7130 G3 X19.1 Y79.332 I-0.4
N7135 G1 X18.7
N7140 G18 G3 X18.3 Z-5.6 K0.4
N7145 G0 Z5
N7150 Y78.532
N7155 G1 Z-4.5 F300
N7160 Z-6.1
N7165 G2 X18.7 Z-6.5 I0.4
N7170 G1 X19.1 F150
N7175 G17 G3 X19.5 Y78.932 J0.4
N7180 G1 Y93.932 F300
N7185 G2 X21.5 Y95.932 I2
N7190 G1 X25
N7195 G2 X27 Y93.932 J-2
N7200 G1 Y41.932
N7205 G2 X25 Y39.932 I-2
N7210 G1 X21.5
N7215 G2 X19.5 Y41.932 J2
N7220 G1 Y78.932
N7225 G3 X19.1 Y79.332 I-0.4
N7230 G1 X18.7
N7235 G18 G3 X18.3 Z-6.1 K0.4
N7240 G0 Z5
N7245 X18.329 Y100.843
N7250 G1 Z-4.5 F300
N7255 Z-6.1
N7260 X18.337 Z-6.178
N7265 X18.36 Y100.844 Z-6.253
N7270 X18.397 Y100.847 Z-6.322
N7275 X18.446 Y100.85 Z-6.383
N7280 X18.507 Y100.853 Z-6.433
N7285 X18.576 Y100.857 Z-6.47
N7290 X18.651 Y100.862 Z-6.492
N7295 X18.729 Y100.866 Z-6.5
N7300 X19.128 Y100.89 F150
N7305 G17 G3 X19.504 Y101.313 I-0.024 J0.399
N7310 G1 X19.5 Y101.432 F300
N7315 Y129.932
N7320 X11.75
N7325 G2 X9.75 Y131.932 J2
N7330 G1 Y133.864
N7335 X8.75
N7340 G2 X6.75 Y135.864 J2
N7345 G1 Y138.864
N7350 G2 X8.75 Y140.864 I2
N7355 G1 X19.5
N7360 Y142.864
N7365 G2 X21.5 Y144.864 I2
N7370 G1 X25
N7375 G2 X27 Y142.864 J-2
N7380 G1 Y101.432
N7385 G2 X25 Y99.432 I-2
N7390 G1 X21.5
N7395 G2 X19.504 Y101.313 J2
N7400 G3 X19.08 Y101.689 I-0.399 J-0.024
N7405 G1 X18.681 Y101.665
N7410 X18.603 Y101.66 Z-6.492
N7415 X18.528 Y101.656 Z-6.47
N7420 X18.459 Y101.652 Z-6.433
N7425 X18.399 Y101.648 Z-6.383
N7430 X18.349 Y101.645 Z-6.322
N7435 X18.312 Y101.643 Z-6.253
N7440 X18.29 Y101.642 Z-6.178
N7445 X18.282 Y101.641 Z-6.1
N7450 G0 Z5
N7455 X18.329 Y100.843
N7460 G1 Z-5 F300
N7465 Z-6.6
N7470 X18.337 Z-6.678
N7475 X18.36 Y100.844 Z-6.753
N7480 X18.397 Y100.847 Z-6.822
N7485 X18.446 Y100.85 Z-6.883
N7490 X18.507 Y100.853 Z-6.933
N7495 X18.576 Y100.857 Z-6.97
N7500 X18.651 Y100.862 Z-6.992
N7505 X18.729 Y100.866 Z-7
N7510 X19.128 Y100.89 F150
N7515 G3 X19.504 Y101.313 I-0.024 J0.399
N7520 G1 X19.5 Y101.432 F300
N7525 Y129.932
N7530 X11.75
N7535 G2 X9.75 Y131.932 J2
N7540 G1 Y133.864
N7545 X8.75
N7550 G2 X6.75 Y135.864 J2
N7555 G1 Y138.864
N7560 G2 X8.75 Y140.864 I2
N7565 G1 X19.5
N7570 Y142.864
N7575 G2 X21.5 Y144.864 I2
N7580 G1 X25
N7585 G2 X27 Y142.864 J-2
N7590 G1 Y101.432
N7595 G2 X25 Y99.432 I-2
N7600 G1 X21.5
N7605 G2 X19.504 Y101.313 J2
N7610 G3 X19.08 Y101.689 I-0.399 J-0.024
N7615 G1 X18.681 Y101.665
N7620 X18.603 Y101.66 Z-6.992
N7625 X18.528 Y101.656 Z-6.97
N7630 X18.459 Y101.652 Z-6.933
N7635 X18.399 Y101.648 Z-6.883
N7640 X18.349 Y101.645 Z-6.822
N7645 X18.312 Y101.643 Z-6.753
N7650 X18.29 Y101.642 Z-6.678
N7655 X18.282 Y101.641 Z-6.6
N7660 G0 Z5
N7665 X18.3 Y78.532
N7670 G1 Z-5 F300
N7675 Z-6.6
N7680 G18 G2 X18.7 Z-7 I0.4
N7685 G1 X19.1 F150
N7690 G17 G3 X19.5 Y78.932 J0.4
N7695 G1 Y93.932 F300
N7700 G2 X21.5 Y95.932 I2
N7705 G1 X25
N7710 G2 X27 Y93.932 J-2
N7715 G1 Y41.932
N7720 G2 X25 Y39.932 I-2
N7725 G1 X21.5
N7730 G2 X19.5 Y41.932 J2
N7735 G1 Y78.932
N7740 G3 X19.1 Y79.332 I-0.4
N7745 G1 X18.7
N7750 G18 G3 X18.3 Z-6.6 K0.4
N7755 G0 Z5
N7760 Y78.532
N7765 G1 Z-5.5 F300
N7770 Z-7.1
N7775 G2 X18.7 Z-7.5 I0.4
N7780 G1 X19.1 F150
N7785 G17 G3 X19.5 Y78.932 J0.4
N7790 G1 Y93.932 F300
N7795 G2 X21.5 Y95.932 I2
N7800 G1 X25
N7805 G2 X27 Y93.932 J-2
N7810 G1 Y41.932
N7815 G2 X25 Y39.932 I-2
N7820 G1 X21.5
N7825 G2 X19.5 Y41.932 J2
N7830 G1 Y78.932
N7835 G3 X19.1 Y79.332 I-0.4
N7840 G1 X18.7
N7845 G18 G3 X18.3 Z-7.1 K0.4
N7850 G0 Z5
N7855 X18.329 Y100.843
N7860 G1 Z-5.5 F300
N7865 Z-7.1
N7870 X18.337 Z-7.178
N7875 X18.36 Y100.844 Z-7.253
N7880 X18.397 Y100.847 Z-7.322
N7885 X18.446 Y100.85 Z-7.383
N7890 X18.507 Y100.853 Z-7.433
N7895 X18.576 Y100.857 Z-7.47
N7900 X18.651 Y100.862 Z-7.492
N7905 X18.729 Y100.866 Z-7.5
N7910 X19.128 Y100.89 F150
N7915 G17 G3 X19.504 Y101.313 I-0.024 J0.399
N7920 G1 X19.5 Y101.432 F300
N7925 Y129.932
N7930 X11.75
N7935 G2 X9.75 Y131.932 J2
N7940 G1 Y133.864
N7945 X8.75
N7950 G2 X6.75 Y135.864 J2
N7955 G1 Y138.864
N7960 G2 X8.75 Y140.864 I2
N7965 G1 X19.5
N7970 Y142.864
N7975 G2 X21.5 Y144.864 I2
N7980 G1 X25
N7985 G2 X27 Y142.864 J-2
N7990 G1 Y101.432
N7995 G2 X25 Y99.432 I-2
N8000 G1 X21.5
N8005 G2 X19.504 Y101.313 J2
N8010 G3 X19.08 Y101.689 I-0.399 J-0.024
N8015 G1 X18.681 Y101.665
N8020 X18.603 Y101.66 Z-7.492
N8025 X18.528 Y101.656 Z-7.47
N8030 X18.459 Y101.652 Z-7.433
N8035 X18.399 Y101.648 Z-7.383
N8040 X18.349 Y101.645 Z-7.322
N8045 X18.312 Y101.643 Z-7.253
N8050 X18.29 Y101.642 Z-7.178
N8055 X18.282 Y101.641 Z-7.1
N8060 G0 Z5
N8065 X18.329 Y100.843
N8070 G1 Z-6 F300
N8075 Z-7.6
N8080 X18.337 Z-7.678
N8085 X18.36 Y100.844 Z-7.753
N8090 X18.397 Y100.847 Z-7.822
N8095 X18.446 Y100.85 Z-7.883
N8100 X18.507 Y100.853 Z-7.933
N8105 X18.576 Y100.857 Z-7.97
N8110 X18.651 Y100.862 Z-7.992
N8115 X18.729 Y100.866 Z-8
N8120 X19.128 Y100.89 F150
N8125 G3 X19.504 Y101.313 I-0.024 J0.399
N8130 G1 X19.5 Y101.432 F300
N8135 Y129.932
N8140 X11.75
N8145 G2 X9.75 Y131.932 J2
N8150 G1 Y133.864
N8155 X8.75
N8160 G2 X6.75 Y135.864 J2
N8165 G1 Y138.864
N8170 G2 X8.75 Y140.864 I2
N8175 G1 X19.5
N8180 Y142.864
N8185 G2 X21.5 Y144.864 I2
N8190 G1 X25
N8195 G2 X27 Y142.864 J-2
N8200 G1 Y101.432
N8205 G2 X25 Y99.432 I-2
N8210 G1 X21.5
N8215 G2 X19.504 Y101.313 J2
N8220 G3 X19.08 Y101.689 I-0.399 J-0.024
N8225 G1 X18.681 Y101.665
N8230 X18.603 Y101.66 Z-7.992
N8235 X18.528 Y101.656 Z-7.97
N8240 X18.459 Y101.652 Z-7.933
N8245 X18.399 Y101.648 Z-7.883
N8250 X18.349 Y101.645 Z-7.822
N8255 X18.312 Y101.643 Z-7.753
N8260 X18.29 Y101.642 Z-7.678
N8265 X18.282 Y101.641 Z-7.6
N8270 G0 Z5
N8275 X18.3 Y78.532
N8280 G1 Z-6 F300
N8285 Z-7.6
N8290 G18 G2 X18.7 Z-8 I0.4
N8295 G1 X19.1 F150
N8300 G17 G3 X19.5 Y78.932 J0.4
N8305 G1 Y93.932 F300
N8310 G2 X21.5 Y95.932 I2
N8315 G1 X25
N8320 G2 X27 Y93.932 J-2
N8325 G1 Y41.932
N8330 G2 X25 Y39.932 I-2
N8335 G1 X21.5
N8340 G2 X19.5 Y41.932 J2
N8345 G1 Y78.932
N8350 G3 X19.1 Y79.332 I-0.4
N8355 G1 X18.7
N8360 G18 G3 X18.3 Z-7.6 K0.4
N8365 G0 Z5
N8370 Y78.532
N8375 G1 Z-6.5 F300
N8380 Z-8.1
N8385 G2 X18.7 Z-8.5 I0.4
N8390 G1 X19.1 F150
N8395 G17 G3 X19.5 Y78.932 J0.4
N8400 G1 Y93.932 F300
N8405 G2 X21.5 Y95.932 I2
N8410 G1 X25
N8415 G2 X27 Y93.932 J-2
N8420 G1 Y41.932
N8425 G2 X25 Y39.932 I-2
N8430 G1 X21.5
N8435 G2 X19.5 Y41.932 J2
N8440 G1 Y78.932
N8445 G3 X19.1 Y79.332 I-0.4
N8450 G1 X18.7
N8455 G18 G3 X18.3 Z-8.1 K0.4
N8460 G0 Z5
N8465 X18.329 Y100.843
N8470 G1 Z-6.5 F300
N8475 Z-8.1
N8480 X18.337 Z-8.178
N8485 X18.36 Y100.844 Z-8.253
N8490 X18.397 Y100.847 Z-8.322
N8495 X18.446 Y100.85 Z-8.383
N8500 X18.507 Y100.853 Z-8.433
N8505 X18.576 Y100.857 Z-8.47
N8510 X18.651 Y100.862 Z-8.492
N8515 X18.729 Y100.866 Z-8.5
N8520 X19.128 Y100.89 F150
N8525 G17 G3 X19.504 Y101.313 I-0.024 J0.399
N8530 G1 X19.5 Y101.432 F300
N8535 Y129.932
N8540 X11.75
N8545 G2 X9.75 Y131.932 J2
N8550 G1 Y133.864
N8555 X8.75
N8560 G2 X6.75 Y135.864 J2
N8565 G1 Y138.864
N8570 G2 X8.75 Y140.864 I2
N8575 G1 X19.5
N8580 Y142.864
N8585 G2 X21.5 Y144.864 I2
N8590 G1 X25
N8595 G2 X27 Y142.864 J-2
N8600 G1 Y101.432
N8605 G2 X25 Y99.432 I-2
N8610 G1 X21.5
N8615 G2 X19.504 Y101.313 J2
N8620 G3 X19.08 Y101.689 I-0.399 J-0.024
N8625 G1 X18.681 Y101.665
N8630 X18.603 Y101.66 Z-8.492
N8635 X18.528 Y101.656 Z-8.47
N8640 X18.459 Y101.652 Z-8.433
N8645 X18.399 Y101.648 Z-8.383
N8650 X18.349 Y101.645 Z-8.322
N8655 X18.312 Y101.643 Z-8.253
N8660 X18.29 Y101.642 Z-8.178
N8665 X18.282 Y101.641 Z-8.1
N8670 G0 Z5
N8675 X18.329 Y100.843
N8680 G1 Z-7 F300
N8685 Z-8.401
N8690 X18.337 Z-8.479
N8695 X18.36 Y100.844 Z-8.554
N8700 X18.397 Y100.847 Z-8.623
N8705 X18.446 Y100.85 Z-8.683
N8710 X18.507 Y100.853 Z-8.733
N8715 X18.576 Y100.857 Z-8.77
N8720 X18.651 Y100.862 Z-8.793
N8725 X18.729 Y100.866 Z-8.8
N8730 X19.128 Y100.89 F150
N8735 G3 X19.504 Y101.313 I-0.024 J0.399
N8740 G1 X19.5 Y101.432 F300
N8745 Y129.932
N8750 X11.75
N8755 G2 X9.75 Y131.932 J2
N8760 G1 Y133.864
N8765 X8.75
N8770 G2 X6.75 Y135.864 J2
N8775 G1 Y138.864
N8780 G2 X8.75 Y140.864 I2
N8785 G1 X19.5
N8790 Y142.864
N8795 G2 X21.5 Y144.864 I2
N8800 G1 X25
N8805 G2 X27 Y142.864 J-2
N8810 G1 Y101.432
N8815 G2 X25 Y99.432 I-2
N8820 G1 X21.5
N8825 G2 X19.504 Y101.313 J2
N8830 G3 X19.08 Y101.689 I-0.399 J-0.024
N8835 G1 X18.681 Y101.665
N8840 X18.603 Y101.66 Z-8.793
N8845 X18.528 Y101.656 Z-8.77
N8850 X18.459 Y101.652 Z-8.733
N8855 X18.399 Y101.648 Z-8.683
N8860 X18.349 Y101.645 Z-8.623
N8865 X18.312 Y101.643 Z-8.554
N8870 X18.29 Y101.642 Z-8.479
N8875 X18.282 Y101.641 Z-8.401
N8880 G0 Z5
N8885 X18.3 Y78.532
N8890 G1 Z-7 F300
N8895 Z-8.401
N8900 G18 G2 X18.7 Z-8.8 I0.4
N8905 G1 X19.1 F150
N8910 G17 G3 X19.5 Y78.932 J0.4
N8915 G1 Y93.932 F300
N8920 G2 X21.5 Y95.932 I2
N8925 G1 X25
N8930 G2 X27 Y93.932 J-2
N8935 G1 Y41.932
N8940 G2 X25 Y39.932 I-2
N8945 G1 X21.5
N8950 G2 X19.5 Y41.932 J2
N8955 G1 Y78.932
N8960 G3 X19.1 Y79.332 I-0.4
N8965 G1 X18.7
N8970 G18 G3 X18.3 Z-8.401 K0.4
N8975 G0 Z5
N8980 Y78.532
N8985 G1 Z-7.3 F300
N8990 Z-8.701
N8995 G2 X18.7 Z-9.101 I0.4
N9000 G1 X19.1 F150
N9005 G17 G3 X19.5 Y78.932 J0.4
N9010 G1 Y93.932 F300
N9015 G2 X21.5 Y95.932 I2
N9020 G1 X25
N9025 G2 X27 Y93.932 J-2
N9030 G1 Y41.932
N9035 G2 X25 Y39.932 I-2
N9040 G1 X21.5
N9045 G2 X19.5 Y41.932 J2
N9050 G1 Y78.932
N9055 G3 X19.1 Y79.332 I-0.4
N9060 G1 X18.7
N9065 G18 G3 X18.3 Z-8.701 K0.4
N9070 G0 Z5
N9075 X18.329 Y100.843
N9080 G1 Z-7.3 F300
N9085 Z-8.701
N9090 X18.337 Z-8.779
N9095 X18.36 Y100.844 Z-8.854
N9100 X18.397 Y100.847 Z-8.923
N9105 X18.446 Y100.85 Z-8.984
N9110 X18.507 Y100.853 Z-9.034
N9115 X18.576 Y100.857 Z-9.071
N9120 X18.651 Y100.862 Z-9.093
N9125 X18.729 Y100.866 Z-9.101
N9130 X19.128 Y100.89 F150
N9135 G17 G3 X19.504 Y101.313 I-0.024 J0.399
N9140 G1 X19.5 Y101.432 F300
N9145 Y129.932
N9150 X11.75
N9155 G2 X9.75 Y131.932 J2
N9160 G1 Y133.864
N9165 X8.75
N9170 G2 X6.75 Y135.864 J2
N9175 G1 Y138.864
N9180 G2 X8.75 Y140.864 I2
N9185 G1 X19.5
N9190 Y142.864
N9195 G2 X21.5 Y144.864 I2
N9200 G1 X25
N9205 G2 X27 Y142.864 J-2
N9210 G1 Y101.432
N9215 G2 X25 Y99.432 I-2
N9220 G1 X21.5
N9225 G2 X19.504 Y101.313 J2
N9230 G3 X19.08 Y101.689 I-0.399 J-0.024
N9235 G1 X18.681 Y101.665
N9240 X18.603 Y101.66 Z-9.093
N9245 X18.528 Y101.656 Z-9.071
N9250 X18.459 Y101.652 Z-9.034
N9255 X18.399 Y101.648 Z-8.984
N9260 X18.349 Y101.645 Z-8.923
N9265 X18.312 Y101.643 Z-8.854
N9270 X18.29 Y101.642 Z-8.779
N9275 X18.282 Y101.641 Z-8.701
N9280 G0 Z5
N9285 X5.55 Y18.6
N9290 G1 Z1.5 F300
N9295 Z-0.1
N9300 G18 G2 X5.95 Z-0.5 I0.4
N9305 G1 X6.35 F150
N9310 G17 G3 X6.75 Y19 J0.4
N9315 G1 Y22 F300
N9320 G2 X8.75 Y24 I2
N9325 G1 X9.75
N9330 Y25.932
N9335 G2 X11.75 Y27.932 I2
N9340 G1 X21.5
N9345 X25
N9350 G2 X27 Y25.932 J-2
N9355 G1 Y15
N9360 G2 X25 Y13 I-2
N9365 G1 X21.5
N9370 G2 X19.5 Y15 J2
N9375 G1 Y17
N9380 X8.75
N9385 G2 X6.75 Y19 J2
N9390 G3 X6.35 Y19.4 I-0.4
N9395 G1 X5.95
N9400 G18 G3 X5.55 Z-0.1 K0.4
N9405 G0 Z5
N9410 Y18.6
N9415 G1 Z1 F300
N9420 Z-0.6
N9425 G2 X5.95 Z-1 I0.4
N9430 G1 X6.35 F150
N9435 G17 G3 X6.75 Y19 J0.4
N9440 G1 Y22 F300
N9445 G2 X8.75 Y24 I2
N9450 G1 X9.75
N9455 Y25.932
N9460 G2 X11.75 Y27.932 I2
N9465 G1 X21.5
N9470 X25
N9475 G2 X27 Y25.932 J-2
N9480 G1 Y15
N9485 G2 X25 Y13 I-2
N9490 G1 X21.5
N9495 G2 X19.5 Y15 J2
N9500 G1 Y17
N9505 X8.75
N9510 G2 X6.75 Y19 J2
N9515 G3 X6.35 Y19.4 I-0.4
N9520 G1 X5.95
N9525 G18 G3 X5.55 Z-0.6 K0.4
N9530 G0 Z5
N9535 Y18.6
N9540 G1 Z0.5 F300
N9545 Z-1.1
N9550 G2 X5.95 Z-1.5 I0.4
N9555 G1 X6.35 F150
N9560 G17 G3 X6.75 Y19 J0.4
N9565 G1 Y22 F300
N9570 G2 X8.75 Y24 I2
N9575 G1 X9.75
N9580 Y25.932
N9585 G2 X11.75 Y27.932 I2
N9590 G1 X21.5
N9595 X25
N9600 G2 X27 Y25.932 J-2
N9605 G1 Y15
N9610 G2 X25 Y13 I-2
N9615 G1 X21.5
N9620 G2 X19.5 Y15 J2
N9625 G1 Y17
N9630 X8.75
N9635 G2 X6.75 Y19 J2
N9640 G3 X6.35 Y19.4 I-0.4
N9645 G1 X5.95
N9650 G18 G3 X5.55 Z-1.1 K0.4
N9655 G0 Z5
N9660 Y18.6
N9665 G1 Z0 F300
N9670 Z-1.6
N9675 G2 X5.95 Z-2 I0.4
N9680 G1 X6.35 F150
N9685 G17 G3 X6.75 Y19 J0.4
N9690 G1 Y22 F300
N9695 G2 X8.75 Y24 I2
N9700 G1 X9.75
N9705 Y25.932
N9710 G2 X11.75 Y27.932 I2
N9715 G1 X21.5
N9720 X25
N9725 G2 X27 Y25.932 J-2
N9730 G1 Y15
N9735 G2 X25 Y13 I-2
N9740 G1 X21.5
N9745 G2 X19.5 Y15 J2
N9750 G1 Y17
N9755 X8.75
N9760 G2 X6.75 Y19 J2
N9765 G3 X6.35 Y19.4 I-0.4
N9770 G1 X5.95
N9775 G18 G3 X5.55 Z-1.6 K0.4
N9780 G0 Z5
N9785 Y18.6
N9790 G1 Z-0.5 F300
N9795 Z-2.1
N9800 G2 X5.95 Z-2.5 I0.4
N9805 G1 X6.35 F150
N9810 G17 G3 X6.75 Y19 J0.4
N9815 G1 Y22 F300
N9820 G2 X8.75 Y24 I2
N9825 G1 X9.75
N9830 Y25.932
N9835 G2 X11.75 Y27.932 I2
N9840 G1 X21.5
N9845 X25
N9850 G2 X27 Y25.932 J-2
N9855 G1 Y15
N9860 G2 X25 Y13 I-2
N9865 G1 X21.5
N9870 G2 X19.5 Y15 J2
N9875 G1 Y17
N9880 X8.75
N9885 G2 X6.75 Y19 J2
N9890 G3 X6.35 Y19.4 I-0.4
N9895 G1 X5.95
N9900 G18 G3 X5.55 Z-2.1 K0.4
N9905 G0 Z5
N9910 Y18.6
N9915 G1 Z-1 F300
N9920 Z-2.6
N9925 G2 X5.95 Z-3 I0.4
N9930 G1 X6.35 F150
N9935 G17 G3 X6.75 Y19 J0.4
N9940 G1 Y22 F300
N9945 G2 X8.75 Y24 I2
N9950 G1 X9.75
N9955 Y25.932
N9960 G2 X11.75 Y27.932 I2
N9965 G1 X21.5
N9970 X25
N9975 G2 X27 Y25.932 J-2
N9980 G1 Y15
N9985 G2 X25 Y13 I-2
N9990 G1 X21.5
N9995 G2 X19.5 Y15 J2
N10000 G1 Y17
N10005 X8.75
N10010 G2 X6.75 Y19 J2
N10015 G3 X6.35 Y19.4 I-0.4
N10020 G1 X5.95
N10025 G18 G3 X5.55 Z-2.6 K0.4
N10030 G0 Z5
N10035 Y18.6
N10040 G1 Z-1.5 F300
N10045 Z-3.1
N10050 G2 X5.95 Z-3.5 I0.4
N10055 G1 X6.35 F150
N10060 G17 G3 X6.75 Y19 J0.4
N10065 G1 Y22 F300
N10070 G2 X8.75 Y24 I2
N10075 G1 X9.75
N10080 Y25.932
N10085 G2 X11.75 Y27.932 I2
N10090 G1 X21.5
N10095 X25
N10100 G2 X27 Y25.932 J-2
N10105 G1 Y15
N10110 G2 X25 Y13 I-2
N10115 G1 X21.5
N10120 G2 X19.5 Y15 J2
N10125 G1 Y17
N10130 X8.75
N10135 G2 X6.75 Y19 J2
N10140 G3 X6.35 Y19.4 I-0.4
N10145 G1 X5.95
N10150 G18 G3 X5.55 Z-3.1 K0.4
N10155 G0 Z5
N10160 Y18.6
N10165 G1 Z-2 F300
N10170 Z-3.6
N10175 G2 X5.95 Z-4 I0.4
N10180 G1 X6.35 F150
N10185 G17 G3 X6.75 Y19 J0.4
N10190 G1 Y22 F300
N10195 G2 X8.75 Y24 I2
N10200 G1 X9.75
N10205 Y25.932
N10210 G2 X11.75 Y27.932 I2
N10215 G1 X21.5
N10220 X25
N10225 G2 X27 Y25.932 J-2
N10230 G1 Y15
N10235 G2 X25 Y13 I-2
N10240 G1 X21.5
N10245 G2 X19.5 Y15 J2
N10250 G1 Y17
N10255 X8.75
N10260 G2 X6.75 Y19 J2
N10265 G3 X6.35 Y19.4 I-0.4
N10270 G1 X5.95
N10275 G18 G3 X5.55 Z-3.6 K0.4
N10280 G0 Z5
N10285 Y18.6
N10290 G1 Z-2.5 F300
N10295 Z-4.1
N10300 G2 X5.95 Z-4.5 I0.4
N10305 G1 X6.35 F150
N10310 G17 G3 X6.75 Y19 J0.4
N10315 G1 Y22 F300
N10320 G2 X8.75 Y24 I2
N10325 G1 X9.75
N10330 Y25.932
N10335 G2 X11.75 Y27.932 I2
N10340 G1 X21.5
N10345 X25
N10350 G2 X27 Y25.932 J-2
N10355 G1 Y15
N10360 G2 X25 Y13 I-2
N10365 G1 X21.5
N10370 G2 X19.5 Y15 J2
N10375 G1 Y17
N10380 X8.75
N10385 G2 X6.75 Y19 J2
N10390 G3 X6.35 Y19.4 I-0.4
N10395 G1 X5.95
N10400 G18 G3 X5.55 Z-4.1 K0.4
N10405 G0 Z5
N10410 Y18.6
N10415 G1 Z-3 F300
N10420 Z-4.6
N10425 G2 X5.95 Z-5 I0.4
N10430 G1 X6.35 F150
N10435 G17 G3 X6.75 Y19 J0.4
N10440 G1 Y22 F300
N10445 G2 X8.75 Y24 I2
N10450 G1 X9.75
N10455 Y25.932
N10460 G2 X11.75 Y27.932 I2
N10465 G1 X21.5
N10470 X25
N10475 G2 X27 Y25.932 J-2
N10480 G1 Y15
N10485 G2 X25 Y13 I-2
N10490 G1 X21.5
N10495 G2 X19.5 Y15 J2
N10500 G1 Y17
N10505 X8.75
N10510 G2 X6.75 Y19 J2
N10515 G3 X6.35 Y19.4 I-0.4
N10520 G1 X5.95
N10525 G18 G3 X5.55 Z-4.6 K0.4
N10530 G0 Z5
N10535 Y18.6
N10540 G1 Z-3.5 F300
N10545 Z-5.1
N10550 G2 X5.95 Z-5.5 I0.4
N10555 G1 X6.35 F150
N10560 G17 G3 X6.75 Y19 J0.4
N10565 G1 Y22 F300
N10570 G2 X8.75 Y24 I2
N10575 G1 X9.75
N10580 Y25.932
N10585 G2 X11.75 Y27.932 I2
N10590 G1 X21.5
N10595 X25
N10600 G2 X27 Y25.932 J-2
N10605 G1 Y15
N10610 G2 X25 Y13 I-2
N10615 G1 X21.5
N10620 G2 X19.5 Y15 J2
N10625 G1 Y17
N10630 X8.75
N10635 G2 X6.75 Y19 J2
N10640 G3 X6.35 Y19.4 I-0.4
N10645 G1 X5.95
N10650 G18 G3 X5.55 Z-5.1 K0.4
N10655 G0 Z5
N10660 Y18.6
N10665 G1 Z-4 F300
N10670 Z-5.6
N10675 G2 X5.95 Z-6 I0.4
N10680 G1 X6.35 F150
N10685 G17 G3 X6.75 Y19 J0.4
N10690 G1 Y22 F300
N10695 G2 X8.75 Y24 I2
N10700 G1 X9.75
N10705 Y25.932
N10710 G2 X11.75 Y27.932 I2
N10715 G1 X21.5
N10720 X25
N10725 G2 X27 Y25.932 J-2
N10730 G1 Y15
N10735 G2 X25 Y13 I-2
N10740 G1 X21.5
N10745 G2 X19.5 Y15 J2
N10750 G1 Y17
N10755 X8.75
N10760 G2 X6.75 Y19 J2
N10765 G3 X6.35 Y19.4 I-0.4
N10770 G1 X5.95
N10775 G18 G3 X5.55 Z-5.6 K0.4
N10780 G0 Z5
N10785 Y18.6
N10790 G1 Z-4.5 F300
N10795 Z-6.1
N10800 G2 X5.95 Z-6.5 I0.4
N10805 G1 X6.35 F150
N10810 G17 G3 X6.75 Y19 J0.4
N10815 G1 Y22 F300
N10820 G2 X8.75 Y24 I2
N10825 G1 X9.75
N10830 Y25.932
N10835 G2 X11.75 Y27.932 I2
N10840 G1 X21.5
N10845 X25
N10850 G2 X27 Y25.932 J-2
N10855 G1 Y15
N10860 G2 X25 Y13 I-2
N10865 G1 X21.5
N10870 G2 X19.5 Y15 J2
N10875 G1 Y17
N10880 X8.75
N10885 G2 X6.75 Y19 J2
N10890 G3 X6.35 Y19.4 I-0.4
N10895 G1 X5.95
N10900 G18 G3 X5.55 Z-6.1 K0.4
N10905 G0 Z5
N10910 Y18.6
N10915 G1 Z-5 F300
N10920 Z-6.6
N10925 G2 X5.95 Z-7 I0.4
N10930 G1 X6.35 F150
N10935 G17 G3 X6.75 Y19 J0.4
N10940 G1 Y22 F300
N10945 G2 X8.75 Y24 I2
N10950 G1 X9.75
N10955 Y25.932
N10960 G2 X11.75 Y27.932 I2
N10965 G1 X21.5
N10970 X25
N10975 G2 X27 Y25.932 J-2
N10980 G1 Y15
N10985 G2 X25 Y13 I-2
N10990 G1 X21.5
N10995 G2 X19.5 Y15 J2
N11000 G1 Y17
N11005 X8.75
N11010 G2 X6.75 Y19 J2
N11015 G3 X6.35 Y19.4 I-0.4
N11020 G1 X5.95
N11025 G18 G3 X5.55 Z-6.6 K0.4
N11030 G0 Z5
N11035 Y18.6
N11040 G1 Z-5.5 F300
N11045 Z-7.1
N11050 G2 X5.95 Z-7.5 I0.4
N11055 G1 X6.35 F150
N11060 G17 G3 X6.75 Y19 J0.4
N11065 G1 Y22 F300
N11070 G2 X8.75 Y24 I2
N11075 G1 X9.75
N11080 Y25.932
N11085 G2 X11.75 Y27.932 I2
N11090 G1 X21.5
N11095 X25
N11100 G2 X27 Y25.932 J-2
N11105 G1 Y15
N11110 G2 X25 Y13 I-2
N11115 G1 X21.5
N11120 G2 X19.5 Y15 J2
N11125 G1 Y17
N11130 X8.75
N11135 G2 X6.75 Y19 J2
N11140 G3 X6.35 Y19.4 I-0.4
N11145 G1 X5.95
N11150 G18 G3 X5.55 Z-7.1 K0.4
N11155 G0 Z5
N11160 Y18.6
N11165 G1 Z-6 F300
N11170 Z-7.6
N11175 G2 X5.95 Z-8 I0.4
N11180 G1 X6.35 F150
N11185 G17 G3 X6.75 Y19 J0.4
N11190 G1 Y22 F300
N11195 G2 X8.75 Y24 I2
N11200 G1 X9.75
N11205 Y25.932
N11210 G2 X11.75 Y27.932 I2
N11215 G1 X21.5
N11220 X25
N11225 G2 X27 Y25.932 J-2
N11230 G1 Y15
N11235 G2 X25 Y13 I-2
N11240 G1 X21.5
N11245 G2 X19.5 Y15 J2
N11250 G1 Y17
N11255 X8.75
N11260 G2 X6.75 Y19 J2
N11265 G3 X6.35 Y19.4 I-0.4
N11270 G1 X5.95
N11275 G18 G3 X5.55 Z-7.6 K0.4
N11280 G0 Z5
N11285 Y18.6
N11290 G1 Z-6.5 F300
N11295 Z-8.1
N11300 G2 X5.95 Z-8.5 I0.4
N11305 G1 X6.35 F150
N11310 G17 G3 X6.75 Y19 J0.4
N11315 G1 Y22 F300
N11320 G2 X8.75 Y24 I2
N11325 G1 X9.75
N11330 Y25.932
N11335 G2 X11.75 Y27.932 I2
N11340 G1 X21.5
N11345 X25
N11350 G2 X27 Y25.932 J-2
N11355 G1 Y15
N11360 G2 X25 Y13 I-2
N11365 G1 X21.5
N11370 G2 X19.5 Y15 J2
N11375 G1 Y17
N11380 X8.75
N11385 G2 X6.75 Y19 J2
N11390 G3 X6.35 Y19.4 I-0.4
N11395 G1 X5.95
N11400 G18 G3 X5.55 Z-8.1 K0.4
N11405 G0 Z5
N11410 Y18.6
N11415 G1 Z-7 F300
N11420 Z-8.401
N11425 G2 X5.95 Z-8.8 I0.4
N11430 G1 X6.35 F150
N11435 G17 G3 X6.75 Y19 J0.4
N11440 G1 Y22 F300
N11445 G2 X8.75 Y24 I2
N11450 G1 X9.75
N11455 Y25.932
N11460 G2 X11.75 Y27.932 I2
N11465 G1 X21.5
N11470 X25
N11475 G2 X27 Y25.932 J-2
N11480 G1 Y15
N11485 G2 X25 Y13 I-2
N11490 G1 X21.5
N11495 G2 X19.5 Y15 J2
N11500 G1 Y17
N11505 X8.75
N11510 G2 X6.75 Y19 J2
N11515 G3 X6.35 Y19.4 I-0.4
N11520 G1 X5.95
N11525 G18 G3 X5.55 Z-8.401 K0.4
N11530 G0 Z5
N11535 Y18.6
N11540 G1 Z-7.3 F300
N11545 Z-8.701
N11550 G2 X5.95 Z-9.101 I0.4
N11555 G1 X6.35 F150
N11560 G17 G3 X6.75 Y19 J0.4
N11565 G1 Y22 F300
N11570 G2 X8.75 Y24 I2
N11575 G1 X9.75
N11580 Y25.932
N11585 G2 X11.75 Y27.932 I2
N11590 G1 X21.5
N11595 X25
N11600 G2 X27 Y25.932 J-2
N11605 G1 Y15
N11610 G2 X25 Y13 I-2
N11615 G1 X21.5
N11620 G2 X19.5 Y15 J2
N11625 G1 Y17
N11630 X8.75
N11635 G2 X6.75 Y19 J2
N11640 G3 X6.35 Y19.4 I-0.4
N11645 G1 X5.95
N11650 G18 G3 X5.55 Z-8.701 K0.4
N11655 G0 Z15
N11660 X46.487 Y170.147
N11665 Z5
N11670 G1 Z1.5 F300
N11675 Z-0.1
N11680 X46.48 Y170.145 Z-0.178
N11685 X46.458 Y170.139 Z-0.253
N11690 X46.422 Y170.129 Z-0.322
N11695 X46.374 Y170.116 Z-0.383
N11700 X46.316 Y170.101 Z-0.433
N11705 X46.249 Y170.083 Z-0.47
N11710 X46.176 Y170.063 Z-0.492
N11715 X46.101 Y170.043 Z-0.5
N11720 X45.715 Y169.94 F150
N11725 G17 G3 X45.432 Y169.45 I0.104 J-0.386
N11730 G1 X45.932 Y167.584 F300
N11735 G2 X46 Y167.066 I-1.932 J-0.518
N11740 G1 Y50.798
N11745 G2 X45.932 Y50.28 I-2
N11750 G1 X45.432 Y48.414
N11755 G2 X43.5 Y46.932 I-1.932 J0.518
N11760 G1 X31
N11765 G2 X29 Y48.932 J2
N11770 G1 Y70.932
N11775 G2 X31 Y72.932 I2
N11780 G1 X38.5
N11785 Y144.932
N11790 X31
N11795 G2 X29 Y146.932 J2
N11800 G1 Y168.932
N11805 G2 X31 Y170.932 I2
N11810 G1 X43.5
N11815 G2 X45.432 Y169.45 J-2
N11820 G3 X45.922 Y169.167 I0.386 J0.104
N11825 G1 X46.308 Y169.27
N11830 X46.383 Y169.291 Z-0.492
N11835 X46.456 Y169.31 Z-0.47
N11840 X46.523 Y169.328 Z-0.433
N11845 X46.581 Y169.344 Z-0.383
N11850 X46.629 Y169.356 Z-0.322
N11855 X46.665 Y169.366 Z-0.253
N11860 X46.687 Y169.372 Z-0.178
N11865 X46.694 Y169.374 Z-0.1
N11870 G0 Z5
N11875 X46.487 Y170.147
N11880 G1 Z1 F300
N11885 Z-0.6
N11890 X46.48 Y170.145 Z-0.678
N11895 X46.458 Y170.139 Z-0.753
N11900 X46.422 Y170.129 Z-0.822
N11905 X46.374 Y170.116 Z-0.883
N11910 X46.316 Y170.101 Z-0.933
N11915 X46.249 Y170.083 Z-0.97
N11920 X46.176 Y170.063 Z-0.992
N11925 X46.101 Y170.043 Z-1
N11930 X45.715 Y169.94 F150
N11935 G3 X45.432 Y169.45 I0.104 J-0.386
N11940 G1 X45.932 Y167.584 F300
N11945 G2 X46 Y167.066 I-1.932 J-0.518
N11950 G1 Y50.798
N11955 G2 X45.932 Y50.28 I-2
N11960 G1 X45.432 Y48.414
N11965 G2 X43.5 Y46.932 I-1.932 J0.518
N11970 G1 X31
N11975 G2 X29 Y48.932 J2
N11980 G1 Y70.932
N11985 G2 X31 Y72.932 I2
N11990 G1 X38.5
N11995 Y144.932
N12000 X31
N12005 G2 X29 Y146.932 J2
N12010 G1 Y168.932
N12015 G2 X31 Y170.932 I2
N12020 G1 X43.5
N12025 G2 X45.432 Y169.45 J-2
N12030 G3 X45.922 Y169.167 I0.386 J0.104
N12035 G1 X46.308 Y169.27
N12040 X46.383 Y169.291 Z-0.992
N12045 X46.456 Y169.31 Z-0.97
N12050 X46.523 Y169.328 Z-0.933
N12055 X46.581 Y169.344 Z-0.883
N12060 X46.629 Y169.356 Z-0.822
N12065 X46.665 Y169.366 Z-0.753
N12070 X46.687 Y169.372 Z-0.678
N12075 X46.694 Y169.374 Z-0.6
N12080 G0 Z5
N12085 X46.487 Y170.147
N12090 G1 Z0.5 F300
N12095 Z-1.1
N12100 X46.48 Y170.145 Z-1.178
N12105 X46.458 Y170.139 Z-1.253
N12110 X46.422 Y170.129 Z-1.322
N12115 X46.374 Y170.116 Z-1.383
N12120 X46.316 Y170.101 Z-1.433
N12125 X46.249 Y170.083 Z-1.47
N12130 X46.176 Y170.063 Z-1.492
N12135 X46.101 Y170.043 Z-1.5
N12140 X45.715 Y169.94 F150
N12145 G3 X45.432 Y169.45 I0.104 J-0.386
N12150 G1 X45.932 Y167.584 F300
N12155 G2 X46 Y167.066 I-1.932 J-0.518
N12160 G1 Y50.798
N12165 G2 X45.932 Y50.28 I-2
N12170 G1 X45.432 Y48.414
N12175 G2 X43.5 Y46.932 I-1.932 J0.518
N12180 G1 X31
N12185 G2 X29 Y48.932 J2
N12190 G1 Y70.932
N12195 G2 X31 Y72.932 I2
N12200 G1 X38.5
N12205 Y144.932
N12210 X31
N12215 G2 X29 Y146.932 J2
N12220 G1 Y168.932
N12225 G2 X31 Y170.932 I2
N12230 G1 X43.5
N12235 G2 X45.432 Y169.45 J-2
N12240 G3 X45.922 Y169.167 I0.386 J0.104
N12245 G1 X46.308 Y169.27
N12250 X46.383 Y169.291 Z-1.492
N12255 X46.456 Y169.31 Z-1.47
N12260 X46.523 Y169.328 Z-1.433
N12265 X46.581 Y169.344 Z-1.383
N12270 X46.629 Y169.356 Z-1.322
N12275 X46.665 Y169.366 Z-1.253
N12280 X46.687 Y169.372 Z-1.178
N12285 X46.694 Y169.374 Z-1.1
N12290 G0 Z5
N12295 X46.487 Y170.147
N12300 G1 Z0 F300
N12305 Z-1.6
N12310 X46.48 Y170.145 Z-1.678
N12315 X46.458 Y170.139 Z-1.753
N12320 X46.422 Y170.129 Z-1.822
N12325 X46.374 Y170.116 Z-1.883
N12330 X46.316 Y170.101 Z-1.933
N12335 X46.249 Y170.083 Z-1.97
N12340 X46.176 Y170.063 Z-1.992
N12345 X46.101 Y170.043 Z-2
N12350 X45.715 Y169.94 F150
N12355 G3 X45.432 Y169.45 I0.104 J-0.386
N12360 G1 X45.932 Y167.584 F300
N12365 G2 X46 Y167.066 I-1.932 J-0.518
N12370 G1 Y50.798
N12375 G2 X45.932 Y50.28 I-2
N12380 G1 X45.432 Y48.414
N12385 G2 X43.5 Y46.932 I-1.932 J0.518
N12390 G1 X31
N12395 G2 X29 Y48.932 J2
N12400 G1 Y70.932
N12405 G2 X31 Y72.932 I2
N12410 G1 X38.5
N12415 Y144.932
N12420 X31
N12425 G2 X29 Y146.932 J2
N12430 G1 Y168.932
N12435 G2 X31 Y170.932 I2
N12440 G1 X43.5
N12445 G2 X45.432 Y169.45 J-2
N12450 G3 X45.922 Y169.167 I0.386 J0.104
N12455 G1 X46.308 Y169.27
N12460 X46.383 Y169.291 Z-1.992
N12465 X46.456 Y169.31 Z-1.97
N12470 X46.523 Y169.328 Z-1.933
N12475 X46.581 Y169.344 Z-1.883
N12480 X46.629 Y169.356 Z-1.822
N12485 X46.665 Y169.366 Z-1.753
N12490 X46.687 Y169.372 Z-1.678
N12495 X46.694 Y169.374 Z-1.6
N12500 G0 Z5
N12505 X46.487 Y170.147
N12510 G1 Z-0.5 F300
N12515 Z-2.1
N12520 X46.48 Y170.145 Z-2.178
N12525 X46.458 Y170.139 Z-2.253
N12530 X46.422 Y170.129 Z-2.322
N12535 X46.374 Y170.116 Z-2.383
N12540 X46.316 Y170.101 Z-2.433
N12545 X46.249 Y170.083 Z-2.47
N12550 X46.176 Y170.063 Z-2.492
N12555 X46.101 Y170.043 Z-2.5
N12560 X45.715 Y169.94 F150
N12565 G3 X45.432 Y169.45 I0.104 J-0.386
N12570 G1 X45.932 Y167.584 F300
N12575 G2 X46 Y167.066 I-1.932 J-0.518
N12580 G1 Y50.798
N12585 G2 X45.932 Y50.28 I-2
N12590 G1 X45.432 Y48.414
N12595 G2 X43.5 Y46.932 I-1.932 J0.518
N12600 G1 X31
N12605 G2 X29 Y48.932 J2
N12610 G1 Y70.932
N12615 G2 X31 Y72.932 I2
N12620 G1 X38.5
N12625 Y144.932
N12630 X31
N12635 G2 X29 Y146.932 J2
N12640 G1 Y168.932
N12645 G2 X31 Y170.932 I2
N12650 G1 X43.5
N12655 G2 X45.432 Y169.45 J-2
N12660 G3 X45.922 Y169.167 I0.386 J0.104
N12665 G1 X46.308 Y169.27
N12670 X46.383 Y169.291 Z-2.492
N12675 X46.456 Y169.31 Z-2.47
N12680 X46.523 Y169.328 Z-2.433
N12685 X46.581 Y169.344 Z-2.383
N12690 X46.629 Y169.356 Z-2.322
N12695 X46.665 Y169.366 Z-2.253
N12700 X46.687 Y169.372 Z-2.178
N12705 X46.694 Y169.374 Z-2.1
N12710 G0 Z5
N12715 X46.487 Y170.147
N12720 G1 Z-1 F300
N12725 Z-2.6
N12730 X46.48 Y170.145 Z-2.678
N12735 X46.458 Y170.139 Z-2.753
N12740 X46.422 Y170.129 Z-2.822
N12745 X46.374 Y170.116 Z-2.883
N12750 X46.316 Y170.101 Z-2.933
N12755 X46.249 Y170.083 Z-2.97
N12760 X46.176 Y170.063 Z-2.992
N12765 X46.101 Y170.043 Z-3
N12770 X45.715 Y169.94 F150
N12775 G3 X45.432 Y169.45 I0.104 J-0.386
N12780 G1 X45.932 Y167.584 F300
N12785 G2 X46 Y167.066 I-1.932 J-0.518
N12790 G1 Y50.798
N12795 G2 X45.932 Y50.28 I-2
N12800 G1 X45.432 Y48.414
N12805 G2 X43.5 Y46.932 I-1.932 J0.518
N12810 G1 X31
N12815 G2 X29 Y48.932 J2
N12820 G1 Y70.932
N12825 G2 X31 Y72.932 I2
N12830 G1 X38.5
N12835 Y144.932
N12840 X31
N12845 G2 X29 Y146.932 J2
N12850 G1 Y168.932
N12855 G2 X31 Y170.932 I2
N12860 G1 X43.5
N12865 G2 X45.432 Y169.45 J-2
N12870 G3 X45.922 Y169.167 I0.386 J0.104
N12875 G1 X46.308 Y169.27
N12880 X46.383 Y169.291 Z-2.992
N12885 X46.456 Y169.31 Z-2.97
N12890 X46.523 Y169.328 Z-2.933
N12895 X46.581 Y169.344 Z-2.883
N12900 X46.629 Y169.356 Z-2.822
N12905 X46.665 Y169.366 Z-2.753
N12910 X46.687 Y169.372 Z-2.678
N12915 X46.694 Y169.374 Z-2.6
N12920 G0 Z5
N12925 X46.487 Y170.147
N12930 G1 Z-1.5 F300
N12935 Z-3.1
N12940 X46.48 Y170.145 Z-3.178
N12945 X46.458 Y170.139 Z-3.253
N12950 X46.422 Y170.129 Z-3.322
N12955 X46.374 Y170.116 Z-3.383
N12960 X46.316 Y170.101 Z-3.433
N12965 X46.249 Y170.083 Z-3.47
N12970 X46.176 Y170.063 Z-3.492
N12975 X46.101 Y170.043 Z-3.5
N12980 X45.715 Y169.94 F150
N12985 G3 X45.432 Y169.45 I0.104 J-0.386
N12990 G1 X45.932 Y167.584 F300
N12995 G2 X46 Y167.066 I-1.932 J-0.518
N13000 G1 Y50.798
N13005 G2 X45.932 Y50.28 I-2
N13010 G1 X45.432 Y48.414
N13015 G2 X43.5 Y46.932 I-1.932 J0.518
N13020 G1 X31
N13025 G2 X29 Y48.932 J2
N13030 G1 Y70.932
N13035 G2 X31 Y72.932 I2
N13040 G1 X38.5
N13045 Y144.932
N13050 X31
N13055 G2 X29 Y146.932 J2
N13060 G1 Y168.932
N13065 G2 X31 Y170.932 I2
N13070 G1 X43.5
N13075 G2 X45.432 Y169.45 J-2
N13080 G3 X45.922 Y169.167 I0.386 J0.104
N13085 G1 X46.308 Y169.27
N13090 X46.383 Y169.291 Z-3.492
N13095 X46.456 Y169.31 Z-3.47
N13100 X46.523 Y169.328 Z-3.433
N13105 X46.581 Y169.344 Z-3.383
N13110 X46.629 Y169.356 Z-3.322
N13115 X46.665 Y169.366 Z-3.253
N13120 X46.687 Y169.372 Z-3.178
N13125 X46.694 Y169.374 Z-3.1
N13130 G0 Z5
N13135 X46.487 Y170.147
N13140 G1 Z-2 F300
N13145 Z-3.6
N13150 X46.48 Y170.145 Z-3.678
N13155 X46.458 Y170.139 Z-3.753
N13160 X46.422 Y170.129 Z-3.822
N13165 X46.374 Y170.116 Z-3.883
N13170 X46.316 Y170.101 Z-3.933
N13175 X46.249 Y170.083 Z-3.97
N13180 X46.176 Y170.063 Z-3.992
N13185 X46.101 Y170.043 Z-4
N13190 X45.715 Y169.94 F150
N13195 G3 X45.432 Y169.45 I0.104 J-0.386
N13200 G1 X45.932 Y167.584 F300
N13205 G2 X46 Y167.066 I-1.932 J-0.518
N13210 G1 Y50.798
N13215 G2 X45.932 Y50.28 I-2
N13220 G1 X45.432 Y48.414
N13225 G2 X43.5 Y46.932 I-1.932 J0.518
N13230 G1 X31
N13235 G2 X29 Y48.932 J2
N13240 G1 Y70.932
N13245 G2 X31 Y72.932 I2
N13250 G1 X38.5
N13255 Y144.932
N13260 X31
N13265 G2 X29 Y146.932 J2
N13270 G1 Y168.932
N13275 G2 X31 Y170.932 I2
N13280 G1 X43.5
N13285 G2 X45.432 Y169.45 J-2
N13290 G3 X45.922 Y169.167 I0.386 J0.104
N13295 G1 X46.308 Y169.27
N13300 X46.383 Y169.291 Z-3.992
N13305 X46.456 Y169.31 Z-3.97
N13310 X46.523 Y169.328 Z-3.933
N13315 X46.581 Y169.344 Z-3.883
N13320 X46.629 Y169.356 Z-3.822
N13325 X46.665 Y169.366 Z-3.753
N13330 X46.687 Y169.372 Z-3.678
N13335 X46.694 Y169.374 Z-3.6
N13340 G0 Z5
N13345 X46.487 Y170.147
N13350 G1 Z-2.5 F300
N13355 Z-4.1
N13360 X46.48 Y170.145 Z-4.178
N13365 X46.458 Y170.139 Z-4.253
N13370 X46.422 Y170.129 Z-4.322
N13375 X46.374 Y170.116 Z-4.383
N13380 X46.316 Y170.101 Z-4.433
N13385 X46.249 Y170.083 Z-4.47
N13390 X46.176 Y170.063 Z-4.492
N13395 X46.101 Y170.043 Z-4.5
N13400 X45.715 Y169.94 F150
N13405 G3 X45.432 Y169.45 I0.104 J-0.386
N13410 G1 X45.932 Y167.584 F300
N13415 G2 X46 Y167.066 I-1.932 J-0.518
N13420 G1 Y50.798
N13425 G2 X45.932 Y50.28 I-2
N13430 G1 X45.432 Y48.414
N13435 G2 X43.5 Y46.932 I-1.932 J0.518
N13440 G1 X31
N13445 G2 X29 Y48.932 J2
N13450 G1 Y70.932
N13455 G2 X31 Y72.932 I2
N13460 G1 X38.5
N13465 Y144.932
N13470 X31
N13475 G2 X29 Y146.932 J2
N13480 G1 Y168.932
N13485 G2 X31 Y170.932 I2
N13490 G1 X43.5
N13495 G2 X45.432 Y169.45 J-2
N13500 G3 X45.922 Y169.167 I0.386 J0.104
N13505 G1 X46.308 Y169.27
N13510 X46.383 Y169.291 Z-4.492
N13515 X46.456 Y169.31 Z-4.47
N13520 X46.523 Y169.328 Z-4.433
N13525 X46.581 Y169.344 Z-4.383
N13530 X46.629 Y169.356 Z-4.322
N13535 X46.665 Y169.366 Z-4.253
N13540 X46.687 Y169.372 Z-4.178
N13545 X46.694 Y169.374 Z-4.1
N13550 G0 Z5
N13555 X46.487 Y170.147
N13560 G1 Z-3 F300
N13565 Z-4.6
N13570 X46.48 Y170.145 Z-4.678
N13575 X46.458 Y170.139 Z-4.753
N13580 X46.422 Y170.129 Z-4.822
N13585 X46.374 Y170.116 Z-4.883
N13590 X46.316 Y170.101 Z-4.933
N13595 X46.249 Y170.083 Z-4.97
N13600 X46.176 Y170.063 Z-4.992
N13605 X46.101 Y170.043 Z-5
N13610 X45.715 Y169.94 F150
N13615 G3 X45.432 Y169.45 I0.104 J-0.386
N13620 G1 X45.932 Y167.584 F300
N13625 G2 X46 Y167.066 I-1.932 J-0.518
N13630 G1 Y50.798
N13635 G2 X45.932 Y50.28 I-2
N13640 G1 X45.432 Y48.414
N13645 G2 X43.5 Y46.932 I-1.932 J0.518
N13650 G1 X31
N13655 G2 X29 Y48.932 J2
N13660 G1 Y70.932
N13665 G2 X31 Y72.932 I2
N13670 G1 X38.5
N13675 Y144.932
N13680 X31
N13685 G2 X29 Y146.932 J2
N13690 G1 Y168.932
N13695 G2 X31 Y170.932 I2
N13700 G1 X43.5
N13705 G2 X45.432 Y169.45 J-2
N13710 G3 X45.922 Y169.167 I0.386 J0.104
N13715 G1 X46.308 Y169.27
N13720 X46.383 Y169.291 Z-4.992
N13725 X46.456 Y169.31 Z-4.97
N13730 X46.523 Y169.328 Z-4.933
N13735 X46.581 Y169.344 Z-4.883
N13740 X46.629 Y169.356 Z-4.822
N13745 X46.665 Y169.366 Z-4.753
N13750 X46.687 Y169.372 Z-4.678
N13755 X46.694 Y169.374 Z-4.6
N13760 G0 Z5
N13765 X46.487 Y170.147
N13770 G1 Z-3.5 F300
N13775 Z-5.1
N13780 X46.48 Y170.145 Z-5.178
N13785 X46.458 Y170.139 Z-5.253
N13790 X46.422 Y170.129 Z-5.322
N13795 X46.374 Y170.116 Z-5.383
N13800 X46.316 Y170.101 Z-5.433
N13805 X46.249 Y170.083 Z-5.47
N13810 X46.176 Y170.063 Z-5.492
N13815 X46.101 Y170.043 Z-5.5
N13820 X45.715 Y169.94 F150
N13825 G3 X45.432 Y169.45 I0.104 J-0.386
N13830 G1 X45.932 Y167.584 F300
N13835 G2 X46 Y167.066 I-1.932 J-0.518
N13840 G1 Y50.798
N13845 G2 X45.932 Y50.28 I-2
N13850 G1 X45.432 Y48.414
N13855 G2 X43.5 Y46.932 I-1.932 J0.518
N13860 G1 X31
N13865 G2 X29 Y48.932 J2
N13870 G1 Y70.932
N13875 G2 X31 Y72.932 I2
N13880 G1 X38.5
N13885 Y144.932
N13890 X31
N13895 G2 X29 Y146.932 J2
N13900 G1 Y168.932
N13905 G2 X31 Y170.932 I2
N13910 G1 X43.5
N13915 G2 X45.432 Y169.45 J-2
N13920 G3 X45.922 Y169.167 I0.386 J0.104
N13925 G1 X46.308 Y169.27
N13930 X46.383 Y169.291 Z-5.492
N13935 X46.456 Y169.31 Z-5.47
N13940 X46.523 Y169.328 Z-5.433
N13945 X46.581 Y169.344 Z-5.383
N13950 X46.629 Y169.356 Z-5.322
N13955 X46.665 Y169.366 Z-5.253
N13960 X46.687 Y169.372 Z-5.178
N13965 X46.694 Y169.374 Z-5.1
N13970 G0 Z5
N13975 X46.487 Y170.147
N13980 G1 Z-4 F300
N13985 Z-5.6
N13990 X46.48 Y170.145 Z-5.678
N13995 X46.458 Y170.139 Z-5.753
N14000 X46.422 Y170.129 Z-5.822
N14005 X46.374 Y170.116 Z-5.883
N14010 X46.316 Y170.101 Z-5.933
N14015 X46.249 Y170.083 Z-5.97
N14020 X46.176 Y170.063 Z-5.992
N14025 X46.101 Y170.043 Z-6
N14030 X45.715 Y169.94 F150
N14035 G3 X45.432 Y169.45 I0.104 J-0.386
N14040 G1 X45.932 Y167.584 F300
N14045 G2 X46 Y167.066 I-1.932 J-0.518
N14050 G1 Y50.798
N14055 G2 X45.932 Y50.28 I-2
N14060 G1 X45.432 Y48.414
N14065 G2 X43.5 Y46.932 I-1.932 J0.518
N14070 G1 X31
N14075 G2 X29 Y48.932 J2
N14080 G1 Y70.932
N14085 G2 X31 Y72.932 I2
N14090 G1 X38.5
N14095 Y144.932
N14100 X31
N14105 G2 X29 Y146.932 J2
N14110 G1 Y168.932
N14115 G2 X31 Y170.932 I2
N14120 G1 X43.5
N14125 G2 X45.432 Y169.45 J-2
N14130 G3 X45.922 Y169.167 I0.386 J0.104
N14135 G1 X46.308 Y169.27
N14140 X46.383 Y169.291 Z-5.992
N14145 X46.456 Y169.31 Z-5.97
N14150 X46.523 Y169.328 Z-5.933
N14155 X46.581 Y169.344 Z-5.883
N14160 X46.629 Y169.356 Z-5.822
N14165 X46.665 Y169.366 Z-5.753
N14170 X46.687 Y169.372 Z-5.678
N14175 X46.694 Y169.374 Z-5.6
N14180 G0 Z5
N14185 X46.487 Y170.147
N14190 G1 Z-4.5 F300
N14195 Z-6.1
N14200 X46.48 Y170.145 Z-6.178
N14205 X46.458 Y170.139 Z-6.253
N14210 X46.422 Y170.129 Z-6.322
N14215 X46.374 Y170.116 Z-6.383
N14220 X46.316 Y170.101 Z-6.433
N14225 X46.249 Y170.083 Z-6.47
N14230 X46.176 Y170.063 Z-6.492
N14235 X46.101 Y170.043 Z-6.5
N14240 X45.715 Y169.94 F150
N14245 G3 X45.432 Y169.45 I0.104 J-0.386
N14250 G1 X45.932 Y167.584 F300
N14255 G2 X46 Y167.066 I-1.932 J-0.518
N14260 G1 Y50.798
N14265 G2 X45.932 Y50.28 I-2
N14270 G1 X45.432 Y48.414
N14275 G2 X43.5 Y46.932 I-1.932 J0.518
N14280 G1 X31
N14285 G2 X29 Y48.932 J2
N14290 G1 Y70.932
N14295 G2 X31 Y72.932 I2
N14300 G1 X38.5
N14305 Y144.932
N14310 X31
N14315 G2 X29 Y146.932 J2
N14320 G1 Y168.932
N14325 G2 X31 Y170.932 I2
N14330 G1 X43.5
N14335 G2 X45.432 Y169.45 J-2
N14340 G3 X45.922 Y169.167 I0.386 J0.104
N14345 G1 X46.308 Y169.27
N14350 X46.383 Y169.291 Z-6.492
N14355 X46.456 Y169.31 Z-6.47
N14360 X46.523 Y169.328 Z-6.433
N14365 X46.581 Y169.344 Z-6.383
N14370 X46.629 Y169.356 Z-6.322
N14375 X46.665 Y169.366 Z-6.253
N14380 X46.687 Y169.372 Z-6.178
N14385 X46.694 Y169.374 Z-6.1
N14390 G0 Z5
N14395 X46.487 Y170.147
N14400 G1 Z-5 F300
N14405 Z-6.6
N14410 X46.48 Y170.145 Z-6.678
N14415 X46.458 Y170.139 Z-6.753
N14420 X46.422 Y170.129 Z-6.822
N14425 X46.374 Y170.116 Z-6.883
N14430 X46.316 Y170.101 Z-6.933
N14435 X46.249 Y170.083 Z-6.97
N14440 X46.176 Y170.063 Z-6.992
N14445 X46.101 Y170.043 Z-7
N14450 X45.715 Y169.94 F150
N14455 G3 X45.432 Y169.45 I0.104 J-0.386
N14460 G1 X45.932 Y167.584 F300
N14465 G2 X46 Y167.066 I-1.932 J-0.518
N14470 G1 Y50.798
N14475 G2 X45.932 Y50.28 I-2
N14480 G1 X45.432 Y48.414
N14485 G2 X43.5 Y46.932 I-1.932 J0.518
N14490 G1 X31
N14495 G2 X29 Y48.932 J2
N14500 G1 Y70.932
N14505 G2 X31 Y72.932 I2
N14510 G1 X38.5
N14515 Y144.932
N14520 X31
N14525 G2 X29 Y146.932 J2
N14530 G1 Y168.932
N14535 G2 X31 Y170.932 I2
N14540 G1 X43.5
N14545 G2 X45.432 Y169.45 J-2
N14550 G3 X45.922 Y169.167 I0.386 J0.104
N14555 G1 X46.308 Y169.27
N14560 X46.383 Y169.291 Z-6.992
N14565 X46.456 Y169.31 Z-6.97
N14570 X46.523 Y169.328 Z-6.933
N14575 X46.581 Y169.344 Z-6.883
N14580 X46.629 Y169.356 Z-6.822
N14585 X46.665 Y169.366 Z-6.753
N14590 X46.687 Y169.372 Z-6.678
N14595 X46.694 Y169.374 Z-6.6
N14600 G0 Z5
N14605 X46.487 Y170.147
N14610 G1 Z-5.5 F300
N14615 Z-7.1
N14620 X46.48 Y170.145 Z-7.178
N14625 X46.458 Y170.139 Z-7.253
N14630 X46.422 Y170.129 Z-7.322
N14635 X46.374 Y170.116 Z-7.383
N14640 X46.316 Y170.101 Z-7.433
N14645 X46.249 Y170.083 Z-7.47
N14650 X46.176 Y170.063 Z-7.492
N14655 X46.101 Y170.043 Z-7.5
N14660 X45.715 Y169.94 F150
N14665 G3 X45.432 Y169.45 I0.104 J-0.386
N14670 G1 X45.932 Y167.584 F300
N14675 G2 X46 Y167.066 I-1.932 J-0.518
N14680 G1 Y50.798
N14685 G2 X45.932 Y50.28 I-2
N14690 G1 X45.432 Y48.414
N14695 G2 X43.5 Y46.932 I-1.932 J0.518
N14700 G1 X31
N14705 G2 X29 Y48.932 J2
N14710 G1 Y70.932
N14715 G2 X31 Y72.932 I2
N14720 G1 X38.5
N14725 Y144.932
N14730 X31
N14735 G2 X29 Y146.932 J2
N14740 G1 Y168.932
N14745 G2 X31 Y170.932 I2
N14750 G1 X43.5
N14755 G2 X45.432 Y169.45 J-2
N14760 G3 X45.922 Y169.167 I0.386 J0.104
N14765 G1 X46.308 Y169.27
N14770 X46.383 Y169.291 Z-7.492
N14775 X46.456 Y169.31 Z-7.47
N14780 X46.523 Y169.328 Z-7.433
N14785 X46.581 Y169.344 Z-7.383
N14790 X46.629 Y169.356 Z-7.322
N14795 X46.665 Y169.366 Z-7.253
N14800 X46.687 Y169.372 Z-7.178
N14805 X46.694 Y169.374 Z-7.1
N14810 G0 Z5
N14815 X46.487 Y170.147
N14820 G1 Z-6 F300
N14825 Z-7.6
N14830 X46.48 Y170.145 Z-7.678
N14835 X46.458 Y170.139 Z-7.753
N14840 X46.422 Y170.129 Z-7.822
N14845 X46.374 Y170.116 Z-7.883
N14850 X46.316 Y170.101 Z-7.933
N14855 X46.249 Y170.083 Z-7.97
N14860 X46.176 Y170.063 Z-7.992
N14865 X46.101 Y170.043 Z-8
N14870 X45.715 Y169.94 F150
N14875 G3 X45.432 Y169.45 I0.104 J-0.386
N14880 G1 X45.932 Y167.584 F300
N14885 G2 X46 Y167.066 I-1.932 J-0.518
N14890 G1 Y50.798
N14895 G2 X45.932 Y50.28 I-2
N14900 G1 X45.432 Y48.414
N14905 G2 X43.5 Y46.932 I-1.932 J0.518
N14910 G1 X31
N14915 G2 X29 Y48.932 J2
N14920 G1 Y70.932
N14925 G2 X31 Y72.932 I2
N14930 G1 X38.5
N14935 Y144.932
N14940 X31
N14945 G2 X29 Y146.932 J2
N14950 G1 Y168.932
N14955 G2 X31 Y170.932 I2
N14960 G1 X43.5
N14965 G2 X45.432 Y169.45 J-2
N14970 G3 X45.922 Y169.167 I0.386 J0.104
N14975 G1 X46.308 Y169.27
N14980 X46.383 Y169.291 Z-7.992
N14985 X46.456 Y169.31 Z-7.97
N14990 X46.523 Y169.328 Z-7.933
N14995 X46.581 Y169.344 Z-7.883
N15000 X46.629 Y169.356 Z-7.822
N15005 X46.665 Y169.366 Z-7.753
N15010 X46.687 Y169.372 Z-7.678
N15015 X46.694 Y169.374 Z-7.6
N15020 G0 Z5
N15025 X46.487 Y170.147
N15030 G1 Z-6.5 F300
N15035 Z-8.1
N15040 X46.48 Y170.145 Z-8.178
N15045 X46.458 Y170.139 Z-8.253
N15050 X46.422 Y170.129 Z-8.322
N15055 X46.374 Y170.116 Z-8.383
N15060 X46.316 Y170.101 Z-8.433
N15065 X46.249 Y170.083 Z-8.47
N15070 X46.176 Y170.063 Z-8.492
N15075 X46.101 Y170.043 Z-8.5
N15080 X45.715 Y169.94 F150
N15085 G3 X45.432 Y169.45 I0.104 J-0.386
N15090 G1 X45.932 Y167.584 F300
N15095 G2 X46 Y167.066 I-1.932 J-0.518
N15100 G1 Y50.798
N15105 G2 X45.932 Y50.28 I-2
N15110 G1 X45.432 Y48.414
N15115 G2 X43.5 Y46.932 I-1.932 J0.518
N15120 G1 X31
N15125 G2 X29 Y48.932 J2
N15130 G1 Y70.932
N15135 G2 X31 Y72.932 I2
N15140 G1 X38.5
N15145 Y144.932
N15150 X31
N15155 G2 X29 Y146.932 J2
N15160 G1 Y168.932
N15165 G2 X31 Y170.932 I2
N15170 G1 X43.5
N15175 G2 X45.432 Y169.45 J-2
N15180 G3 X45.922 Y169.167 I0.386 J0.104
N15185 G1 X46.308 Y169.27
N15190 X46.383 Y169.291 Z-8.492
N15195 X46.456 Y169.31 Z-8.47
N15200 X46.523 Y169.328 Z-8.433
N15205 X46.581 Y169.344 Z-8.383
N15210 X46.629 Y169.356 Z-8.322
N15215 X46.665 Y169.366 Z-8.253
N15220 X46.687 Y169.372 Z-8.178
N15225 X46.694 Y169.374 Z-8.1
N15230 G0 Z5
N15235 X46.487 Y170.147
N15240 G1 Z-7 F300
N15245 Z-8.405
N15250 X46.48 Y170.145 Z-8.483
N15255 X46.458 Y170.139 Z-8.558
N15260 X46.422 Y170.129 Z-8.627
N15265 X46.374 Y170.116 Z-8.688
N15270 X46.316 Y170.101 Z-8.738
N15275 X46.249 Y170.083 Z-8.775
N15280 X46.176 Y170.063 Z-8.797
N15285 X46.101 Y170.043 Z-8.805
N15290 X45.715 Y169.94 F150
N15295 G3 X45.432 Y169.45 I0.104 J-0.386
N15300 G1 X45.932 Y167.584 F300
N15305 G2 X46 Y167.066 I-1.932 J-0.518
N15310 G1 Y50.798
N15315 G2 X45.932 Y50.28 I-2
N15320 G1 X45.432 Y48.414
N15325 G2 X43.5 Y46.932 I-1.932 J0.518
N15330 G1 X31
N15335 G2 X29 Y48.932 J2
N15340 G1 Y70.932
N15345 G2 X31 Y72.932 I2
N15350 G1 X38.5
N15355 Y144.932
N15360 X31
N15365 G2 X29 Y146.932 J2
N15370 G1 Y168.932
N15375 G2 X31 Y170.932 I2
N15380 G1 X43.5
N15385 G2 X45.432 Y169.45 J-2
N15390 G3 X45.922 Y169.167 I0.386 J0.104
N15395 G1 X46.308 Y169.27
N15400 X46.383 Y169.291 Z-8.797
N15405 X46.456 Y169.31 Z-8.775
N15410 X46.523 Y169.328 Z-8.738
N15415 X46.581 Y169.344 Z-8.688
N15420 X46.629 Y169.356 Z-8.627
N15425 X46.665 Y169.366 Z-8.558
N15430 X46.687 Y169.372 Z-8.483
N15435 X46.694 Y169.374 Z-8.405
N15440 G0 Z5
N15445 X46.487 Y170.147
N15450 G1 Z-7.305 F300
N15455 Z-8.71
N15460 X46.48 Y170.145 Z-8.788
N15465 X46.458 Y170.139 Z-8.863
N15470 X46.422 Y170.129 Z-8.932
N15475 X46.374 Y170.116 Z-8.993
N15480 X46.316 Y170.101 Z-9.043
N15485 X46.249 Y170.083 Z-9.08
N15490 X46.176 Y170.063 Z-9.102
N15495 X46.101 Y170.043 Z-9.11
N15500 X45.715 Y169.94 F150
N15505 G3 X45.432 Y169.45 I0.104 J-0.386
N15510 G1 X45.932 Y167.584 F300
N15515 G2 X46 Y167.066 I-1.932 J-0.518
N15520 G1 Y50.798
N15525 G2 X45.932 Y50.28 I-2
N15530 G1 X45.432 Y48.414
N15535 G2 X43.5 Y46.932 I-1.932 J0.518
N15540 G1 X31
N15545 G2 X29 Y48.932 J2
N15550 G1 Y70.932
N15555 G2 X31 Y72.932 I2
N15560 G1 X38.5
N15565 Y144.932
N15570 X31
N15575 G2 X29 Y146.932 J2
N15580 G1 Y168.932
N15585 G2 X31 Y170.932 I2
N15590 G1 X43.5
N15595 G2 X45.432 Y169.45 J-2
N15600 G3 X45.922 Y169.167 I0.386 J0.104
N15605 G1 X46.308 Y169.27
N15610 X46.383 Y169.291 Z-9.102
N15615 X46.456 Y169.31 Z-9.08
N15620 X46.523 Y169.328 Z-9.043
N15625 X46.581 Y169.344 Z-8.993
N15630 X46.629 Y169.356 Z-8.932
N15635 X46.665 Y169.366 Z-8.863
N15640 X46.687 Y169.372 Z-8.788
N15645 X46.694 Y169.374 Z-8.71
N15650 G0 Z15
N15655 X52.6 Y88.132
N15660 Z5
N15665 G1 Z1.5 F300
N15670 Z-0.1
N15675 G19 G2 Y87.732 Z-0.5 J-0.4
N15680 G1 Y87.332 F150
N15685 G17 G3 X53 Y86.932 I0.4
N15690 G1 X56.5 F300
N15695 G2 X58.5 Y84.932 J-2
N15700 G1 Y27.932
N15705 X66
N15710 G2 X68 Y25.932 J-2
N15715 G1 Y3.932
N15720 G2 X66 Y1.932 I-2
N15725 G1 X53.5
N15730 G2 X51.568 Y3.414 J2
N15735 G1 X51.068 Y5.28
N15740 G2 X51 Y5.798 I1.932 J0.518
N15745 G1 Y84.932
N15750 G2 X53 Y86.932 I2
N15755 G3 X53.4 Y87.332 J0.4
N15760 G1 Y87.732
N15765 G19 G3 Y88.132 Z-0.1 K0.4
N15770 G0 Z5
N15775 X56.9 Y87.732
N15780 G1 Z1.5 F300
N15785 Z-0.1
N15790 G3 Y88.132 Z-0.5 J0.4
N15795 G1 Y88.532 F150
N15800 G17 G3 X56.5 Y88.932 I-0.4
N15805 G1 X53 F300
N15810 G2 X51 Y90.932 J2
N15815 G1 Y122.066
N15820 G2 X51.068 Y122.584 I2
N15825 G1 X51.568 Y124.45
N15830 G2 X53.5 Y125.932 I1.932 J-0.518
N15835 G1 X66
N15840 G2 X68 Y123.932 J-2
N15845 G1 Y101.932
N15850 G2 X66 Y99.932 I-2
N15855 G1 X58.5
N15860 Y90.932
N15865 G2 X56.5 Y88.932 I-2
N15870 G3 X56.1 Y88.532 J-0.4
N15875 G1 Y88.132
N15880 G19 G2 Y87.732 Z-0.1 K0.4
N15885 G0 Z5
N15890 X52.6 Y88.132
N15895 G1 Z1 F300
N15900 Z-0.6
N15905 G2 Y87.732 Z-1 J-0.4
N15910 G1 Y87.332 F150
N15915 G17 G3 X53 Y86.932 I0.4
N15920 G1 X56.5 F300
N15925 G2 X58.5 Y84.932 J-2
N15930 G1 Y27.932
N15935 X66
N15940 G2 X68 Y25.932 J-2
N15945 G1 Y3.932
N15950 G2 X66 Y1.932 I-2
N15955 G1 X53.5
N15960 G2 X51.568 Y3.414 J2
N15965 G1 X51.068 Y5.28
N15970 G2 X51 Y5.798 I1.932 J0.518
N15975 G1 Y84.932
N15980 G2 X53 Y86.932 I2
N15985 G3 X53.4 Y87.332 J0.4
N15990 G1 Y87.732
N15995 G19 G3 Y88.132 Z-0.6 K0.4
N16000 G0 Z5
N16005 X56.9 Y87.732
N16010 G1 Z1 F300
N16015 Z-0.6
N16020 G3 Y88.132 Z-1 J0.4
N16025 G1 Y88.532 F150
N16030 G17 G3 X56.5 Y88.932 I-0.4
N16035 G1 X53 F300
N16040 G2 X51 Y90.932 J2
N16045 G1 Y122.066
N16050 G2 X51.068 Y122.584 I2
N16055 G1 X51.568 Y124.45
N16060 G2 X53.5 Y125.932 I1.932 J-0.518
N16065 G1 X66
N16070 G2 X68 Y123.932 J-2
N16075 G1 Y101.932
N16080 G2 X66 Y99.932 I-2
N16085 G1 X58.5
N16090 Y90.932
N16095 G2 X56.5 Y88.932 I-2
N16100 G3 X56.1 Y88.532 J-0.4
N16105 G1 Y88.132
N16110 G19 G2 Y87.732 Z-0.6 K0.4
N16115 G0 Z5
N16120 X52.6 Y88.132
N16125 G1 Z0.5 F300
N16130 Z-1.1
N16135 G2 Y87.732 Z-1.5 J-0.4
N16140 G1 Y87.332 F150
N16145 G17 G3 X53 Y86.932 I0.4
N16150 G1 X56.5 F300
N16155 G2 X58.5 Y84.932 J-2
N16160 G1 Y27.932
N16165 X66
N16170 G2 X68 Y25.932 J-2
N16175 G1 Y3.932
N16180 G2 X66 Y1.932 I-2
N16185 G1 X53.5
N16190 G2 X51.568 Y3.414 J2
N16195 G1 X51.068 Y5.28
N16200 G2 X51 Y5.798 I1.932 J0.518
N16205 G1 Y84.932
N16210 G2 X53 Y86.932 I2
N16215 G3 X53.4 Y87.332 J0.4
N16220 G1 Y87.732
N16225 G19 G3 Y88.132 Z-1.1 K0.4
N16230 G0 Z5
N16235 X56.9 Y87.732
N16240 G1 Z0.5 F300
N16245 Z-1.1
N16250 G3 Y88.132 Z-1.5 J0.4
N16255 G1 Y88.532 F150
N16260 G17 G3 X56.5 Y88.932 I-0.4
N16265 G1 X53 F300
N16270 G2 X51 Y90.932 J2
N16275 G1 Y122.066
N16280 G2 X51.068 Y122.584 I2
N16285 G1 X51.568 Y124.45
N16290 G2 X53.5 Y125.932 I1.932 J-0.518
N16295 G1 X66
N16300 G2 X68 Y123.932 J-2
N16305 G1 Y101.932
N16310 G2 X66 Y99.932 I-2
N16315 G1 X58.5
N16320 Y90.932
N16325 G2 X56.5 Y88.932 I-2
N16330 G3 X56.1 Y88.532 J-0.4
N16335 G1 Y88.132
N16340 G19 G2 Y87.732 Z-1.1 K0.4
N16345 G0 Z5
N16350 X52.6 Y88.132
N16355 G1 Z0 F300
N16360 Z-1.6
N16365 G2 Y87.732 Z-2 J-0.4
N16370 G1 Y87.332 F150
N16375 G17 G3 X53 Y86.932 I0.4
N16380 G1 X56.5 F300
N16385 G2 X58.5 Y84.932 J-2
N16390 G1 Y27.932
N16395 X66
N16400 G2 X68 Y25.932 J-2
N16405 G1 Y3.932
N16410 G2 X66 Y1.932 I-2
N16415 G1 X53.5
N16420 G2 X51.568 Y3.414 J2
N16425 G1 X51.068 Y5.28
N16430 G2 X51 Y5.798 I1.932 J0.518
N16435 G1 Y84.932
N16440 G2 X53 Y86.932 I2
N16445 G3 X53.4 Y87.332 J0.4
N16450 G1 Y87.732
N16455 G19 G3 Y88.132 Z-1.6 K0.4
N16460 G0 Z5
N16465 X56.9 Y87.732
N16470 G1 Z0 F300
N16475 Z-1.6
N16480 G3 Y88.132 Z-2 J0.4
N16485 G1 Y88.532 F150
N16490 G17 G3 X56.5 Y88.932 I-0.4
N16495 G1 X53 F300
N16500 G2 X51 Y90.932 J2
N16505 G1 Y122.066
N16510 G2 X51.068 Y122.584 I2
N16515 G1 X51.568 Y124.45
N16520 G2 X53.5 Y125.932 I1.932 J-0.518
N16525 G1 X66
N16530 G2 X68 Y123.932 J-2
N16535 G1 Y101.932
N16540 G2 X66 Y99.932 I-2
N16545 G1 X58.5
N16550 Y90.932
N16555 G2 X56.5 Y88.932 I-2
N16560 G3 X56.1 Y88.532 J-0.4
N16565 G1 Y88.132
N16570 G19 G2 Y87.732 Z-1.6 K0.4
N16575 G0 Z5
N16580 X52.6 Y88.132
N16585 G1 Z-0.5 F300
N16590 Z-2.1
N16595 G2 Y87.732 Z-2.5 J-0.4
N16600 G1 Y87.332 F150
N16605 G17 G3 X53 Y86.932 I0.4
N16610 G1 X56.5 F300
N16615 G2 X58.5 Y84.932 J-2
N16620 G1 Y27.932
N16625 X66
N16630 G2 X68 Y25.932 J-2
N16635 G1 Y3.932
N16640 G2 X66 Y1.932 I-2
N16645 G1 X53.5
N16650 G2 X51.568 Y3.414 J2
N16655 G1 X51.068 Y5.28
N16660 G2 X51 Y5.798 I1.932 J0.518
N16665 G1 Y84.932
N16670 G2 X53 Y86.932 I2
N16675 G3 X53.4 Y87.332 J0.4
N16680 G1 Y87.732
N16685 G19 G3 Y88.132 Z-2.1 K0.4
N16690 G0 Z5
N16695 X56.9 Y87.732
N16700 G1 Z-0.5 F300
N16705 Z-2.1
N16710 G3 Y88.132 Z-2.5 J0.4
N16715 G1 Y88.532 F150
N16720 G17 G3 X56.5 Y88.932 I-0.4
N16725 G1 X53 F300
N16730 G2 X51 Y90.932 J2
N16735 G1 Y122.066
N16740 G2 X51.068 Y122.584 I2
N16745 G1 X51.568 Y124.45
N16750 G2 X53.5 Y125.932 I1.932 J-0.518
N16755 G1 X66
N16760 G2 X68 Y123.932 J-2
N16765 G1 Y101.932
N16770 G2 X66 Y99.932 I-2
N16775 G1 X58.5
N16780 Y90.932
N16785 G2 X56.5 Y88.932 I-2
N16790 G3 X56.1 Y88.532 J-0.4
N16795 G1 Y88.132
N16800 G19 G2 Y87.732 Z-2.1 K0.4
N16805 G0 Z5
N16810 X52.6 Y88.132
N16815 G1 Z-1 F300
N16820 Z-2.6
N16825 G2 Y87.732 Z-3 J-0.4
N16830 G1 Y87.332 F150
N16835 G17 G3 X53 Y86.932 I0.4
N16840 G1 X56.5 F300
N16845 G2 X58.5 Y84.932 J-2
N16850 G1 Y27.932
N16855 X66
N16860 G2 X68 Y25.932 J-2
N16865 G1 Y3.932
N16870 G2 X66 Y1.932 I-2
N16875 G1 X53.5
N16880 G2 X51.568 Y3.414 J2
N16885 G1 X51.068 Y5.28
N16890 G2 X51 Y5.798 I1.932 J0.518
N16895 G1 Y84.932
N16900 G2 X53 Y86.932 I2
N16905 G3 X53.4 Y87.332 J0.4
N16910 G1 Y87.732
N16915 G19 G3 Y88.132 Z-2.6 K0.4
N16920 G0 Z5
N16925 X56.9 Y87.732
N16930 G1 Z-1 F300
N16935 Z-2.6
N16940 G3 Y88.132 Z-3 J0.4
N16945 G1 Y88.532 F150
N16950 G17 G3 X56.5 Y88.932 I-0.4
N16955 G1 X53 F300
N16960 G2 X51 Y90.932 J2
N16965 G1 Y122.066
N16970 G2 X51.068 Y122.584 I2
N16975 G1 X51.568 Y124.45
N16980 G2 X53.5 Y125.932 I1.932 J-0.518
N16985 G1 X66
N16990 G2 X68 Y123.932 J-2
N16995 G1 Y101.932
N17000 G2 X66 Y99.932 I-2
N17005 G1 X58.5
N17010 Y90.932
N17015 G2 X56.5 Y88.932 I-2
N17020 G3 X56.1 Y88.532 J-0.4
N17025 G1 Y88.132
N17030 G19 G2 Y87.732 Z-2.6 K0.4
N17035 G0 Z5
N17040 X52.6 Y88.132
N17045 G1 Z-1.5 F300
N17050 Z-3.1
N17055 G2 Y87.732 Z-3.5 J-0.4
N17060 G1 Y87.332 F150
N17065 G17 G3 X53 Y86.932 I0.4
N17070 G1 X56.5 F300
N17075 G2 X58.5 Y84.932 J-2
N17080 G1 Y27.932
N17085 X66
N17090 G2 X68 Y25.932 J-2
N17095 G1 Y3.932
N17100 G2 X66 Y1.932 I-2
N17105 G1 X53.5
N17110 G2 X51.568 Y3.414 J2
N17115 G1 X51.068 Y5.28
N17120 G2 X51 Y5.798 I1.932 J0.518
N17125 G1 Y84.932
N17130 G2 X53 Y86.932 I2
N17135 G3 X53.4 Y87.332 J0.4
N17140 G1 Y87.732
N17145 G19 G3 Y88.132 Z-3.1 K0.4
N17150 G0 Z5
N17155 X56.9 Y87.732
N17160 G1 Z-1.5 F300
N17165 Z-3.1
N17170 G3 Y88.132 Z-3.5 J0.4
N17175 G1 Y88.532 F150
N17180 G17 G3 X56.5 Y88.932 I-0.4
N17185 G1 X53 F300
N17190 G2 X51 Y90.932 J2
N17195 G1 Y122.066
N17200 G2 X51.068 Y122.584 I2
N17205 G1 X51.568 Y124.45
N17210 G2 X53.5 Y125.932 I1.932 J-0.518
N17215 G1 X66
N17220 G2 X68 Y123.932 J-2
N17225 G1 Y101.932
N17230 G2 X66 Y99.932 I-2
N17235 G1 X58.5
N17240 Y90.932
N17245 G2 X56.5 Y88.932 I-2
N17250 G3 X56.1 Y88.532 J-0.4
N17255 G1 Y88.132
N17260 G19 G2 Y87.732 Z-3.1 K0.4
N17265 G0 Z5
N17270 X52.6 Y88.132
N17275 G1 Z-2 F300
N17280 Z-3.6
N17285 G2 Y87.732 Z-4 J-0.4
N17290 G1 Y87.332 F150
N17295 G17 G3 X53 Y86.932 I0.4
N17300 G1 X56.5 F300
N17305 G2 X58.5 Y84.932 J-2
N17310 G1 Y27.932
N17315 X66
N17320 G2 X68 Y25.932 J-2
N17325 G1 Y3.932
N17330 G2 X66 Y1.932 I-2
N17335 G1 X53.5
N17340 G2 X51.568 Y3.414 J2
N17345 G1 X51.068 Y5.28
N17350 G2 X51 Y5.798 I1.932 J0.518
N17355 G1 Y84.932
N17360 G2 X53 Y86.932 I2
N17365 G3 X53.4 Y87.332 J0.4
N17370 G1 Y87.732
N17375 G19 G3 Y88.132 Z-3.6 K0.4
N17380 G0 Z5
N17385 X56.9 Y87.732
N17390 G1 Z-2 F300
N17395 Z-3.6
N17400 G3 Y88.132 Z-4 J0.4
N17405 G1 Y88.532 F150
N17410 G17 G3 X56.5 Y88.932 I-0.4
N17415 G1 X53 F300
N17420 G2 X51 Y90.932 J2
N17425 G1 Y122.066
N17430 G2 X51.068 Y122.584 I2
N17435 G1 X51.568 Y124.45
N17440 G2 X53.5 Y125.932 I1.932 J-0.518
N17445 G1 X66
N17450 G2 X68 Y123.932 J-2
N17455 G1 Y101.932
N17460 G2 X66 Y99.932 I-2
N17465 G1 X58.5
N17470 Y90.932
N17475 G2 X56.5 Y88.932 I-2
N17480 G3 X56.1 Y88.532 J-0.4
N17485 G1 Y88.132
N17490 G19 G2 Y87.732 Z-3.6 K0.4
N17495 G0 Z5
N17500 X52.6 Y88.132
N17505 G1 Z-2.5 F300
N17510 Z-4.1
N17515 G2 Y87.732 Z-4.5 J-0.4
N17520 G1 Y87.332 F150
N17525 G17 G3 X53 Y86.932 I0.4
N17530 G1 X56.5 F300
N17535 G2 X58.5 Y84.932 J-2
N17540 G1 Y27.932
N17545 X66
N17550 G2 X68 Y25.932 J-2
N17555 G1 Y3.932
N17560 G2 X66 Y1.932 I-2
N17565 G1 X53.5
N17570 G2 X51.568 Y3.414 J2
N17575 G1 X51.068 Y5.28
N17580 G2 X51 Y5.798 I1.932 J0.518
N17585 G1 Y84.932
N17590 G2 X53 Y86.932 I2
N17595 G3 X53.4 Y87.332 J0.4
N17600 G1 Y87.732
N17605 G19 G3 Y88.132 Z-4.1 K0.4
N17610 G0 Z5
N17615 X56.9 Y87.732
N17620 G1 Z-2.5 F300
N17625 Z-4.1
N17630 G3 Y88.132 Z-4.5 J0.4
N17635 G1 Y88.532 F150
N17640 G17 G3 X56.5 Y88.932 I-0.4
N17645 G1 X53 F300
N17650 G2 X51 Y90.932 J2
N17655 G1 Y122.066
N17660 G2 X51.068 Y122.584 I2
N17665 G1 X51.568 Y124.45
N17670 G2 X53.5 Y125.932 I1.932 J-0.518
N17675 G1 X66
N17680 G2 X68 Y123.932 J-2
N17685 G1 Y101.932
N17690 G2 X66 Y99.932 I-2
N17695 G1 X58.5
N17700 Y90.932
N17705 G2 X56.5 Y88.932 I-2
N17710 G3 X56.1 Y88.532 J-0.4
N17715 G1 Y88.132
N17720 G19 G2 Y87.732 Z-4.1 K0.4
N17725 G0 Z5
N17730 X52.6 Y88.132
N17735 G1 Z-3 F300
N17740 Z-4.6
N17745 G2 Y87.732 Z-5 J-0.4
N17750 G1 Y87.332 F150
N17755 G17 G3 X53 Y86.932 I0.4
N17760 G1 X56.5 F300
N17765 G2 X58.5 Y84.932 J-2
N17770 G1 Y27.932
N17775 X66
N17780 G2 X68 Y25.932 J-2
N17785 G1 Y3.932
N17790 G2 X66 Y1.932 I-2
N17795 G1 X53.5
N17800 G2 X51.568 Y3.414 J2
N17805 G1 X51.068 Y5.28
N17810 G2 X51 Y5.798 I1.932 J0.518
N17815 G1 Y84.932
N17820 G2 X53 Y86.932 I2
N17825 G3 X53.4 Y87.332 J0.4
N17830 G1 Y87.732
N17835 G19 G3 Y88.132 Z-4.6 K0.4
N17840 G0 Z5
N17845 X56.9 Y87.732
N17850 G1 Z-3 F300
N17855 Z-4.6
N17860 G3 Y88.132 Z-5 J0.4
N17865 G1 Y88.532 F150
N17870 G17 G3 X56.5 Y88.932 I-0.4
N17875 G1 X53 F300
N17880 G2 X51 Y90.932 J2
N17885 G1 Y122.066
N17890 G2 X51.068 Y122.584 I2
N17895 G1 X51.568 Y124.45
N17900 G2 X53.5 Y125.932 I1.932 J-0.518
N17905 G1 X66
N17910 G2 X68 Y123.932 J-2
N17915 G1 Y101.932
N17920 G2 X66 Y99.932 I-2
N17925 G1 X58.5
N17930 Y90.932
N17935 G2 X56.5 Y88.932 I-2
N17940 G3 X56.1 Y88.532 J-0.4
N17945 G1 Y88.132
N17950 G19 G2 Y87.732 Z-4.6 K0.4
N17955 G0 Z5
N17960 X52.6 Y88.132
N17965 G1 Z-3.5 F300
N17970 Z-5.1
N17975 G2 Y87.732 Z-5.5 J-0.4
N17980 G1 Y87.332 F150
N17985 G17 G3 X53 Y86.932 I0.4
N17990 G1 X56.5 F300
N17995 G2 X58.5 Y84.932 J-2
N18000 G1 Y27.932
N18005 X66
N18010 G2 X68 Y25.932 J-2
N18015 G1 Y3.932
N18020 G2 X66 Y1.932 I-2
N18025 G1 X53.5
N18030 G2 X51.568 Y3.414 J2
N18035 G1 X51.068 Y5.28
N18040 G2 X51 Y5.798 I1.932 J0.518
N18045 G1 Y84.932
N18050 G2 X53 Y86.932 I2
N18055 G3 X53.4 Y87.332 J0.4
N18060 G1 Y87.732
N18065 G19 G3 Y88.132 Z-5.1 K0.4
N18070 G0 Z5
N18075 X56.9 Y87.732
N18080 G1 Z-3.5 F300
N18085 Z-5.1
N18090 G3 Y88.132 Z-5.5 J0.4
N18095 G1 Y88.532 F150
N18100 G17 G3 X56.5 Y88.932 I-0.4
N18105 G1 X53 F300
N18110 G2 X51 Y90.932 J2
N18115 G1 Y122.066
N18120 G2 X51.068 Y122.584 I2
N18125 G1 X51.568 Y124.45
N18130 G2 X53.5 Y125.932 I1.932 J-0.518
N18135 G1 X66
N18140 G2 X68 Y123.932 J-2
N18145 G1 Y101.932
N18150 G2 X66 Y99.932 I-2
N18155 G1 X58.5
N18160 Y90.932
N18165 G2 X56.5 Y88.932 I-2
N18170 G3 X56.1 Y88.532 J-0.4
N18175 G1 Y88.132
N18180 G19 G2 Y87.732 Z-5.1 K0.4
N18185 G0 Z5
N18190 X52.6 Y88.132
N18195 G1 Z-4 F300
N18200 Z-5.6
N18205 G2 Y87.732 Z-6 J-0.4
N18210 G1 Y87.332 F150
N18215 G17 G3 X53 Y86.932 I0.4
N18220 G1 X56.5 F300
N18225 G2 X58.5 Y84.932 J-2
N18230 G1 Y27.932
N18235 X66
N18240 G2 X68 Y25.932 J-2
N18245 G1 Y3.932
N18250 G2 X66 Y1.932 I-2
N18255 G1 X53.5
N18260 G2 X51.568 Y3.414 J2
N18265 G1 X51.068 Y5.28
N18270 G2 X51 Y5.798 I1.932 J0.518
N18275 G1 Y84.932
N18280 G2 X53 Y86.932 I2
N18285 G3 X53.4 Y87.332 J0.4
N18290 G1 Y87.732
N18295 G19 G3 Y88.132 Z-5.6 K0.4
N18300 G0 Z5
N18305 X56.9 Y87.732
N18310 G1 Z-4 F300
N18315 Z-5.6
N18320 G3 Y88.132 Z-6 J0.4
N18325 G1 Y88.532 F150
N18330 G17 G3 X56.5 Y88.932 I-0.4
N18335 G1 X53 F300
N18340 G2 X51 Y90.932 J2
N18345 G1 Y122.066
N18350 G2 X51.068 Y122.584 I2
N18355 G1 X51.568 Y124.45
N18360 G2 X53.5 Y125.932 I1.932 J-0.518
N18365 G1 X66
N18370 G2 X68 Y123.932 J-2
N18375 G1 Y101.932
N18380 G2 X66 Y99.932 I-2
N18385 G1 X58.5
N18390 Y90.932
N18395 G2 X56.5 Y88.932 I-2
N18400 G3 X56.1 Y88.532 J-0.4
N18405 G1 Y88.132
N18410 G19 G2 Y87.732 Z-5.6 K0.4
N18415 G0 Z5
N18420 X52.6 Y88.132
N18425 G1 Z-4.5 F300
N18430 Z-6.1
N18435 G2 Y87.732 Z-6.5 J-0.4
N18440 G1 Y87.332 F150
N18445 G17 G3 X53 Y86.932 I0.4
N18450 G1 X56.5 F300
N18455 G2 X58.5 Y84.932 J-2
N18460 G1 Y27.932
N18465 X66
N18470 G2 X68 Y25.932 J-2
N18475 G1 Y3.932
N18480 G2 X66 Y1.932 I-2
N18485 G1 X53.5
N18490 G2 X51.568 Y3.414 J2
N18495 G1 X51.068 Y5.28
N18500 G2 X51 Y5.798 I1.932 J0.518
N18505 G1 Y84.932
N18510 G2 X53 Y86.932 I2
N18515 G3 X53.4 Y87.332 J0.4
N18520 G1 Y87.732
N18525 G19 G3 Y88.132 Z-6.1 K0.4
N18530 G0 Z5
N18535 X56.9 Y87.732
N18540 G1 Z-4.5 F300
N18545 Z-6.1
N18550 G3 Y88.132 Z-6.5 J0.4
N18555 G1 Y88.532 F150
N18560 G17 G3 X56.5 Y88.932 I-0.4
N18565 G1 X53 F300
N18570 G2 X51 Y90.932 J2
N18575 G1 Y122.066
N18580 G2 X51.068 Y122.584 I2
N18585 G1 X51.568 Y124.45
N18590 G2 X53.5 Y125.932 I1.932 J-0.518
N18595 G1 X66
N18600 G2 X68 Y123.932 J-2
N18605 G1 Y101.932
N18610 G2 X66 Y99.932 I-2
N18615 G1 X58.5
N18620 Y90.932
N18625 G2 X56.5 Y88.932 I-2
N18630 G3 X56.1 Y88.532 J-0.4
N18635 G1 Y88.132
N18640 G19 G2 Y87.732 Z-6.1 K0.4
N18645 G0 Z5
N18650 X52.6 Y88.132
N18655 G1 Z-5 F300
N18660 Z-6.6
N18665 G2 Y87.732 Z-7 J-0.4
N18670 G1 Y87.332 F150
N18675 G17 G3 X53 Y86.932 I0.4
N18680 G1 X56.5 F300
N18685 G2 X58.5 Y84.932 J-2
N18690 G1 Y27.932
N18695 X66
N18700 G2 X68 Y25.932 J-2
N18705 G1 Y3.932
N18710 G2 X66 Y1.932 I-2
N18715 G1 X53.5
N18720 G2 X51.568 Y3.414 J2
N18725 G1 X51.068 Y5.28
N18730 G2 X51 Y5.798 I1.932 J0.518
N18735 G1 Y84.932
N18740 G2 X53 Y86.932 I2
N18745 G3 X53.4 Y87.332 J0.4
N18750 G1 Y87.732
N18755 G19 G3 Y88.132 Z-6.6 K0.4
N18760 G0 Z5
N18765 X56.9 Y87.732
N18770 G1 Z-5 F300
N18775 Z-6.6
N18780 G3 Y88.132 Z-7 J0.4
N18785 G1 Y88.532 F150
N18790 G17 G3 X56.5 Y88.932 I-0.4
N18795 G1 X53 F300
N18800 G2 X51 Y90.932 J2
N18805 G1 Y122.066
N18810 G2 X51.068 Y122.584 I2
N18815 G1 X51.568 Y124.45
N18820 G2 X53.5 Y125.932 I1.932 J-0.518
N18825 G1 X66
N18830 G2 X68 Y123.932 J-2
N18835 G1 Y101.932
N18840 G2 X66 Y99.932 I-2
N18845 G1 X58.5
N18850 Y90.932
N18855 G2 X56.5 Y88.932 I-2
N18860 G3 X56.1 Y88.532 J-0.4
N18865 G1 Y88.132
N18870 G19 G2 Y87.732 Z-6.6 K0.4
N18875 G0 Z5
N18880 X52.6 Y88.132
N18885 G1 Z-5.5 F300
N18890 Z-7.1
N18895 G2 Y87.732 Z-7.5 J-0.4
N18900 G1 Y87.332 F150
N18905 G17 G3 X53 Y86.932 I0.4
N18910 G1 X56.5 F300
N18915 G2 X58.5 Y84.932 J-2
N18920 G1 Y27.932
N18925 X66
N18930 G2 X68 Y25.932 J-2
N18935 G1 Y3.932
N18940 G2 X66 Y1.932 I-2
N18945 G1 X53.5
N18950 G2 X51.568 Y3.414 J2
N18955 G1 X51.068 Y5.28
N18960 G2 X51 Y5.798 I1.932 J0.518
N18965 G1 Y84.932
N18970 G2 X53 Y86.932 I2
N18975 G3 X53.4 Y87.332 J0.4
N18980 G1 Y87.732
N18985 G19 G3 Y88.132 Z-7.1 K0.4
N18990 G0 Z5
N18995 X56.9 Y87.732
N19000 G1 Z-5.5 F300
N19005 Z-7.1
N19010 G3 Y88.132 Z-7.5 J0.4
N19015 G1 Y88.532 F150
N19020 G17 G3 X56.5 Y88.932 I-0.4
N19025 G1 X53 F300
N19030 G2 X51 Y90.932 J2
N19035 G1 Y122.066
N19040 G2 X51.068 Y122.584 I2
N19045 G1 X51.568 Y124.45
N19050 G2 X53.5 Y125.932 I1.932 J-0.518
N19055 G1 X66
N19060 G2 X68 Y123.932 J-2
N19065 G1 Y101.932
N19070 G2 X66 Y99.932 I-2
N19075 G1 X58.5
N19080 Y90.932
N19085 G2 X56.5 Y88.932 I-2
N19090 G3 X56.1 Y88.532 J-0.4
N19095 G1 Y88.132
N19100 G19 G2 Y87.732 Z-7.1 K0.4
N19105 G0 Z5
N19110 X52.6 Y88.132
N19115 G1 Z-6 F300
N19120 Z-7.6
N19125 G2 Y87.732 Z-8 J-0.4
N19130 G1 Y87.332 F150
N19135 G17 G3 X53 Y86.932 I0.4
N19140 G1 X56.5 F300
N19145 G2 X58.5 Y84.932 J-2
N19150 G1 Y27.932
N19155 X66
N19160 G2 X68 Y25.932 J-2
N19165 G1 Y3.932
N19170 G2 X66 Y1.932 I-2
N19175 G1 X53.5
N19180 G2 X51.568 Y3.414 J2
N19185 G1 X51.068 Y5.28
N19190 G2 X51 Y5.798 I1.932 J0.518
N19195 G1 Y84.932
N19200 G2 X53 Y86.932 I2
N19205 G3 X53.4 Y87.332 J0.4
N19210 G1 Y87.732
N19215 G19 G3 Y88.132 Z-7.6 K0.4
N19220 G0 Z5
N19225 X56.9 Y87.732
N19230 G1 Z-6 F300
N19235 Z-7.6
N19240 G3 Y88.132 Z-8 J0.4
N19245 G1 Y88.532 F150
N19250 G17 G3 X56.5 Y88.932 I-0.4
N19255 G1 X53 F300
N19260 G2 X51 Y90.932 J2
N19265 G1 Y122.066
N19270 G2 X51.068 Y122.584 I2
N19275 G1 X51.568 Y124.45
N19280 G2 X53.5 Y125.932 I1.932 J-0.518
N19285 G1 X66
N19290 G2 X68 Y123.932 J-2
N19295 G1 Y101.932
N19300 G2 X66 Y99.932 I-2
N19305 G1 X58.5
N19310 Y90.932
N19315 G2 X56.5 Y88.932 I-2
N19320 G3 X56.1 Y88.532 J-0.4
N19325 G1 Y88.132
N19330 G19 G2 Y87.732 Z-7.6 K0.4
N19335 G0 Z5
N19340 X52.6 Y88.132
N19345 G1 Z-6.5 F300
N19350 Z-8.1
N19355 G2 Y87.732 Z-8.5 J-0.4
N19360 G1 Y87.332 F150
N19365 G17 G3 X53 Y86.932 I0.4
N19370 G1 X56.5 F300
N19375 G2 X58.5 Y84.932 J-2
N19380 G1 Y27.932
N19385 X66
N19390 G2 X68 Y25.932 J-2
N19395 G1 Y3.932
N19400 G2 X66 Y1.932 I-2
N19405 G1 X53.5
N19410 G2 X51.568 Y3.414 J2
N19415 G1 X51.068 Y5.28
N19420 G2 X51 Y5.798 I1.932 J0.518
N19425 G1 Y84.932
N19430 G2 X53 Y86.932 I2
N19435 G3 X53.4 Y87.332 J0.4
N19440 G1 Y87.732
N19445 G19 G3 Y88.132 Z-8.1 K0.4
N19450 G0 Z5
N19455 X56.9 Y87.732
N19460 G1 Z-6.5 F300
N19465 Z-8.1
N19470 G3 Y88.132 Z-8.5 J0.4
N19475 G1 Y88.532 F150
N19480 G17 G3 X56.5 Y88.932 I-0.4
N19485 G1 X53 F300
N19490 G2 X51 Y90.932 J2
N19495 G1 Y122.066
N19500 G2 X51.068 Y122.584 I2
N19505 G1 X51.568 Y124.45
N19510 G2 X53.5 Y125.932 I1.932 J-0.518
N19515 G1 X66
N19520 G2 X68 Y123.932 J-2
N19525 G1 Y101.932
N19530 G2 X66 Y99.932 I-2
N19535 G1 X58.5
N19540 Y90.932
N19545 G2 X56.5 Y88.932 I-2
N19550 G3 X56.1 Y88.532 J-0.4
N19555 G1 Y88.132
N19560 G19 G2 Y87.732 Z-8.1 K0.4
N19565 G0 Z5
N19570 X52.6 Y88.132
N19575 G1 Z-7 F300
N19580 Z-8.406
N19585 G2 Y87.732 Z-8.806 J-0.4
N19590 G1 Y87.332 F150
N19595 G17 G3 X53 Y86.932 I0.4
N19600 G1 X56.5 F300
N19605 G2 X58.5 Y84.932 J-2
N19610 G1 Y27.932
N19615 X66
N19620 G2 X68 Y25.932 J-2
N19625 G1 Y3.932
N19630 G2 X66 Y1.932 I-2
N19635 G1 X53.5
N19640 G2 X51.568 Y3.414 J2
N19645 G1 X51.068 Y5.28
N19650 G2 X51 Y5.798 I1.932 J0.518
N19655 G1 Y84.932
N19660 G2 X53 Y86.932 I2
N19665 G3 X53.4 Y87.332 J0.4
N19670 G1 Y87.732
N19675 G19 G3 Y88.132 Z-8.406 K0.4
N19680 G0 Z5
N19685 X56.9 Y87.732
N19690 G1 Z-7 F300
N19695 Z-8.406
N19700 G3 Y88.132 Z-8.806 J0.4
N19705 G1 Y88.532 F150
N19710 G17 G3 X56.5 Y88.932 I-0.4
N19715 G1 X53 F300
N19720 G2 X51 Y90.932 J2
N19725 G1 Y122.066
N19730 G2 X51.068 Y122.584 I2
N19735 G1 X51.568 Y124.45
N19740 G2 X53.5 Y125.932 I1.932 J-0.518
N19745 G1 X66
N19750 G2 X68 Y123.932 J-2
N19755 G1 Y101.932
N19760 G2 X66 Y99.932 I-2
N19765 G1 X58.5
N19770 Y90.932
N19775 G2 X56.5 Y88.932 I-2
N19780 G3 X56.1 Y88.532 J-0.4
N19785 G1 Y88.132
N19790 G19 G2 Y87.732 Z-8.406 K0.4
N19795 G0 Z5
N19800 X52.6 Y88.132
N19805 G1 Z-7.306 F300
N19810 Z-8.711
N19815 G2 Y87.732 Z-9.111 J-0.4
N19820 G1 Y87.332 F150
N19825 G17 G3 X53 Y86.932 I0.4
N19830 G1 X56.5 F300
N19835 G2 X58.5 Y84.932 J-2
N19840 G1 Y27.932
N19845 X66
N19850 G2 X68 Y25.932 J-2
N19855 G1 Y3.932
N19860 G2 X66 Y1.932 I-2
N19865 G1 X53.5
N19870 G2 X51.568 Y3.414 J2
N19875 G1 X51.068 Y5.28
N19880 G2 X51 Y5.798 I1.932 J0.518
N19885 G1 Y84.932
N19890 G2 X53 Y86.932 I2
N19895 G3 X53.4 Y87.332 J0.4
N19900 G1 Y87.732
N19905 G19 G3 Y88.132 Z-8.711 K0.4
N19910 G0 Z5
N19915 X56.9 Y87.732
N19920 G1 Z-7.306 F300
N19925 Z-8.711
N19930 G3 Y88.132 Z-9.111 J0.4
N19935 G1 Y88.532 F150
N19940 G17 G3 X56.5 Y88.932 I-0.4
N19945 G1 X53 F300
N19950 G2 X51 Y90.932 J2
N19955 G1 Y122.066
N19960 G2 X51.068 Y122.584 I2
N19965 G1 X51.568 Y124.45
N19970 G2 X53.5 Y125.932 I1.932 J-0.518
N19975 G1 X66
N19980 G2 X68 Y123.932 J-2
N19985 G1 Y101.932
N19990 G2 X66 Y99.932 I-2
N19995 G1 X58.5
N20000 Y90.932
N20005 G2 X56.5 Y88.932 I-2
N20010 G3 X56.1 Y88.532 J-0.4
N20015 G1 Y88.132
N20020 G19 G2 Y87.732 Z-8.711 K0.4
N20025 G0 Z15
N20030 G17
N20035 M9
N20040 G28
N20045 M30
%
